dashboard/static/social/luts/bw.cube
TITLE "bw"
LUT_3D_SIZE 33
0.000000 0.000000 0.000000
0.009375 0.009375 0.009375
0.018750 0.018750 0.018750
0.028125 0.028125 0.028125
0.037500 0.037500 0.037500
0.046875 0.046875 0.046875
0.056250 0.056250 0.056250
0.065625 0.065625 0.065625
0.075000 0.075000 0.075000
0.084375 0.084375 0.084375
0.093750 0.093750 0.093750
0.103125 0.103125 0.103125
0.112500 0.112500 0.112500
0.121875 0.121875 0.121875
0.131250 0.131250 0.131250
0.140625 0.140625 0.140625
0.150000 0.150000 0.150000
0.159375 0.159375 0.159375
0.168750 0.168750 0.168750
0.178125 0.178125 0.178125
0.187500 0.187500 0.187500
0.196875 0.196875 0.196875
0.206250 0.206250 0.206250
0.215625 0.215625 0.215625
0.225000 0.225000 0.225000
0.234375 0.234375 0.234375
0.243750 0.243750 0.243750
0.253125 0.253125 0.253125
0.262500 0.262500 0.262500
0.271875 0.271875 0.271875
0.281250 0.281250 0.281250
0.290625 0.290625 0.290625
0.300000 0.300000 0.300000
0.018437 0.018437 0.018437
0.027812 0.027812 0.027812
0.037187 0.037187 0.037187
0.046562 0.046562 0.046562
0.055938 0.055938 0.055938
0.065312 0.065312 0.065312
0.074687 0.074687 0.074687
0.084062 0.084062 0.084062
0.093437 0.093437 0.093437
0.102812 0.102812 0.102812
0.112187 0.112187 0.112187
0.121562 0.121562 0.121562
0.130937 0.130937 0.130937
0.140313 0.140313 0.140313
0.149688 0.149688 0.149688
0.159062 0.159062 0.159062
0.168437 0.168437 0.168437
0.177812 0.177812 0.177812
0.187187 0.187187 0.187187
0.196563 0.196563 0.196563
0.205937 0.205937 0.205937
0.215312 0.215312 0.215312
0.224687 0.224687 0.224687
0.234062 0.234062 0.234062
0.243437 0.243437 0.243437
0.252812 0.252812 0.252812
0.262188 0.262188 0.262188
0.271562 0.271562 0.271562
0.280938 0.280938 0.280938
0.290312 0.290312 0.290312
0.299687 0.299687 0.299687
0.309062 0.309062 0.309062
0.318437 0.318437 0.318437
0.036875 0.036875 0.036875
0.046250 0.046250 0.046250
0.055625 0.055625 0.055625
0.065000 0.065000 0.065000
0.074375 0.074375 0.074375
0.083750 0.083750 0.083750
0.093125 0.093125 0.093125
0.102500 0.102500 0.102500
0.111875 0.111875 0.111875
0.121250 0.121250 0.121250
0.130625 0.130625 0.130625
0.140000 0.140000 0.140000
0.149375 0.149375 0.149375
0.158750 0.158750 0.158750
0.168125 0.168125 0.168125
0.177500 0.177500 0.177500
0.186875 0.186875 0.186875
0.196250 0.196250 0.196250
0.205625 0.205625 0.205625
0.215000 0.215000 0.215000
0.224375 0.224375 0.224375
0.233750 0.233750 0.233750
0.243125 0.243125 0.243125
0.252500 0.252500 0.252500
0.261875 0.261875 0.261875
0.271250 0.271250 0.271250
0.280625 0.280625 0.280625
0.290000 0.290000 0.290000
0.299375 0.299375 0.299375
0.308750 0.308750 0.308750
0.318125 0.318125 0.318125
0.327500 0.327500 0.327500
0.336875 0.336875 0.336875
0.055313 0.055313 0.055313
0.064687 0.064687 0.064687
0.074063 0.074063 0.074063
0.083437 0.083437 0.083437
0.092812 0.092812 0.092812
0.102188 0.102188 0.102188
0.111562 0.111562 0.111562
0.120938 0.120938 0.120938
0.130312 0.130312 0.130312
0.139687 0.139687 0.139687
0.149062 0.149062 0.149062
0.158438 0.158438 0.158438
0.167812 0.167812 0.167812
0.177187 0.177187 0.177187
0.186563 0.186563 0.186563
0.195937 0.195937 0.195937
0.205313 0.205313 0.205313
0.214687 0.214687 0.214687
0.224062 0.224062 0.224062
0.233438 0.233438 0.233438
0.242812 0.242812 0.242812
0.252188 0.252188 0.252188
0.261562 0.261562 0.261562
0.270937 0.270937 0.270937
0.280312 0.280312 0.280312
0.289687 0.289687 0.289687
0.299063 0.299063 0.299063
0.308437 0.308437 0.308437
0.317812 0.317812 0.317812
0.327187 0.327187 0.327187
0.336562 0.336562 0.336562
0.345937 0.345937 0.345937
0.355312 0.355312 0.355312
0.073750 0.073750 0.073750
0.083125 0.083125 0.083125
0.092500 0.092500 0.092500
0.101875 0.101875 0.101875
0.111250 0.111250 0.111250
0.120625 0.120625 0.120625
0.130000 0.130000 0.130000
0.139375 0.139375 0.139375
0.148750 0.148750 0.148750
0.158125 0.158125 0.158125
0.167500 0.167500 0.167500
0.176875 0.176875 0.176875
0.186250 0.186250 0.186250
0.195625 0.195625 0.195625
0.205000 0.205000 0.205000
0.214375 0.214375 0.214375
0.223750 0.223750 0.223750
0.233125 0.233125 0.233125
0.242500 0.242500 0.242500
0.251875 0.251875 0.251875
0.261250 0.261250 0.261250
0.270625 0.270625 0.270625
0.280000 0.280000 0.280000
0.289375 0.289375 0.289375
0.298750 0.298750 0.298750
0.308125 0.308125 0.308125
0.317500 0.317500 0.317500
0.326875 0.326875 0.326875
0.336250 0.336250 0.336250
0.345625 0.345625 0.345625
0.355000 0.355000 0.355000
0.364375 0.364375 0.364375
0.373750 0.373750 0.373750
0.092187 0.092187 0.092187
0.101562 0.101562 0.101562
0.110937 0.110937 0.110937
0.120312 0.120312 0.120312
0.129687 0.129687 0.129687
0.139062 0.139062 0.139062
0.148438 0.148438 0.148438
0.157812 0.157812 0.157812
0.167187 0.167187 0.167187
0.176562 0.176562 0.176562
0.185937 0.185937 0.185937
0.195312 0.195312 0.195312
0.204687 0.204687 0.204687
0.214062 0.214062 0.214062
0.223438 0.223438 0.223438
0.232812 0.232812 0.232812
0.242188 0.242188 0.242188
0.251562 0.251562 0.251562
0.260937 0.260937 0.260937
0.270313 0.270313 0.270313
0.279687 0.279687 0.279687
0.289062 0.289062 0.289062
0.298437 0.298437 0.298437
0.307812 0.307812 0.307812
0.317187 0.317187 0.317187
0.326562 0.326562 0.326562
0.335938 0.335938 0.335938
0.345312 0.345312 0.345312
0.354687 0.354687 0.354687
0.364062 0.364062 0.364062
0.373437 0.373437 0.373437
0.382812 0.382812 0.382812
0.392187 0.392187 0.392187
0.110625 0.110625 0.110625
0.120000 0.120000 0.120000
0.129375 0.129375 0.129375
0.138750 0.138750 0.138750
0.148125 0.148125 0.148125
0.157500 0.157500 0.157500
0.166875 0.166875 0.166875
0.176250 0.176250 0.176250
0.185625 0.185625 0.185625
0.195000 0.195000 0.195000
0.204375 0.204375 0.204375
0.213750 0.213750 0.213750
0.223125 0.223125 0.223125
0.232500 0.232500 0.232500
0.241875 0.241875 0.241875
0.251250 0.251250 0.251250
0.260625 0.260625 0.260625
0.270000 0.270000 0.270000
0.279375 0.279375 0.279375
0.288750 0.288750 0.288750
0.298125 0.298125 0.298125
0.307500 0.307500 0.307500
0.316875 0.316875 0.316875
0.326250 0.326250 0.326250
0.335625 0.335625 0.335625
0.345000 0.345000 0.345000
0.354375 0.354375 0.354375
0.363750 0.363750 0.363750
0.373125 0.373125 0.373125
0.382500 0.382500 0.382500
0.391875 0.391875 0.391875
0.401250 0.401250 0.401250
0.410625 0.410625 0.410625
0.129062 0.129062 0.129062
0.138437 0.138437 0.138437
0.147812 0.147812 0.147812
0.157187 0.157187 0.157187
0.166563 0.166563 0.166563
0.175937 0.175937 0.175937
0.185312 0.185312 0.185312
0.194688 0.194688 0.194688
0.204062 0.204062 0.204062
0.213438 0.213438 0.213438
0.222812 0.222812 0.222812
0.232187 0.232187 0.232187
0.241562 0.241562 0.241562
0.250937 0.250937 0.250937
0.260313 0.260313 0.260313
0.269687 0.269687 0.269687
0.279062 0.279062 0.279062
0.288438 0.288438 0.288438
0.297812 0.297812 0.297812
0.307188 0.307188 0.307188
0.316562 0.316562 0.316562
0.325937 0.325937 0.325937
0.335313 0.335313 0.335313
0.344687 0.344687 0.344687
0.354062 0.354062 0.354062
0.363437 0.363437 0.363437
0.372812 0.372812 0.372812
0.382188 0.382188 0.382188
0.391563 0.391563 0.391563
0.400937 0.400937 0.400937
0.410312 0.410312 0.410312
0.419687 0.419687 0.419687
0.429063 0.429063 0.429063
0.147500 0.147500 0.147500
0.156875 0.156875 0.156875
0.166250 0.166250 0.166250
0.175625 0.175625 0.175625
0.185000 0.185000 0.185000
0.194375 0.194375 0.194375
0.203750 0.203750 0.203750
0.213125 0.213125 0.213125
0.222500 0.222500 0.222500
0.231875 0.231875 0.231875
0.241250 0.241250 0.241250
0.250625 0.250625 0.250625
0.260000 0.260000 0.260000
0.269375 0.269375 0.269375
0.278750 0.278750 0.278750
0.288125 0.288125 0.288125
0.297500 0.297500 0.297500
0.306875 0.306875 0.306875
0.316250 0.316250 0.316250
0.325625 0.325625 0.325625
0.335000 0.335000 0.335000
0.344375 0.344375 0.344375
0.353750 0.353750 0.353750
0.363125 0.363125 0.363125
0.372500 0.372500 0.372500
0.381875 0.381875 0.381875
0.391250 0.391250 0.391250
0.400625 0.400625 0.400625
0.410000 0.410000 0.410000
0.419375 0.419375 0.419375
0.428750 0.428750 0.428750
0.438125 0.438125 0.438125
0.447500 0.447500 0.447500
0.165937 0.165937 0.165937
0.175312 0.175312 0.175312
0.184687 0.184687 0.184687
0.194062 0.194062 0.194062
0.203437 0.203437 0.203437
0.212812 0.212812 0.212812
0.222187 0.222187 0.222187
0.231563 0.231563 0.231563
0.240937 0.240937 0.240937
0.250312 0.250312 0.250312
0.259687 0.259687 0.259687
0.269062 0.269062 0.269062
0.278438 0.278438 0.278438
0.287812 0.287812 0.287812
0.297187 0.297187 0.297187
0.306562 0.306562 0.306562
0.315937 0.315937 0.315937
0.325313 0.325313 0.325313
0.334687 0.334687 0.334687
0.344062 0.344062 0.344062
0.353437 0.353437 0.353437
0.362812 0.362812 0.362812
0.372188 0.372188 0.372188
0.381562 0.381562 0.381562
0.390937 0.390937 0.390937
0.400312 0.400312 0.400312
0.409687 0.409687 0.409687
0.419063 0.419063 0.419063
0.428438 0.428438 0.428438
0.437812 0.437812 0.437812
0.447187 0.447187 0.447187
0.456562 0.456562 0.456562
0.465938 0.465938 0.465938
0.184375 0.184375 0.184375
0.193750 0.193750 0.193750
0.203125 0.203125 0.203125
0.212500 0.212500 0.212500
0.221875 0.221875 0.221875
0.231250 0.231250 0.231250
0.240625 0.240625 0.240625
0.250000 0.250000 0.250000
0.259375 0.259375 0.259375
0.268750 0.268750 0.268750
0.278125 0.278125 0.278125
0.287500 0.287500 0.287500
0.296875 0.296875 0.296875
0.306250 0.306250 0.306250
0.315625 0.315625 0.315625
0.325000 0.325000 0.325000
0.334375 0.334375 0.334375
0.343750 0.343750 0.343750
0.353125 0.353125 0.353125
0.362500 0.362500 0.362500
0.371875 0.371875 0.371875
0.381250 0.381250 0.381250
0.390625 0.390625 0.390625
0.400000 0.400000 0.400000
0.409375 0.409375 0.409375
0.418750 0.418750 0.418750
0.428125 0.428125 0.428125
0.437500 0.437500 0.437500
0.446875 0.446875 0.446875
0.456250 0.456250 0.456250
0.465625 0.465625 0.465625
0.475000 0.475000 0.475000
0.484375 0.484375 0.484375
0.202812 0.202812 0.202812
0.212187 0.212187 0.212187
0.221562 0.221562 0.221562
0.230937 0.230937 0.230937
0.240312 0.240312 0.240312
0.249687 0.249687 0.249687
0.259062 0.259062 0.259062
0.268437 0.268437 0.268437
0.277812 0.277812 0.277812
0.287187 0.287187 0.287187
0.296562 0.296562 0.296562
0.305937 0.305937 0.305937
0.315312 0.315312 0.315312
0.324687 0.324687 0.324687
0.334062 0.334062 0.334062
0.343437 0.343437 0.343437
0.352812 0.352812 0.352812
0.362187 0.362187 0.362187
0.371562 0.371562 0.371562
0.380937 0.380937 0.380937
0.390312 0.390312 0.390312
0.399687 0.399687 0.399687
0.409062 0.409062 0.409062
0.418437 0.418437 0.418437
0.427812 0.427812 0.427812
0.437187 0.437187 0.437187
0.446562 0.446562 0.446562
0.455937 0.455937 0.455937
0.465313 0.465313 0.465313
0.474687 0.474687 0.474687
0.484062 0.484062 0.484062
0.493437 0.493437 0.493437
0.502812 0.502812 0.502812
0.221250 0.221250 0.221250
0.230625 0.230625 0.230625
0.240000 0.240000 0.240000
0.249375 0.249375 0.249375
0.258750 0.258750 0.258750
0.268125 0.268125 0.268125
0.277500 0.277500 0.277500
0.286875 0.286875 0.286875
0.296250 0.296250 0.296250
0.305625 0.305625 0.305625
0.315000 0.315000 0.315000
0.324375 0.324375 0.324375
0.333750 0.333750 0.333750
0.343125 0.343125 0.343125
0.352500 0.352500 0.352500
0.361875 0.361875 0.361875
0.371250 0.371250 0.371250
0.380625 0.380625 0.380625
0.390000 0.390000 0.390000
0.399375 0.399375 0.399375
0.408750 0.408750 0.408750
0.418125 0.418125 0.418125
0.427500 0.427500 0.427500
0.436875 0.436875 0.436875
0.446250 0.446250 0.446250
0.455625 0.455625 0.455625
0.465000 0.465000 0.465000
0.474375 0.474375 0.474375
0.483750 0.483750 0.483750
0.493125 0.493125 0.493125
0.502500 0.502500 0.502500
0.511875 0.511875 0.511875
0.521250 0.521250 0.521250
0.239687 0.239687 0.239687
0.249062 0.249062 0.249062
0.258437 0.258437 0.258437
0.267813 0.267813 0.267813
0.277187 0.277187 0.277187
0.286562 0.286562 0.286562
0.295937 0.295937 0.295937
0.305312 0.305312 0.305312
0.314688 0.314688 0.314688
0.324062 0.324062 0.324062
0.333437 0.333437 0.333437
0.342812 0.342812 0.342812
0.352187 0.352187 0.352187
0.361563 0.361563 0.361563
0.370938 0.370938 0.370938
0.380312 0.380312 0.380312
0.389687 0.389687 0.389687
0.399062 0.399062 0.399062
0.408438 0.408438 0.408438
0.417813 0.417813 0.417813
0.427187 0.427187 0.427187
0.436562 0.436562 0.436562
0.445937 0.445937 0.445937
0.455313 0.455313 0.455313
0.464687 0.464687 0.464687
0.474062 0.474062 0.474062
0.483437 0.483437 0.483437
0.492812 0.492812 0.492812
0.502188 0.502188 0.502188
0.511562 0.511562 0.511562
0.520938 0.520938 0.520938
0.530312 0.530312 0.530312
0.539687 0.539687 0.539687
0.258125 0.258125 0.258125
0.267500 0.267500 0.267500
0.276875 0.276875 0.276875
0.286250 0.286250 0.286250
0.295625 0.295625 0.295625
0.305000 0.305000 0.305000
0.314375 0.314375 0.314375
0.323750 0.323750 0.323750
0.333125 0.333125 0.333125
0.342500 0.342500 0.342500
0.351875 0.351875 0.351875
0.361250 0.361250 0.361250
0.370625 0.370625 0.370625
0.380000 0.380000 0.380000
0.389375 0.389375 0.389375
0.398750 0.398750 0.398750
0.408125 0.408125 0.408125
0.417500 0.417500 0.417500
0.426875 0.426875 0.426875
0.436250 0.436250 0.436250
0.445625 0.445625 0.445625
0.455000 0.455000 0.455000
0.464375 0.464375 0.464375
0.473750 0.473750 0.473750
0.483125 0.483125 0.483125
0.492500 0.492500 0.492500
0.501875 0.501875 0.501875
0.511250 0.511250 0.511250
0.520625 0.520625 0.520625
0.530000 0.530000 0.530000
0.539375 0.539375 0.539375
0.548750 0.548750 0.548750
0.558125 0.558125 0.558125
0.276562 0.276562 0.276562
0.285938 0.285938 0.285938
0.295312 0.295312 0.295312
0.304688 0.304688 0.304688
0.314062 0.314062 0.314062
0.323437 0.323437 0.323437
0.332812 0.332812 0.332812
0.342187 0.342187 0.342187
0.351562 0.351562 0.351562
0.360937 0.360937 0.360937
0.370312 0.370312 0.370312
0.379687 0.379687 0.379687
0.389062 0.389062 0.389062
0.398438 0.398438 0.398438
0.407813 0.407813 0.407813
0.417187 0.417187 0.417187
0.426562 0.426562 0.426562
0.435937 0.435937 0.435937
0.445312 0.445312 0.445312
0.454688 0.454688 0.454688
0.464062 0.464062 0.464062
0.473437 0.473437 0.473437
0.482812 0.482812 0.482812
0.492188 0.492188 0.492188
0.501562 0.501562 0.501562
0.510938 0.510938 0.510938
0.520312 0.520312 0.520312
0.529687 0.529687 0.529687
0.539062 0.539062 0.539062
0.548437 0.548437 0.548437
0.557813 0.557813 0.557813
0.567187 0.567187 0.567187
0.576562 0.576562 0.576562
0.295000 0.295000 0.295000
0.304375 0.304375 0.304375
0.313750 0.313750 0.313750
0.323125 0.323125 0.323125
0.332500 0.332500 0.332500
0.341875 0.341875 0.341875
0.351250 0.351250 0.351250
0.360625 0.360625 0.360625
0.370000 0.370000 0.370000
0.379375 0.379375 0.379375
0.388750 0.388750 0.388750
0.398125 0.398125 0.398125
0.407500 0.407500 0.407500
0.416875 0.416875 0.416875
0.426250 0.426250 0.426250
0.435625 0.435625 0.435625
0.445000 0.445000 0.445000
0.454375 0.454375 0.454375
0.463750 0.463750 0.463750
0.473125 0.473125 0.473125
0.482500 0.482500 0.482500
0.491875 0.491875 0.491875
0.501250 0.501250 0.501250
0.510625 0.510625 0.510625
0.520000 0.520000 0.520000
0.529375 0.529375 0.529375
0.538750 0.538750 0.538750
0.548125 0.548125 0.548125
0.557500 0.557500 0.557500
0.566875 0.566875 0.566875
0.576250 0.576250 0.576250
0.585625 0.585625 0.585625
0.595000 0.595000 0.595000
0.313437 0.313437 0.313437
0.322813 0.322813 0.322813
0.332187 0.332187 0.332187
0.341562 0.341562 0.341562
0.350937 0.350937 0.350937
0.360312 0.360312 0.360312
0.369687 0.369687 0.369687
0.379062 0.379062 0.379062
0.388437 0.388437 0.388437
0.397812 0.397812 0.397812
0.407187 0.407187 0.407187
0.416562 0.416562 0.416562
0.425937 0.425937 0.425937
0.435312 0.435312 0.435312
0.444688 0.444688 0.444688
0.454062 0.454062 0.454062
0.463437 0.463437 0.463437
0.472812 0.472812 0.472812
0.482187 0.482187 0.482187
0.491563 0.491563 0.491563
0.500938 0.500938 0.500938
0.510312 0.510312 0.510312
0.519687 0.519687 0.519687
0.529062 0.529062 0.529062
0.538437 0.538437 0.538437
0.547813 0.547813 0.547813
0.557187 0.557187 0.557187
0.566562 0.566562 0.566562
0.575937 0.575937 0.575937
0.585312 0.585312 0.585312
0.594688 0.594688 0.594688
0.604062 0.604062 0.604062
0.613437 0.613437 0.613437
0.331875 0.331875 0.331875
0.341250 0.341250 0.341250
0.350625 0.350625 0.350625
0.360000 0.360000 0.360000
0.369375 0.369375 0.369375
0.378750 0.378750 0.378750
0.388125 0.388125 0.388125
0.397500 0.397500 0.397500
0.406875 0.406875 0.406875
0.416250 0.416250 0.416250
0.425625 0.425625 0.425625
0.435000 0.435000 0.435000
0.444375 0.444375 0.444375
0.453750 0.453750 0.453750
0.463125 0.463125 0.463125
0.472500 0.472500 0.472500
0.481875 0.481875 0.481875
0.491250 0.491250 0.491250
0.500625 0.500625 0.500625
0.510000 0.510000 0.510000
0.519375 0.519375 0.519375
0.528750 0.528750 0.528750
0.538125 0.538125 0.538125
0.547500 0.547500 0.547500
0.556875 0.556875 0.556875
0.566250 0.566250 0.566250
0.575625 0.575625 0.575625
0.585000 0.585000 0.585000
0.594375 0.594375 0.594375
0.603750 0.603750 0.603750
0.613125 0.613125 0.613125
0.622500 0.622500 0.622500
0.631875 0.631875 0.631875
0.350312 0.350312 0.350312
0.359687 0.359687 0.359687
0.369062 0.369062 0.369062
0.378437 0.378437 0.378437
0.387812 0.387812 0.387812
0.397187 0.397187 0.397187
0.406562 0.406562 0.406562
0.415937 0.415937 0.415937
0.425312 0.425312 0.425312
0.434687 0.434687 0.434687
0.444062 0.444062 0.444062
0.453437 0.453437 0.453437
0.462812 0.462812 0.462812
0.472187 0.472187 0.472187
0.481563 0.481563 0.481563
0.490937 0.490937 0.490937
0.500312 0.500312 0.500312
0.509687 0.509687 0.509687
0.519062 0.519062 0.519062
0.528438 0.528438 0.528438
0.537813 0.537813 0.537813
0.547187 0.547187 0.547187
0.556562 0.556562 0.556562
0.565937 0.565937 0.565937
0.575312 0.575312 0.575312
0.584688 0.584688 0.584688
0.594062 0.594062 0.594062
0.603437 0.603437 0.603437
0.612812 0.612812 0.612812
0.622187 0.622187 0.622187
0.631563 0.631563 0.631563
0.640937 0.640937 0.640937
0.650312 0.650312 0.650312
0.368750 0.368750 0.368750
0.378125 0.378125 0.378125
0.387500 0.387500 0.387500
0.396875 0.396875 0.396875
0.406250 0.406250 0.406250
0.415625 0.415625 0.415625
0.425000 0.425000 0.425000
0.434375 0.434375 0.434375
0.443750 0.443750 0.443750
0.453125 0.453125 0.453125
0.462500 0.462500 0.462500
0.471875 0.471875 0.471875
0.481250 0.481250 0.481250
0.490625 0.490625 0.490625
0.500000 0.500000 0.500000
0.509375 0.509375 0.509375
0.518750 0.518750 0.518750
0.528125 0.528125 0.528125
0.537500 0.537500 0.537500
0.546875 0.546875 0.546875
0.556250 0.556250 0.556250
0.565625 0.565625 0.565625
0.575000 0.575000 0.575000
0.584375 0.584375 0.584375
0.593750 0.593750 0.593750
0.603125 0.603125 0.603125
0.612500 0.612500 0.612500
0.621875 0.621875 0.621875
0.631250 0.631250 0.631250
0.640625 0.640625 0.640625
0.650000 0.650000 0.650000
0.659375 0.659375 0.659375
0.668750 0.668750 0.668750
0.387187 0.387187 0.387187
0.396562 0.396562 0.396562
0.405937 0.405937 0.405937
0.415312 0.415312 0.415312
0.424687 0.424687 0.424687
0.434062 0.434062 0.434062
0.443437 0.443437 0.443437
0.452812 0.452812 0.452812
0.462187 0.462187 0.462187
0.471562 0.471562 0.471562
0.480937 0.480937 0.480937
0.490312 0.490312 0.490312
0.499687 0.499687 0.499687
0.509062 0.509062 0.509062
0.518437 0.518437 0.518437
0.527813 0.527813 0.527813
0.537187 0.537187 0.537187
0.546562 0.546562 0.546562
0.555937 0.555937 0.555937
0.565312 0.565312 0.565312
0.574688 0.574688 0.574688
0.584062 0.584062 0.584062
0.593437 0.593437 0.593437
0.602812 0.602812 0.602812
0.612187 0.612187 0.612187
0.621563 0.621563 0.621563
0.630937 0.630937 0.630937
0.640312 0.640312 0.640312
0.649687 0.649687 0.649687
0.659062 0.659062 0.659062
0.668438 0.668438 0.668438
0.677812 0.677812 0.677812
0.687187 0.687187 0.687187
0.405625 0.405625 0.405625
0.415000 0.415000 0.415000
0.424375 0.424375 0.424375
0.433750 0.433750 0.433750
0.443125 0.443125 0.443125
0.452500 0.452500 0.452500
0.461875 0.461875 0.461875
0.471250 0.471250 0.471250
0.480625 0.480625 0.480625
0.490000 0.490000 0.490000
0.499375 0.499375 0.499375
0.508750 0.508750 0.508750
0.518125 0.518125 0.518125
0.527500 0.527500 0.527500
0.536875 0.536875 0.536875
0.546250 0.546250 0.546250
0.555625 0.555625 0.555625
0.565000 0.565000 0.565000
0.574375 0.574375 0.574375
0.583750 0.583750 0.583750
0.593125 0.593125 0.593125
0.602500 0.602500 0.602500
0.611875 0.611875 0.611875
0.621250 0.621250 0.621250
0.630625 0.630625 0.630625
0.640000 0.640000 0.640000
0.649375 0.649375 0.649375
0.658750 0.658750 0.658750
0.668125 0.668125 0.668125
0.677500 0.677500 0.677500
0.686875 0.686875 0.686875
0.696250 0.696250 0.696250
0.705625 0.705625 0.705625
0.424062 0.424062 0.424062
0.433437 0.433437 0.433437
0.442812 0.442812 0.442812
0.452187 0.452187 0.452187
0.461562 0.461562 0.461562
0.470937 0.470937 0.470937
0.480312 0.480312 0.480312
0.489687 0.489687 0.489687
0.499062 0.499062 0.499062
0.508437 0.508437 0.508437
0.517813 0.517813 0.517813
0.527187 0.527187 0.527187
0.536562 0.536562 0.536562
0.545937 0.545937 0.545937
0.555312 0.555312 0.555312
0.564688 0.564688 0.564688
0.574062 0.574062 0.574062
0.583437 0.583437 0.583437
0.592812 0.592812 0.592812
0.602187 0.602187 0.602187
0.611563 0.611563 0.611563
0.620937 0.620937 0.620937
0.630312 0.630312 0.630312
0.639687 0.639687 0.639687
0.649062 0.649062 0.649062
0.658438 0.658438 0.658438
0.667812 0.667812 0.667812
0.677187 0.677187 0.677187
0.686562 0.686562 0.686562
0.695937 0.695937 0.695937
0.705313 0.705313 0.705313
0.714687 0.714687 0.714687
0.724062 0.724062 0.724062
0.442500 0.442500 0.442500
0.451875 0.451875 0.451875
0.461250 0.461250 0.461250
0.470625 0.470625 0.470625
0.480000 0.480000 0.480000
0.489375 0.489375 0.489375
0.498750 0.498750 0.498750
0.508125 0.508125 0.508125
0.517500 0.517500 0.517500
0.526875 0.526875 0.526875
0.536250 0.536250 0.536250
0.545625 0.545625 0.545625
0.555000 0.555000 0.555000
0.564375 0.564375 0.564375
0.573750 0.573750 0.573750
0.583125 0.583125 0.583125
0.592500 0.592500 0.592500
0.601875 0.601875 0.601875
0.611250 0.611250 0.611250
0.620625 0.620625 0.620625
0.630000 0.630000 0.630000
0.639375 0.639375 0.639375
0.648750 0.648750 0.648750
0.658125 0.658125 0.658125
0.667500 0.667500 0.667500
0.676875 0.676875 0.676875
0.686250 0.686250 0.686250
0.695625 0.695625 0.695625
0.705000 0.705000 0.705000
0.714375 0.714375 0.714375
0.723750 0.723750 0.723750
0.733125 0.733125 0.733125
0.742500 0.742500 0.742500
0.460938 0.460938 0.460938
0.470313 0.470313 0.470313
0.479687 0.479687 0.479687
0.489063 0.489063 0.489063
0.498437 0.498437 0.498437
0.507812 0.507812 0.507812
0.517188 0.517188 0.517188
0.526563 0.526563 0.526563
0.535937 0.535937 0.535937
0.545312 0.545312 0.545312
0.554688 0.554688 0.554688
0.564063 0.564063 0.564063
0.573438 0.573438 0.573438
0.582812 0.582812 0.582812
0.592187 0.592187 0.592187
0.601562 0.601562 0.601562
0.610938 0.610938 0.610938
0.620313 0.620313 0.620313
0.629687 0.629687 0.629687
0.639062 0.639062 0.639062
0.648438 0.648438 0.648438
0.657813 0.657813 0.657813
0.667188 0.667188 0.667188
0.676562 0.676562 0.676562
0.685937 0.685937 0.685937
0.695312 0.695312 0.695312
0.704688 0.704688 0.704688
0.714063 0.714063 0.714063
0.723437 0.723437 0.723437
0.732812 0.732812 0.732812
0.742188 0.742188 0.742188
0.751562 0.751562 0.751562
0.760938 0.760938 0.760938
0.479375 0.479375 0.479375
0.488750 0.488750 0.488750
0.498125 0.498125 0.498125
0.507500 0.507500 0.507500
0.516875 0.516875 0.516875
0.526250 0.526250 0.526250
0.535625 0.535625 0.535625
0.545000 0.545000 0.545000
0.554375 0.554375 0.554375
0.563750 0.563750 0.563750
0.573125 0.573125 0.573125
0.582500 0.582500 0.582500
0.591875 0.591875 0.591875
0.601250 0.601250 0.601250
0.610625 0.610625 0.610625
0.620000 0.620000 0.620000
0.629375 0.629375 0.629375
0.638750 0.638750 0.638750
0.648125 0.648125 0.648125
0.657500 0.657500 0.657500
0.666875 0.666875 0.666875
0.676250 0.676250 0.676250
0.685625 0.685625 0.685625
0.695000 0.695000 0.695000
0.704375 0.704375 0.704375
0.713750 0.713750 0.713750
0.723125 0.723125 0.723125
0.732500 0.732500 0.732500
0.741875 0.741875 0.741875
