dashboard/static/social/luts/bw.cube
TITLE "bw"
LUT_3D_SIZE 5
0.000000 0.000000 0.000000
0.075000 0.075000 0.075000
0.150000 0.150000 0.150000
0.225000 0.225000 0.225000
0.300000 0.300000 0.300000
0.147500 0.147500 0.147500
0.222500 0.222500 0.222500
0.297500 0.297500 0.297500
0.372500 0.372500 0.372500
0.447500 0.447500 0.447500
0.295000 0.295000 0.295000
0.370000 0.370000 0.370000
0.445000 0.445000 0.445000
0.520000 0.520000 0.520000
0.595000 0.595000 0.595000
0.442500 0.442500 0.442500
0.517500 0.517500 0.517500
0.592500 0.592500 0.592500
0.667500 0.667500 0.667500
0.742500 0.742500 0.742500
0.590000 0.590000 0.590000
0.665000 0.665000 0.665000
0.740000 0.740000 0.740000
0.815000 0.815000 0.815000
0.890000 0.890000 0.890000
0.027500 0.027500 0.027500
0.102500 0.102500 0.102500
0.177500 0.177500 0.177500
0.252500 0.252500 0.252500
0.327500 0.327500 0.327500
0.175000 0.175000 0.175000
0.250000 0.250000 0.250000
0.325000 0.325000 0.325000
0.400000 0.400000 0.400000
0.475000 0.475000 0.475000
0.322500 0.322500 0.322500
0.397500 0.397500 0.397500
0.472500 0.472500 0.472500
0.547500 0.547500 0.547500
0.622500 0.622500 0.622500
0.470000 0.470000 0.470000
0.545000 0.545000 0.545000
0.620000 0.620000 0.620000
0.695000 0.695000 0.695000
0.770000 0.770000 0.770000
0.617500 0.617500 0.617500
0.692500 0.692500 0.692500
0.767500 0.767500 0.767500
0.842500 0.842500 0.842500
0.917500 0.917500 0.917500
0.055000 0.055000 0.055000
0.130000 0.130000 0.130000
0.205000 0.205000 0.205000
0.280000 0.280000 0.280000
0.355000 0.355000 0.355000
0.202500 0.202500 0.202500
0.277500 0.277500 0.277500
0.352500 0.352500 0.352500
0.427500 0.427500 0.427500
0.502500 0.502500 0.502500
0.350000 0.350000 0.350000
0.425000 0.425000 0.425000
0.500000 0.500000 0.500000
0.575000 0.575000 0.575000
0.650000 0.650000 0.650000
0.497500 0.497500 0.497500
0.572500 0.572500 0.572500
0.647500 0.647500 0.647500
0.722500 0.722500 0.722500
0.797500 0.797500 0.797500
0.645000 0.645000 0.645000
0.720000 0.720000 0.720000
0.795000 0.795000 0.795000
0.870000 0.870000 0.870000
0.945000 0.945000 0.945000
0.082500 0.082500 0.082500
0.157500 0.157500 0.157500
0.232500 0.232500 0.232500
0.307500 0.307500 0.307500
0.382500 0.382500 0.382500
0.230000 0.230000 0.230000
0.305000 0.305000 0.305000
0.380000 0.380000 0.380000
0.455000 0.455000 0.455000
0.530000 0.530000 0.530000
0.377500 0.377500 0.377500
0.452500 0.452500 0.452500
0.527500 0.527500 0.527500
0.602500 0.602500 0.602500
0.677500 0.677500 0.677500
0.525000 0.525000 0.525000
0.600000 0.600000 0.600000
0.675000 0.675000 0.675000
0.750000 0.750000 0.750000
0.825000 0.825000 0.825000
0.672500 0.672500 0.672500
0.747500 0.747500 0.747500
0.822500 0.822500 0.822500
0.897500 0.897500 0.897500
0.972500 0.972500 0.972500
0.110000 0.110000 0.110000
0.185000 0.185000 0.185000
0.260000 0.260000 0.260000
0.335000 0.335000 0.335000
0.410000 0.410000 0.410000
0.257500 0.257500 0.257500
0.332500 0.332500 0.332500
0.407500 0.407500 0.407500
0.482500 0.482500 0.482500
0.557500 0.557500 0.557500
0.405000 0.405000 0.405000
0.480000 0.480000 0.480000
0.555000 0.555000 0.555000
0.630000 0.630000 0.630000
0.705000 0.705000 0.705000
0.552500 0.552500 0.552500
0.627500 0.627500 0.627500
0.702500 0.702500 0.702500
0.777500 0.777500 0.777500
0.852500 0.852500 0.852500
0.700000 0.700000 0.700000
0.775000 0.775000 0.775000
0.850000 0.850000 0.850000
0.925000 0.925000 0.925000
1.000000 1.000000 1.000000
