dashboard/static/social/luts/bw.cube
TITLE "bw"
LUT_3D_SIZE 9
0.000000 0.000000 0.000000
0.037500 0.037500 0.037500
0.075000 0.075000 0.075000
0.112500 0.112500 0.112500
0.150000 0.150000 0.150000
0.187500 0.187500 0.187500
0.225000 0.225000 0.225000
0.262500 0.262500 0.262500
0.300000 0.300000 0.300000
0.073750 0.073750 0.073750
0.111250 0.111250 0.111250
0.148750 0.148750 0.148750
0.186250 0.186250 0.186250
0.223750 0.223750 0.223750
0.261250 0.261250 0.261250
0.298750 0.298750 0.298750
0.336250 0.336250 0.336250
0.373750 0.373750 0.373750
0.147500 0.147500 0.147500
0.185000 0.185000 0.185000
0.222500 0.222500 0.222500
0.260000 0.260000 0.260000
0.297500 0.297500 0.297500
0.335000 0.335000 0.335000
0.372500 0.372500 0.372500
0.410000 0.410000 0.410000
0.447500 0.447500 0.447500
0.221250 0.221250 0.221250
0.258750 0.258750 0.258750
0.296250 0.296250 0.296250
0.333750 0.333750 0.333750
0.371250 0.371250 0.371250
0.408750 0.408750 0.408750
0.446250 0.446250 0.446250
0.483750 0.483750 0.483750
0.521250 0.521250 0.521250
0.295000 0.295000 0.295000
0.332500 0.332500 0.332500
0.370000 0.370000 0.370000
0.407500 0.407500 0.407500
0.445000 0.445000 0.445000
0.482500 0.482500 0.482500
0.520000 0.520000 0.520000
0.557500 0.557500 0.557500
0.595000 0.595000 0.595000
0.368750 0.368750 0.368750
0.406250 0.406250 0.406250
0.443750 0.443750 0.443750
0.481250 0.481250 0.481250
0.518750 0.518750 0.518750
0.556250 0.556250 0.556250
0.593750 0.593750 0.593750
0.631250 0.631250 0.631250
0.668750 0.668750 0.668750
0.442500 0.442500 0.442500
0.480000 0.480000 0.480000
0.517500 0.517500 0.517500
0.555000 0.555000 0.555000
0.592500 0.592500 0.592500
0.630000 0.630000 0.630000
0.667500 0.667500 0.667500
0.705000 0.705000 0.705000
0.742500 0.742500 0.742500
0.516250 0.516250 0.516250
0.553750 0.553750 0.553750
0.591250 0.591250 0.591250
0.628750 0.628750 0.628750
0.666250 0.666250 0.666250
0.703750 0.703750 0.703750
0.741250 0.741250 0.741250
0.778750 0.778750 0.778750
0.816250 0.816250 0.816250
0.590000 0.590000 0.590000
0.627500 0.627500 0.627500
0.665000 0.665000 0.665000
0.702500 0.702500 0.702500
0.740000 0.740000 0.740000
0.777500 0.777500 0.777500
0.815000 0.815000 0.815000
0.852500 0.852500 0.852500
0.890000 0.890000 0.890000
0.013750 0.013750 0.013750
0.051250 0.051250 0.051250
0.088750 0.088750 0.088750
0.126250 0.126250 0.126250
0.163750 0.163750 0.163750
0.201250 0.201250 0.201250
0.238750 0.238750 0.238750
0.276250 0.276250 0.276250
0.313750 0.313750 0.313750
0.087500 0.087500 0.087500
0.125000 0.125000 0.125000
0.162500 0.162500 0.162500
0.200000 0.200000 0.200000
0.237500 0.237500 0.237500
0.275000 0.275000 0.275000
0.312500 0.312500 0.312500
0.350000 0.350000 0.350000
0.387500 0.387500 0.387500
0.161250 0.161250 0.161250
0.198750 0.198750 0.198750
0.236250 0.236250 0.236250
0.273750 0.273750 0.273750
0.311250 0.311250 0.311250
0.348750 0.348750 0.348750
0.386250 0.386250 0.386250
0.423750 0.423750 0.423750
0.461250 0.461250 0.461250
0.235000 0.235000 0.235000
0.272500 0.272500 0.272500
0.310000 0.310000 0.310000
0.347500 0.347500 0.347500
0.385000 0.385000 0.385000
0.422500 0.422500 0.422500
0.460000 0.460000 0.460000
0.497500 0.497500 0.497500
0.535000 0.535000 0.535000
0.308750 0.308750 0.308750
0.346250 0.346250 0.346250
0.383750 0.383750 0.383750
0.421250 0.421250 0.421250
0.458750 0.458750 0.458750
0.496250 0.496250 0.496250
0.533750 0.533750 0.533750
0.571250 0.571250 0.571250
0.608750 0.608750 0.608750
0.382500 0.382500 0.382500
0.420000 0.420000 0.420000
0.457500 0.457500 0.457500
0.495000 0.495000 0.495000
0.532500 0.532500 0.532500
0.570000 0.570000 0.570000
0.607500 0.607500 0.607500
0.645000 0.645000 0.645000
0.682500 0.682500 0.682500
0.456250 0.456250 0.456250
0.493750 0.493750 0.493750
0.531250 0.531250 0.531250
0.568750 0.568750 0.568750
0.606250 0.606250 0.606250
0.643750 0.643750 0.643750
0.681250 0.681250 0.681250
0.718750 0.718750 0.718750
0.756250 0.756250 0.756250
0.530000 0.530000 0.530000
0.567500 0.567500 0.567500
0.605000 0.605000 0.605000
0.642500 0.642500 0.642500
0.680000 0.680000 0.680000
0.717500 0.717500 0.717500
0.755000 0.755000 0.755000
0.792500 0.792500 0.792500
0.830000 0.830000 0.830000
0.603750 0.603750 0.603750
0.641250 0.641250 0.641250
0.678750 0.678750 0.678750
0.716250 0.716250 0.716250
0.753750 0.753750 0.753750
0.791250 0.791250 0.791250
0.828750 0.828750 0.828750
0.866250 0.866250 0.866250
0.903750 0.903750 0.903750
0.027500 0.027500 0.027500
0.065000 0.065000 0.065000
0.102500 0.102500 0.102500
0.140000 0.140000 0.140000
0.177500 0.177500 0.177500
0.215000 0.215000 0.215000
0.252500 0.252500 0.252500
0.290000 0.290000 0.290000
0.327500 0.327500 0.327500
0.101250 0.101250 0.101250
0.138750 0.138750 0.138750
0.176250 0.176250 0.176250
0.213750 0.213750 0.213750
0.251250 0.251250 0.251250
0.288750 0.288750 0.288750
0.326250 0.326250 0.326250
0.363750 0.363750 0.363750
0.401250 0.401250 0.401250
0.175000 0.175000 0.175000
0.212500 0.212500 0.212500
0.250000 0.250000 0.250000
0.287500 0.287500 0.287500
0.325000 0.325000 0.325000
0.362500 0.362500 0.362500
0.400000 0.400000 0.400000
0.437500 0.437500 0.437500
0.475000 0.475000 0.475000
0.248750 0.248750 0.248750
0.286250 0.286250 0.286250
0.323750 0.323750 0.323750
0.361250 0.361250 0.361250
0.398750 0.398750 0.398750
0.436250 0.436250 0.436250
0.473750 0.473750 0.473750
0.511250 0.511250 0.511250
0.548750 0.548750 0.548750
0.322500 0.322500 0.322500
0.360000 0.360000 0.360000
0.397500 0.397500 0.397500
0.435000 0.435000 0.435000
0.472500 0.472500 0.472500
0.510000 0.510000 0.510000
0.547500 0.547500 0.547500
0.585000 0.585000 0.585000
0.622500 0.622500 0.622500
0.396250 0.396250 0.396250
0.433750 0.433750 0.433750
0.471250 0.471250 0.471250
0.508750 0.508750 0.508750
0.546250 0.546250 0.546250
0.583750 0.583750 0.583750
0.621250 0.621250 0.621250
0.658750 0.658750 0.658750
0.696250 0.696250 0.696250
0.470000 0.470000 0.470000
0.507500 0.507500 0.507500
0.545000 0.545000 0.545000
0.582500 0.582500 0.582500
0.620000 0.620000 0.620000
0.657500 0.657500 0.657500
0.695000 0.695000 0.695000
0.732500 0.732500 0.732500
0.770000 0.770000 0.770000
0.543750 0.543750 0.543750
0.581250 0.581250 0.581250
0.618750 0.618750 0.618750
0.656250 0.656250 0.656250
0.693750 0.693750 0.693750
0.731250 0.731250 0.731250
0.768750 0.768750 0.768750
0.806250 0.806250 0.806250
0.843750 0.843750 0.843750
0.617500 0.617500 0.617500
0.655000 0.655000 0.655000
0.692500 0.692500 0.692500
0.730000 0.730000 0.730000
0.767500 0.767500 0.767500
0.805000 0.805000 0.805000
0.842500 0.842500 0.842500
0.880000 0.880000 0.880000
0.917500 0.917500 0.917500
0.041250 0.041250 0.041250
0.078750 0.078750 0.078750
0.116250 0.116250 0.116250
0.153750 0.153750 0.153750
0.191250 0.191250 0.191250
0.228750 0.228750 0.228750
0.266250 0.266250 0.266250
0.303750 0.303750 0.303750
0.341250 0.341250 0.341250
0.115000 0.115000 0.115000
0.152500 0.152500 0.152500
0.190000 0.190000 0.190000
0.227500 0.227500 0.227500
0.265000 0.265000 0.265000
0.302500 0.302500 0.302500
0.340000 0.340000 0.340000
0.377500 0.377500 0.377500
0.415000 0.415000 0.415000
0.188750 0.188750 0.188750
0.226250 0.226250 0.226250
0.263750 0.263750 0.263750
0.301250 0.301250 0.301250
0.338750 0.338750 0.338750
0.376250 0.376250 0.376250
0.413750 0.413750 0.413750
0.451250 0.451250 0.451250
0.488750 0.488750 0.488750
0.262500 0.262500 0.262500
0.300000 0.300000 0.300000
0.337500 0.337500 0.337500
0.375000 0.375000 0.375000
0.412500 0.412500 0.412500
0.450000 0.450000 0.450000
0.487500 0.487500 0.487500
0.525000 0.525000 0.525000
0.562500 0.562500 0.562500
0.336250 0.336250 0.336250
0.373750 0.373750 0.373750
0.411250 0.411250 0.411250
0.448750 0.448750 0.448750
0.486250 0.486250 0.486250
0.523750 0.523750 0.523750
0.561250 0.561250 0.561250
0.598750 0.598750 0.598750
0.636250 0.636250 0.636250
0.410000 0.410000 0.410000
0.447500 0.447500 0.447500
0.485000 0.485000 0.485000
0.522500 0.522500 0.522500
0.560000 0.560000 0.560000
0.597500 0.597500 0.597500
0.635000 0.635000 0.635000
0.672500 0.672500 0.672500
0.710000 0.710000 0.710000
0.483750 0.483750 0.483750
0.521250 0.521250 0.521250
0.558750 0.558750 0.558750
0.596250 0.596250 0.596250
0.633750 0.633750 0.633750
0.671250 0.671250 0.671250
0.708750 0.708750 0.708750
0.746250 0.746250 0.746250
0.783750 0.783750 0.783750
0.557500 0.557500 0.557500
0.595000 0.595000 0.595000
0.632500 0.632500 0.632500
0.670000 0.670000 0.670000
0.707500 0.707500 0.707500
0.745000 0.745000 0.745000
0.782500 0.782500 0.782500
0.820000 0.820000 0.820000
0.857500 0.857500 0.857500
0.631250 0.631250 0.631250
0.668750 0.668750 0.668750
0.706250 0.706250 0.706250
0.743750 0.743750 0.743750
0.781250 0.781250 0.781250
0.818750 0.818750 0.818750
0.856250 0.856250 0.856250
0.893750 0.893750 0.893750
0.931250 0.931250 0.931250
0.055000 0.055000 0.055000
0.092500 0.092500 0.092500
0.130000 0.130000 0.130000
0.167500 0.167500 0.167500
0.205000 0.205000 0.205000
0.242500 0.242500 0.242500
0.280000 0.280000 0.280000
0.317500 0.317500 0.317500
0.355000 0.355000 0.355000
0.128750 0.128750 0.128750
0.166250 0.166250 0.166250
0.203750 0.203750 0.203750
0.241250 0.241250 0.241250
0.278750 0.278750 0.278750
0.316250 0.316250 0.316250
0.353750 0.353750 0.353750
0.391250 0.391250 0.391250
0.428750 0.428750 0.428750
0.202500 0.202500 0.202500
0.240000 0.240000 0.240000
0.277500 0.277500 0.277500
0.315000 0.315000 0.315000
0.352500 0.352500 0.352500
0.390000 0.390000 0.390000
0.427500 0.427500 0.427500
0.465000 0.465000 0.465000
0.502500 0.502500 0.502500
0.276250 0.276250 0.276250
0.313750 0.313750 0.313750
0.351250 0.351250 0.351250
0.388750 0.388750 0.388750
0.426250 0.426250 0.426250
0.463750 0.463750 0.463750
0.501250 0.501250 0.501250
0.538750 0.538750 0.538750
0.576250 0.576250 0.576250
0.350000 0.350000 0.350000
0.387500 0.387500 0.387500
0.425000 0.425000 0.425000
0.462500 0.462500 0.462500
0.500000 0.500000 0.500000
0.537500 0.537500 0.537500
0.575000 0.575000 0.575000
0.612500 0.612500 0.612500
0.650000 0.650000 0.650000
0.423750 0.423750 0.423750
0.461250 0.461250 0.461250
0.498750 0.498750 0.498750
0.536250 0.536250 0.536250
0.573750 0.573750 0.573750
0.611250 0.611250 0.611250
0.648750 0.648750 0.648750
0.686250 0.686250 0.686250
0.723750 0.723750 0.723750
0.497500 0.497500 0.497500
0.535000 0.535000 0.535000
0.572500 0.572500 0.572500
0.610000 0.610000 0.610000
0.647500 0.647500 0.647500
0.685000 0.685000 0.685000
0.722500 0.722500 0.722500
0.760000 0.760000 0.760000
0.797500 0.797500 0.797500
0.571250 0.571250 0.571250
0.608750 0.608750 0.608750
0.646250 0.646250 0.646250
0.683750 0.683750 0.683750
0.721250 0.721250 0.721250
0.758750 0.758750 0.758750
0.796250 0.796250 0.796250
0.833750 0.833750 0.833750
0.871250 0.871250 0.871250
0.645000 0.645000 0.645000
0.682500 0.682500 0.682500
0.720000 0.720000 0.720000
0.757500 0.757500 0.757500
0.795000 0.795000 0.795000
0.832500 0.832500 0.832500
0.870000 0.870000 0.870000
0.907500 0.907500 0.907500
0.945000 0.945000 0.945000
0.068750 0.068750 0.068750
0.106250 0.106250 0.106250
0.143750 0.143750 0.143750
0.181250 0.181250 0.181250
0.218750 0.218750 0.218750
0.256250 0.256250 0.256250
0.293750 0.293750 0.293750
0.331250 0.331250 0.331250
0.368750 0.368750 0.368750
0.142500 0.142500 0.142500
0.180000 0.180000 0.180000
0.217500 0.217500 0.217500
0.255000 0.255000 0.255000
0.292500 0.292500 0.292500
0.330000 0.330000 0.330000
0.367500 0.367500 0.367500
0.405000 0.405000 0.405000
0.442500 0.442500 0.442500
0.216250 0.216250 0.216250
0.253750 0.253750 0.253750
0.291250 0.291250 0.291250
0.328750 0.328750 0.328750
0.366250 0.366250 0.366250
0.403750 0.403750 0.403750
0.441250 0.441250 0.441250
0.478750 0.478750 0.478750
0.516250 0.516250 0.516250
0.290000 0.290000 0.290000
0.327500 0.327500 0.327500
0.365000 0.365000 0.365000
0.402500 0.402500 0.402500
0.440000 0.440000 0.440000
0.477500 0.477500 0.477500
0.515000 0.515000 0.515000
0.552500 0.552500 0.552500
0.590000 0.590000 0.590000
0.363750 0.363750 0.363750
0.401250 0.401250 0.401250
0.438750 0.438750 0.438750
0.476250 0.476250 0.476250
0.513750 0.513750 0.513750
0.551250 0.551250 0.551250
0.588750 0.588750 0.588750
0.626250 0.626250 0.626250
0.663750 0.663750 0.663750
0.437500 0.437500 0.437500
0.475000 0.475000 0.475000
0.512500 0.512500 0.512500
0.550000 0.550000 0.550000
0.587500 0.587500 0.587500
0.625000 0.625000 0.625000
0.662500 0.662500 0.662500
0.700000 0.700000 0.700000
0.737500 0.737500 0.737500
0.511250 0.511250 0.511250
0.548750 0.548750 0.548750
0.586250 0.586250 0.586250
0.623750 0.623750 0.623750
0.661250 0.661250 0.661250
0.698750 0.698750 0.698750
0.736250 0.736250 0.736250
0.773750 0.773750 0.773750
0.811250 0.811250 0.811250
0.585000 0.585000 0.585000
0.622500 0.622500 0.622500
0.660000 0.660000 0.660000
0.697500 0.697500 0.697500
0.735000 0.735000 0.735000
0.772500 0.772500 0.772500
0.810000 0.810000 0.810000
0.847500 0.847500 0.847500
0.885000 0.885000 0.885000
0.658750 0.658750 0.658750
0.696250 0.696250 0.696250
0.733750 0.733750 0.733750
0.771250 0.771250 0.771250
0.808750 0.808750 0.808750
0.846250 0.846250 0.846250
0.883750 0.883750 0.883750
0.921250 0.921250 0.921250
0.958750 0.958750 0.958750
0.082500 0.082500 0.082500
0.120000 0.120000 0.120000
0.157500 0.157500 0.157500
0.195000 0.195000 0.195000
0.232500 0.232500 0.232500
0.270000 0.270000 0.270000
0.307500 0.307500 0.307500
0.345000 0.345000 0.345000
0.382500 0.382500 0.382500
0.156250 0.156250 0.156250
0.193750 0.193750 0.193750
0.231250 0.231250 0.231250
0.268750 0.268750 0.268750
0.306250 0.306250 0.306250
0.343750 0.343750 0.343750
0.381250 0.381250 0.381250
0.418750 0.418750 0.418750
0.456250 0.456250 0.456250
0.230000 0.230000 0.230000
0.267500 0.267500 0.267500
0.305000 0.305000 0.305000
0.342500 0.342500 0.342500
0.380000 0.380000 0.380000
0.417500 0.417500 0.417500
0.455000 0.455000 0.455000
0.492500 0.492500 0.492500
0.530000 0.530000 0.530000
0.303750 0.303750 0.303750
0.341250 0.341250 0.341250
0.378750 0.378750 0.378750
0.416250 0.416250 0.416250
0.453750 0.453750 0.453750
0.491250 0.491250 0.491250
0.528750 0.528750 0.528750
0.566250 0.566250 0.566250
0.603750 0.603750 0.603750
0.377500 0.377500 0.377500
0.415000 0.415000 0.415000
0.452500 0.452500 0.452500
0.490000 0.490000 0.490000
0.527500 0.527500 0.527500
0.565000 0.565000 0.565000
0.602500 0.602500 0.602500
0.640000 0.640000 0.640000
0.677500 0.677500 0.677500
0.451250 0.451250 0.451250
0.488750 0.488750 0.488750
0.526250 0.526250 0.526250
0.563750 0.563750 0.563750
0.601250 0.601250 0.601250
0.638750 0.638750 0.638750
0.676250 0.676250 0.676250
0.713750 0.713750 0.713750
0.751250 0.751250 0.751250
0.525000 0.525000 0.525000
0.562500 0.562500 0.562500
0.600000 0.600000 0.600000
0.637500 0.637500 0.637500
0.675000 0.675000 0.675000
0.712500 0.712500 0.712500
0.750000 0.750000 0.750000
0.787500 0.787500 0.787500
0.825000 0.825000 0.825000
0.598750 0.598750 0.598750
0.636250 0.636250 0.636250
0.673750 0.673750 0.673750
0.711250 0.711250 0.711250
0.748750 0.748750 0.748750
0.786250 0.786250 0.786250
0.823750 0.823750 0.823750
0.861250 0.861250 0.861250
0.898750 0.898750 0.898750
0.672500 0.672500 0.672500
0.710000 0.710000 0.710000
0.747500 0.747500 0.747500
0.785000 0.785000 0.785000
0.822500 0.822500 0.822500
0.860000 0.860000 0.860000
0.897500 0.897500 0.897500
0.935000 0.935000 0.935000
0.972500 0.972500 0.972500
0.096250 0.096250 0.096250
0.133750 0.133750 0.133750
0.171250 0.171250 0.171250
0.208750 0.208750 0.208750
0.246250 0.246250 0.246250
0.283750 0.283750 0.283750
0.321250 0.321250 0.321250
0.358750 0.358750 0.358750
0.396250 0.396250 0.396250
0.170000 0.170000 0.170000
0.207500 0.207500 0.207500
0.245000 0.245000 0.245000
0.282500 0.282500 0.282500
0.320000 0.320000 0.320000
0.357500 0.357500 0.357500
0.395000 0.395000 0.395000
0.432500 0.432500 0.432500
0.470000 0.470000 0.470000
0.243750 0.243750 0.243750
0.281250 0.281250 0.281250
0.318750 0.318750 0.318750
0.356250 0.356250 0.356250
0.393750 0.393750 0.393750
0.431250 0.431250 0.431250
0.468750 0.468750 0.468750
0.506250 0.506250 0.506250
0.543750 0.543750 0.543750
0.317500 0.317500 0.317500
0.355000 0.355000 0.355000
0.392500 0.392500 0.392500
0.430000 0.430000 0.430000
0.467500 0.467500 0.467500
0.505000 0.505000 0.505000
0.542500 0.542500 0.542500
0.580000 0.580000 0.580000
0.617500 0.617500 0.617500
0.391250 0.391250 0.391250
0.428750 0.428750 0.428750
0.466250 0.466250 0.466250
0.503750 0.503750 0.503750
0.541250 0.541250 0.541250
0.578750 0.578750 0.578750
0.616250 0.616250 0.616250
0.653750 0.653750 0.653750
0.691250 0.691250 0.691250
0.465000 0.465000 0.465000
0.502500 0.502500 0.502500
0.540000 0.540000 0.540000
0.577500 0.577500 0.577500
0.615000 0.615000 0.615000
0.652500 0.652500 0.652500
0.690000 0.690000 0.690000
0.727500 0.727500 0.727500
0.765000 0.765000 0.765000
0.538750 0.538750 0.538750
0.576250 0.576250 0.576250
0.613750 0.613750 0.613750
0.651250 0.651250 0.651250
0.688750 0.688750 0.688750
0.726250 0.726250 0.726250
0.763750 0.763750 0.763750
0.801250 0.801250 0.801250
0.838750 0.838750 0.838750
0.612500 0.612500 0.612500
0.650000 0.650000 0.650000
0.687500 0.687500 0.687500
0.725000 0.725000 0.725000
0.762500 0.762500 0.762500
0.800000 0.800000 0.800000
0.837500 0.837500 0.837500
0.875000 0.875000 0.875000
0.912500 0.912500 0.912500
0.686250 0.686250 0.686250
0.723750 0.723750 0.723750
0.761250 0.761250 0.761250
0.798750 0.798750 0.798750
0.836250 0.836250 0.836250
0.873750 0.873750 0.873750
0.911250 0.911250 0.911250
0.948750 0.948750 0.948750
0.986250 0.986250 0.986250
0.110000 0.110000 0.110000
0.147500 0.147500 0.147500
0.185000 0.185000 0.185000
0.222500 0.222500 0.222500
0.260000 0.260000 0.260000
0.297500 0.297500 0.297500
0.335000 0.335000 0.335000
0.372500 0.372500 0.372500
0.410000 0.410000 0.410000
0.183750 0.183750 0.183750
0.221250 0.221250 0.221250
0.258750 0.258750 0.258750
0.296250 0.296250 0.296250
0.333750 0.333750 0.333750
0.371250 0.371250 0.371250
0.408750 0.408750 0.408750
0.446250 0.446250 0.446250
0.483750 0.483750 0.483750
0.257500 0.257500 0.257500
0.295000 0.295000 0.295000
0.332500 0.332500 0.332500
0.370000 0.370000 0.370000
0.407500 0.407500 0.407500
0.445000 0.445000 0.445000
0.482500 0.482500 0.482500
0.520000 0.520000 0.520000
0.557500 0.557500 0.557500
0.331250 0.331250 0.331250
0.368750 0.368750 0.368750
0.406250 0.406250 0.406250
0.443750 0.443750 0.443750
0.481250 0.481250 0.481250
0.518750 0.518750 0.518750
0.556250 0.556250 0.556250
0.593750 0.593750 0.593750
0.631250 0.631250 0.631250
0.405000 0.405000 0.405000
0.442500 0.442500 0.442500
0.480000 0.480000 0.480000
0.517500 0.517500 0.517500
0.555000 0.555000 0.555000
0.592500 0.592500 0.592500
0.630000 0.630000 0.630000
0.667500 0.667500 0.667500
0.705000 0.705000 0.705000
0.478750 0.478750 0.478750
0.516250 0.516250 0.516250
0.553750 0.553750 0.553750
0.591250 0.591250 0.591250
0.628750 0.628750 0.628750
0.666250 0.666250 0.666250
0.703750 0.703750 0.703750
0.741250 0.741250 0.741250
0.778750 0.778750 0.778750
0.552500 0.552500 0.552500
0.590000 0.590000 0.590000
0.627500 0.627500 0.627500
0.665000 0.665000 0.665000
0.702500 0.702500 0.702500
0.740000 0.740000 0.740000
0.777500 0.777500 0.777500
0.815000 0.815000 0.815000
0.852500 0.852500 0.852500
0.626250 0.626250 0.626250
0.663750 0.663750 0.663750
0.701250 0.701250 0.701250
0.738750 0.738750 0.738750
0.776250 0.776250 0.776250
0.813750 0.813750 0.813750
0.851250 0.851250 0.851250
0.888750 0.888750 0.888750
0.926250 0.926250 0.926250
0.700000 0.700000 0.700000
0.737500 0.737500 0.737500
0.775000 0.775000 0.775000
0.812500 0.812500 0.812500
0.850000 0.850000 0.850000
0.887500 0.887500 0.887500
0.925000 0.925000 0.925000
0.962500 0.962500 0.962500
1.000000 1.000000 1.000000
