dashboard/static/social/luts/cinematic.cube
TITLE "cinematic"
LUT_3D_SIZE 9
0.020000 0.000000 0.000000
0.138750 0.000000 0.000000
0.257500 0.000000 0.000000
0.376250 0.000000 0.000000
0.495000 0.000000 0.000000
0.613750 0.000000 0.000000
0.732500 0.000000 0.000000
0.851250 0.000000 0.000000
0.970000 0.000000 0.000000
0.020000 0.122500 0.000000
0.138750 0.122500 0.000000
0.257500 0.122500 0.000000
0.376250 0.122500 0.000000
0.495000 0.122500 0.000000
0.613750 0.122500 0.000000
0.732500 0.122500 0.000000
0.851250 0.122500 0.000000
0.970000 0.122500 0.000000
0.020000 0.245000 0.000000
0.138750 0.245000 0.000000
0.257500 0.245000 0.000000
0.376250 0.245000 0.000000
0.495000 0.245000 0.000000
0.613750 0.245000 0.000000
0.732500 0.245000 0.000000
0.851250 0.245000 0.000000
0.970000 0.245000 0.000000
0.020000 0.367500 0.000000
0.138750 0.367500 0.000000
0.257500 0.367500 0.000000
0.376250 0.367500 0.000000
0.495000 0.367500 0.000000
0.613750 0.367500 0.000000
0.732500 0.367500 0.000000
0.851250 0.367500 0.000000
0.970000 0.367500 0.000000
0.020000 0.490000 0.000000
0.138750 0.490000 0.000000
0.257500 0.490000 0.000000
0.376250 0.490000 0.000000
0.495000 0.490000 0.000000
0.613750 0.490000 0.000000
0.732500 0.490000 0.000000
0.851250 0.490000 0.000000
0.970000 0.490000 0.000000
0.020000 0.612500 0.000000
0.138750 0.612500 0.000000
0.257500 0.612500 0.000000
0.376250 0.612500 0.000000
0.495000 0.612500 0.000000
0.613750 0.612500 0.000000
0.732500 0.612500 0.000000
0.851250 0.612500 0.000000
0.970000 0.612500 0.000000
0.020000 0.735000 0.000000
0.138750 0.735000 0.000000
0.257500 0.735000 0.000000
0.376250 0.735000 0.000000
0.495000 0.735000 0.000000
0.613750 0.735000 0.000000
0.732500 0.735000 0.000000
0.851250 0.735000 0.000000
0.970000 0.735000 0.000000
0.020000 0.857500 0.000000
0.138750 0.857500 0.000000
0.257500 0.857500 0.000000
0.376250 0.857500 0.000000
0.495000 0.857500 0.000000
0.613750 0.857500 0.000000
0.732500 0.857500 0.000000
0.851250 0.857500 0.000000
0.970000 0.857500 0.000000
0.020000 0.980000 0.000000
0.138750 0.980000 0.000000
0.257500 0.980000 0.000000
0.376250 0.980000 0.000000
0.495000 0.980000 0.000000
0.613750 0.980000 0.000000
0.732500 0.980000 0.000000
0.851250 0.980000 0.000000
0.970000 0.980000 0.000000
0.020000 0.000000 0.131250
0.138750 0.000000 0.131250
0.257500 0.000000 0.131250
0.376250 0.000000 0.131250
0.495000 0.000000 0.131250
0.613750 0.000000 0.131250
0.732500 0.000000 0.131250
0.851250 0.000000 0.131250
0.970000 0.000000 0.131250
0.020000 0.122500 0.131250
0.138750 0.122500 0.131250
0.257500 0.122500 0.131250
0.376250 0.122500 0.131250
0.495000 0.122500 0.131250
0.613750 0.122500 0.131250
0.732500 0.122500 0.131250
0.851250 0.122500 0.131250
0.970000 0.122500 0.131250
0.020000 0.245000 0.131250
0.138750 0.245000 0.131250
0.257500 0.245000 0.131250
0.376250 0.245000 0.131250
0.495000 0.245000 0.131250
0.613750 0.245000 0.131250
0.732500 0.245000 0.131250
0.851250 0.245000 0.131250
0.970000 0.245000 0.131250
0.020000 0.367500 0.131250
0.138750 0.367500 0.131250
0.257500 0.367500 0.131250
0.376250 0.367500 0.131250
0.495000 0.367500 0.131250
0.613750 0.367500 0.131250
0.732500 0.367500 0.131250
0.851250 0.367500 0.131250
0.970000 0.367500 0.131250
0.020000 0.490000 0.131250
0.138750 0.490000 0.131250
0.257500 0.490000 0.131250
0.376250 0.490000 0.131250
0.495000 0.490000 0.131250
0.613750 0.490000 0.131250
0.732500 0.490000 0.131250
0.851250 0.490000 0.131250
0.970000 0.490000 0.131250
0.020000 0.612500 0.131250
0.138750 0.612500 0.131250
0.257500 0.612500 0.131250
0.376250 0.612500 0.131250
0.495000 0.612500 0.131250
0.613750 0.612500 0.131250
0.732500 0.612500 0.131250
0.851250 0.612500 0.131250
0.970000 0.612500 0.131250
0.020000 0.735000 0.131250
0.138750 0.735000 0.131250
0.257500 0.735000 0.131250
0.376250 0.735000 0.131250
0.495000 0.735000 0.131250
0.613750 0.735000 0.131250
0.732500 0.735000 0.131250
0.851250 0.735000 0.131250
0.970000 0.735000 0.131250
0.020000 0.857500 0.131250
0.138750 0.857500 0.131250
0.257500 0.857500 0.131250
0.376250 0.857500 0.131250
0.495000 0.857500 0.131250
0.613750 0.857500 0.131250
0.732500 0.857500 0.131250
0.851250 0.857500 0.131250
0.970000 0.857500 0.131250
0.020000 0.980000 0.131250
0.138750 0.980000 0.131250
0.257500 0.980000 0.131250
0.376250 0.980000 0.131250
0.495000 0.980000 0.131250
0.613750 0.980000 0.131250
0.732500 0.980000 0.131250
0.851250 0.980000 0.131250
0.970000 0.980000 0.131250
0.020000 0.000000 0.262500
0.138750 0.000000 0.262500
0.257500 0.000000 0.262500
0.376250 0.000000 0.262500
0.495000 0.000000 0.262500
0.613750 0.000000 0.262500
0.732500 0.000000 0.262500
0.851250 0.000000 0.262500
0.970000 0.000000 0.262500
0.020000 0.122500 0.262500
0.138750 0.122500 0.262500
0.257500 0.122500 0.262500
0.376250 0.122500 0.262500
0.495000 0.122500 0.262500
0.613750 0.122500 0.262500
0.732500 0.122500 0.262500
0.851250 0.122500 0.262500
0.970000 0.122500 0.262500
0.020000 0.245000 0.262500
0.138750 0.245000 0.262500
0.257500 0.245000 0.262500
0.376250 0.245000 0.262500
0.495000 0.245000 0.262500
0.613750 0.245000 0.262500
0.732500 0.245000 0.262500
0.851250 0.245000 0.262500
0.970000 0.245000 0.262500
0.020000 0.367500 0.262500
0.138750 0.367500 0.262500
0.257500 0.367500 0.262500
0.376250 0.367500 0.262500
0.495000 0.367500 0.262500
0.613750 0.367500 0.262500
0.732500 0.367500 0.262500
0.851250 0.367500 0.262500
0.970000 0.367500 0.262500
0.020000 0.490000 0.262500
0.138750 0.490000 0.262500
0.257500 0.490000 0.262500
0.376250 0.490000 0.262500
0.495000 0.490000 0.262500
0.613750 0.490000 0.262500
0.732500 0.490000 0.262500
0.851250 0.490000 0.262500
0.970000 0.490000 0.262500
0.020000 0.612500 0.262500
0.138750 0.612500 0.262500
0.257500 0.612500 0.262500
0.376250 0.612500 0.262500
0.495000 0.612500 0.262500
0.613750 0.612500 0.262500
0.732500 0.612500 0.262500
0.851250 0.612500 0.262500
0.970000 0.612500 0.262500
0.020000 0.735000 0.262500
0.138750 0.735000 0.262500
0.257500 0.735000 0.262500
0.376250 0.735000 0.262500
0.495000 0.735000 0.262500
0.613750 0.735000 0.262500
0.732500 0.735000 0.262500
0.851250 0.735000 0.262500
0.970000 0.735000 0.262500
0.020000 0.857500 0.262500
0.138750 0.857500 0.262500
0.257500 0.857500 0.262500
0.376250 0.857500 0.262500
0.495000 0.857500 0.262500
0.613750 0.857500 0.262500
0.732500 0.857500 0.262500
0.851250 0.857500 0.262500
0.970000 0.857500 0.262500
0.020000 0.980000 0.262500
0.138750 0.980000 0.262500
0.257500 0.980000 0.262500
0.376250 0.980000 0.262500
0.495000 0.980000 0.262500
0.613750 0.980000 0.262500
0.732500 0.980000 0.262500
0.851250 0.980000 0.262500
0.970000 0.980000 0.262500
0.020000 0.000000 0.393750
0.138750 0.000000 0.393750
0.257500 0.000000 0.393750
0.376250 0.000000 0.393750
0.495000 0.000000 0.393750
0.613750 0.000000 0.393750
0.732500 0.000000 0.393750
0.851250 0.000000 0.393750
0.970000 0.000000 0.393750
0.020000 0.122500 0.393750
0.138750 0.122500 0.393750
0.257500 0.122500 0.393750
0.376250 0.122500 0.393750
0.495000 0.122500 0.393750
0.613750 0.122500 0.393750
0.732500 0.122500 0.393750
0.851250 0.122500 0.393750
0.970000 0.122500 0.393750
0.020000 0.245000 0.393750
0.138750 0.245000 0.393750
0.257500 0.245000 0.393750
0.376250 0.245000 0.393750
0.495000 0.245000 0.393750
0.613750 0.245000 0.393750
0.732500 0.245000 0.393750
0.851250 0.245000 0.393750
0.970000 0.245000 0.393750
0.020000 0.367500 0.393750
0.138750 0.367500 0.393750
0.257500 0.367500 0.393750
0.376250 0.367500 0.393750
0.495000 0.367500 0.393750
0.613750 0.367500 0.393750
0.732500 0.367500 0.393750
0.851250 0.367500 0.393750
0.970000 0.367500 0.393750
0.020000 0.490000 0.393750
0.138750 0.490000 0.393750
0.257500 0.490000 0.393750
0.376250 0.490000 0.393750
0.495000 0.490000 0.393750
0.613750 0.490000 0.393750
0.732500 0.490000 0.393750
0.851250 0.490000 0.393750
0.970000 0.490000 0.393750
0.020000 0.612500 0.393750
0.138750 0.612500 0.393750
0.257500 0.612500 0.393750
0.376250 0.612500 0.393750
0.495000 0.612500 0.393750
0.613750 0.612500 0.393750
0.732500 0.612500 0.393750
0.851250 0.612500 0.393750
0.970000 0.612500 0.393750
0.020000 0.735000 0.393750
0.138750 0.735000 0.393750
0.257500 0.735000 0.393750
0.376250 0.735000 0.393750
0.495000 0.735000 0.393750
0.613750 0.735000 0.393750
0.732500 0.735000 0.393750
0.851250 0.735000 0.393750
0.970000 0.735000 0.393750
0.020000 0.857500 0.393750
0.138750 0.857500 0.393750
0.257500 0.857500 0.393750
0.376250 0.857500 0.393750
0.495000 0.857500 0.393750
0.613750 0.857500 0.393750
0.732500 0.857500 0.393750
0.851250 0.857500 0.393750
0.970000 0.857500 0.393750
0.020000 0.980000 0.393750
0.138750 0.980000 0.393750
0.257500 0.980000 0.393750
0.376250 0.980000 0.393750
0.495000 0.980000 0.393750
0.613750 0.980000 0.393750
0.732500 0.980000 0.393750
0.851250 0.980000 0.393750
0.970000 0.980000 0.393750
0.020000 0.000000 0.525000
0.138750 0.000000 0.525000
0.257500 0.000000 0.525000
0.376250 0.000000 0.525000
0.495000 0.000000 0.525000
0.613750 0.000000 0.525000
0.732500 0.000000 0.525000
0.851250 0.000000 0.525000
0.970000 0.000000 0.525000
0.020000 0.122500 0.525000
0.138750 0.122500 0.525000
0.257500 0.122500 0.525000
0.376250 0.122500 0.525000
0.495000 0.122500 0.525000
0.613750 0.122500 0.525000
0.732500 0.122500 0.525000
0.851250 0.122500 0.525000
0.970000 0.122500 0.525000
0.020000 0.245000 0.525000
0.138750 0.245000 0.525000
0.257500 0.245000 0.525000
0.376250 0.245000 0.525000
0.495000 0.245000 0.525000
0.613750 0.245000 0.525000
0.732500 0.245000 0.525000
0.851250 0.245000 0.525000
0.970000 0.245000 0.525000
0.020000 0.367500 0.525000
0.138750 0.367500 0.525000
0.257500 0.367500 0.525000
0.376250 0.367500 0.525000
0.495000 0.367500 0.525000
0.613750 0.367500 0.525000
0.732500 0.367500 0.525000
0.851250 0.367500 0.525000
0.970000 0.367500 0.525000
0.020000 0.490000 0.525000
0.138750 0.490000 0.525000
0.257500 0.490000 0.525000
0.376250 0.490000 0.525000
0.495000 0.490000 0.525000
0.613750 0.490000 0.525000
0.732500 0.490000 0.525000
0.851250 0.490000 0.525000
0.970000 0.490000 0.525000
0.020000 0.612500 0.525000
0.138750 0.612500 0.525000
0.257500 0.612500 0.525000
0.376250 0.612500 0.525000
0.495000 0.612500 0.525000
0.613750 0.612500 0.525000
0.732500 0.612500 0.525000
0.851250 0.612500 0.525000
0.970000 0.612500 0.525000
0.020000 0.735000 0.525000
0.138750 0.735000 0.525000
0.257500 0.735000 0.525000
0.376250 0.735000 0.525000
0.495000 0.735000 0.525000
0.613750 0.735000 0.525000
0.732500 0.735000 0.525000
0.851250 0.735000 0.525000
0.970000 0.735000 0.525000
0.020000 0.857500 0.525000
0.138750 0.857500 0.525000
0.257500 0.857500 0.525000
0.376250 0.857500 0.525000
0.495000 0.857500 0.525000
0.613750 0.857500 0.525000
0.732500 0.857500 0.525000
0.851250 0.857500 0.525000
0.970000 0.857500 0.525000
0.020000 0.980000 0.525000
0.138750 0.980000 0.525000
0.257500 0.980000 0.525000
0.376250 0.980000 0.525000
0.495000 0.980000 0.525000
0.613750 0.980000 0.525000
0.732500 0.980000 0.525000
0.851250 0.980000 0.525000
0.970000 0.980000 0.525000
0.020000 0.000000 0.656250
0.138750 0.000000 0.656250
0.257500 0.000000 0.656250
0.376250 0.000000 0.656250
0.495000 0.000000 0.656250
0.613750 0.000000 0.656250
0.732500 0.000000 0.656250
0.851250 0.000000 0.656250
0.970000 0.000000 0.656250
0.020000 0.122500 0.656250
0.138750 0.122500 0.656250
0.257500 0.122500 0.656250
0.376250 0.122500 0.656250
0.495000 0.122500 0.656250
0.613750 0.122500 0.656250
0.732500 0.122500 0.656250
0.851250 0.122500 0.656250
0.970000 0.122500 0.656250
0.020000 0.245000 0.656250
0.138750 0.245000 0.656250
0.257500 0.245000 0.656250
0.376250 0.245000 0.656250
0.495000 0.245000 0.656250
0.613750 0.245000 0.656250
0.732500 0.245000 0.656250
0.851250 0.245000 0.656250
0.970000 0.245000 0.656250
0.020000 0.367500 0.656250
0.138750 0.367500 0.656250
0.257500 0.367500 0.656250
0.376250 0.367500 0.656250
0.495000 0.367500 0.656250
0.613750 0.367500 0.656250
0.732500 0.367500 0.656250
0.851250 0.367500 0.656250
0.970000 0.367500 0.656250
0.020000 0.490000 0.656250
0.138750 0.490000 0.656250
0.257500 0.490000 0.656250
0.376250 0.490000 0.656250
0.495000 0.490000 0.656250
0.613750 0.490000 0.656250
0.732500 0.490000 0.656250
0.851250 0.490000 0.656250
0.970000 0.490000 0.656250
0.020000 0.612500 0.656250
0.138750 0.612500 0.656250
0.257500 0.612500 0.656250
0.376250 0.612500 0.656250
0.495000 0.612500 0.656250
0.613750 0.612500 0.656250
0.732500 0.612500 0.656250
0.851250 0.612500 0.656250
0.970000 0.612500 0.656250
0.020000 0.735000 0.656250
0.138750 0.735000 0.656250
0.257500 0.735000 0.656250
0.376250 0.735000 0.656250
0.495000 0.735000 0.656250
0.613750 0.735000 0.656250
0.732500 0.735000 0.656250
0.851250 0.735000 0.656250
0.970000 0.735000 0.656250
0.020000 0.857500 0.656250
0.138750 0.857500 0.656250
0.257500 0.857500 0.656250
0.376250 0.857500 0.656250
0.495000 0.857500 0.656250
0.613750 0.857500 0.656250
0.732500 0.857500 0.656250
0.851250 0.857500 0.656250
0.970000 0.857500 0.656250
0.020000 0.980000 0.656250
0.138750 0.980000 0.656250
0.257500 0.980000 0.656250
0.376250 0.980000 0.656250
0.495000 0.980000 0.656250
0.613750 0.980000 0.656250
0.732500 0.980000 0.656250
0.851250 0.980000 0.656250
0.970000 0.980000 0.656250
0.020000 0.000000 0.787500
0.138750 0.000000 0.787500
0.257500 0.000000 0.787500
0.376250 0.000000 0.787500
0.495000 0.000000 0.787500
0.613750 0.000000 0.787500
0.732500 0.000000 0.787500
0.851250 0.000000 0.787500
0.970000 0.000000 0.787500
0.020000 0.122500 0.787500
0.138750 0.122500 0.787500
0.257500 0.122500 0.787500
0.376250 0.122500 0.787500
0.495000 0.122500 0.787500
0.613750 0.122500 0.787500
0.732500 0.122500 0.787500
0.851250 0.122500 0.787500
0.970000 0.122500 0.787500
0.020000 0.245000 0.787500
0.138750 0.245000 0.787500
0.257500 0.245000 0.787500
0.376250 0.245000 0.787500
0.495000 0.245000 0.787500
0.613750 0.245000 0.787500
0.732500 0.245000 0.787500
0.851250 0.245000 0.787500
0.970000 0.245000 0.787500
0.020000 0.367500 0.787500
0.138750 0.367500 0.787500
0.257500 0.367500 0.787500
0.376250 0.367500 0.787500
0.495000 0.367500 0.787500
0.613750 0.367500 0.787500
0.732500 0.367500 0.787500
0.851250 0.367500 0.787500
0.970000 0.367500 0.787500
0.020000 0.490000 0.787500
0.138750 0.490000 0.787500
0.257500 0.490000 0.787500
0.376250 0.490000 0.787500
0.495000 0.490000 0.787500
0.613750 0.490000 0.787500
0.732500 0.490000 0.787500
0.851250 0.490000 0.787500
0.970000 0.490000 0.787500
0.020000 0.612500 0.787500
0.138750 0.612500 0.787500
0.257500 0.612500 0.787500
0.376250 0.612500 0.787500
0.495000 0.612500 0.787500
0.613750 0.612500 0.787500
0.732500 0.612500 0.787500
0.851250 0.612500 0.787500
0.970000 0.612500 0.787500
0.020000 0.735000 0.787500
0.138750 0.735000 0.787500
0.257500 0.735000 0.787500
0.376250 0.735000 0.787500
0.495000 0.735000 0.787500
0.613750 0.735000 0.787500
0.732500 0.735000 0.787500
0.851250 0.735000 0.787500
0.970000 0.735000 0.787500
0.020000 0.857500 0.787500
0.138750 0.857500 0.787500
0.257500 0.857500 0.787500
0.376250 0.857500 0.787500
0.495000 0.857500 0.787500
0.613750 0.857500 0.787500
0.732500 0.857500 0.787500
0.851250 0.857500 0.787500
0.970000 0.857500 0.787500
0.020000 0.980000 0.787500
0.138750 0.980000 0.787500
0.257500 0.980000 0.787500
0.376250 0.980000 0.787500
0.495000 0.980000 0.787500
0.613750 0.980000 0.787500
0.732500 0.980000 0.787500
0.851250 0.980000 0.787500
0.970000 0.980000 0.787500
0.020000 0.000000 0.918750
0.138750 0.000000 0.918750
0.257500 0.000000 0.918750
0.376250 0.000000 0.918750
0.495000 0.000000 0.918750
0.613750 0.000000 0.918750
0.732500 0.000000 0.918750
0.851250 0.000000 0.918750
0.970000 0.000000 0.918750
0.020000 0.122500 0.918750
0.138750 0.122500 0.918750
0.257500 0.122500 0.918750
0.376250 0.122500 0.918750
0.495000 0.122500 0.918750
0.613750 0.122500 0.918750
0.732500 0.122500 0.918750
0.851250 0.122500 0.918750
0.970000 0.122500 0.918750
0.020000 0.245000 0.918750
0.138750 0.245000 0.918750
0.257500 0.245000 0.918750
0.376250 0.245000 0.918750
0.495000 0.245000 0.918750
0.613750 0.245000 0.918750
0.732500 0.245000 0.918750
0.851250 0.245000 0.918750
0.970000 0.245000 0.918750
0.020000 0.367500 0.918750
0.138750 0.367500 0.918750
0.257500 0.367500 0.918750
0.376250 0.367500 0.918750
0.495000 0.367500 0.918750
0.613750 0.367500 0.918750
0.732500 0.367500 0.918750
0.851250 0.367500 0.918750
0.970000 0.367500 0.918750
0.020000 0.490000 0.918750
0.138750 0.490000 0.918750
0.257500 0.490000 0.918750
0.376250 0.490000 0.918750
0.495000 0.490000 0.918750
0.613750 0.490000 0.918750
0.732500 0.490000 0.918750
0.851250 0.490000 0.918750
0.970000 0.490000 0.918750
0.020000 0.612500 0.918750
0.138750 0.612500 0.918750
0.257500 0.612500 0.918750
0.376250 0.612500 0.918750
0.495000 0.612500 0.918750
0.613750 0.612500 0.918750
0.732500 0.612500 0.918750
0.851250 0.612500 0.918750
0.970000 0.612500 0.918750
0.020000 0.735000 0.918750
0.138750 0.735000 0.918750
0.257500 0.735000 0.918750
0.376250 0.735000 0.918750
0.495000 0.735000 0.918750
0.613750 0.735000 0.918750
0.732500 0.735000 0.918750
0.851250 0.735000 0.918750
0.970000 0.735000 0.918750
0.020000 0.857500 0.918750
0.138750 0.857500 0.918750
0.257500 0.857500 0.918750
0.376250 0.857500 0.918750
0.495000 0.857500 0.918750
0.613750 0.857500 0.918750
0.732500 0.857500 0.918750
0.851250 0.857500 0.918750
0.970000 0.857500 0.918750
0.020000 0.980000 0.918750
0.138750 0.980000 0.918750
0.257500 0.980000 0.918750
0.376250 0.980000 0.918750
0.495000 0.980000 0.918750
0.613750 0.980000 0.918750
0.732500 0.980000 0.918750
0.851250 0.980000 0.918750
0.970000 0.980000 0.918750
0.020000 0.000000 1.000000
0.138750 0.000000 1.000000
0.257500 0.000000 1.000000
0.376250 0.000000 1.000000
0.495000 0.000000 1.000000
0.613750 0.000000 1.000000
0.732500 0.000000 1.000000
0.851250 0.000000 1.000000
0.970000 0.000000 1.000000
0.020000 0.122500 1.000000
0.138750 0.122500 1.000000
0.257500 0.122500 1.000000
0.376250 0.122500 1.000000
0.495000 0.122500 1.000000
0.613750 0.122500 1.000000
0.732500 0.122500 1.000000
0.851250 0.122500 1.000000
0.970000 0.122500 1.000000
0.020000 0.245000 1.000000
0.138750 0.245000 1.000000
0.257500 0.245000 1.000000
0.376250 0.245000 1.000000
0.495000 0.245000 1.000000
0.613750 0.245000 1.000000
0.732500 0.245000 1.000000
0.851250 0.245000 1.000000
0.970000 0.245000 1.000000
0.020000 0.367500 1.000000
0.138750 0.367500 1.000000
0.257500 0.367500 1.000000
0.376250 0.367500 1.000000
0.495000 0.367500 1.000000
0.613750 0.367500 1.000000
0.732500 0.367500 1.000000
0.851250 0.367500 1.000000
0.970000 0.367500 1.000000
0.020000 0.490000 1.000000
0.138750 0.490000 1.000000
0.257500 0.490000 1.000000
0.376250 0.490000 1.000000
0.495000 0.490000 1.000000
0.613750 0.490000 1.000000
0.732500 0.490000 1.000000
0.851250 0.490000 1.000000
0.970000 0.490000 1.000000
0.020000 0.612500 1.000000
0.138750 0.612500 1.000000
0.257500 0.612500 1.000000
0.376250 0.612500 1.000000
0.495000 0.612500 1.000000
0.613750 0.612500 1.000000
0.732500 0.612500 1.000000
0.851250 0.612500 1.000000
0.970000 0.612500 1.000000
0.020000 0.735000 1.000000
0.138750 0.735000 1.000000
0.257500 0.735000 1.000000
0.376250 0.735000 1.000000
0.495000 0.735000 1.000000
0.613750 0.735000 1.000000
0.732500 0.735000 1.000000
0.851250 0.735000 1.000000
0.970000 0.735000 1.000000
0.020000 0.857500 1.000000
0.138750 0.857500 1.000000
0.257500 0.857500 1.000000
0.376250 0.857500 1.000000
0.495000 0.857500 1.000000
0.613750 0.857500 1.000000
0.732500 0.857500 1.000000
0.851250 0.857500 1.000000
0.970000 0.857500 1.000000
0.020000 0.980000 1.000000
0.138750 0.980000 1.000000
0.257500 0.980000 1.000000
0.376250 0.980000 1.000000
0.495000 0.980000 1.000000
0.613750 0.980000 1.000000
0.732500 0.980000 1.000000
0.851250 0.980000 1.000000
0.970000 0.980000 1.000000
