dashboard/static/social/luts/cinematic.cube
TITLE "cinematic"
LUT_3D_SIZE 33
0.020000 0.000000 0.000000
0.049688 0.000000 0.000000
0.079375 0.000000 0.000000
0.109062 0.000000 0.000000
0.138750 0.000000 0.000000
0.168438 0.000000 0.000000
0.198125 0.000000 0.000000
0.227812 0.000000 0.000000
0.257500 0.000000 0.000000
0.287187 0.000000 0.000000
0.316875 0.000000 0.000000
0.346562 0.000000 0.000000
0.376250 0.000000 0.000000
0.405938 0.000000 0.000000
0.435625 0.000000 0.000000
0.465313 0.000000 0.000000
0.495000 0.000000 0.000000
0.524687 0.000000 0.000000
0.554375 0.000000 0.000000
0.584063 0.000000 0.000000
0.613750 0.000000 0.000000
0.643437 0.000000 0.000000
0.673125 0.000000 0.000000
0.702812 0.000000 0.000000
0.732500 0.000000 0.000000
0.762188 0.000000 0.000000
0.791875 0.000000 0.000000
0.821562 0.000000 0.000000
0.851250 0.000000 0.000000
0.880937 0.000000 0.000000
0.910625 0.000000 0.000000
0.940312 0.000000 0.000000
0.970000 0.000000 0.000000
0.020000 0.030625 0.000000
0.049688 0.030625 0.000000
0.079375 0.030625 0.000000
0.109062 0.030625 0.000000
0.138750 0.030625 0.000000
0.168438 0.030625 0.000000
0.198125 0.030625 0.000000
0.227812 0.030625 0.000000
0.257500 0.030625 0.000000
0.287187 0.030625 0.000000
0.316875 0.030625 0.000000
0.346562 0.030625 0.000000
0.376250 0.030625 0.000000
0.405938 0.030625 0.000000
0.435625 0.030625 0.000000
0.465313 0.030625 0.000000
0.495000 0.030625 0.000000
0.524687 0.030625 0.000000
0.554375 0.030625 0.000000
0.584063 0.030625 0.000000
0.613750 0.030625 0.000000
0.643437 0.030625 0.000000
0.673125 0.030625 0.000000
0.702812 0.030625 0.000000
0.732500 0.030625 0.000000
0.762188 0.030625 0.000000
0.791875 0.030625 0.000000
0.821562 0.030625 0.000000
0.851250 0.030625 0.000000
0.880937 0.030625 0.000000
0.910625 0.030625 0.000000
0.940312 0.030625 0.000000
0.970000 0.030625 0.000000
0.020000 0.061250 0.000000
0.049688 0.061250 0.000000
0.079375 0.061250 0.000000
0.109062 0.061250 0.000000
0.138750 0.061250 0.000000
0.168438 0.061250 0.000000
0.198125 0.061250 0.000000
0.227812 0.061250 0.000000
0.257500 0.061250 0.000000
0.287187 0.061250 0.000000
0.316875 0.061250 0.000000
0.346562 0.061250 0.000000
0.376250 0.061250 0.000000
0.405938 0.061250 0.000000
0.435625 0.061250 0.000000
0.465313 0.061250 0.000000
0.495000 0.061250 0.000000
0.524687 0.061250 0.000000
0.554375 0.061250 0.000000
0.584063 0.061250 0.000000
0.613750 0.061250 0.000000
0.643437 0.061250 0.000000
0.673125 0.061250 0.000000
0.702812 0.061250 0.000000
0.732500 0.061250 0.000000
0.762188 0.061250 0.000000
0.791875 0.061250 0.000000
0.821562 0.061250 0.000000
0.851250 0.061250 0.000000
0.880937 0.061250 0.000000
0.910625 0.061250 0.000000
0.940312 0.061250 0.000000
0.970000 0.061250 0.000000
0.020000 0.091875 0.000000
0.049688 0.091875 0.000000
0.079375 0.091875 0.000000
0.109062 0.091875 0.000000
0.138750 0.091875 0.000000
0.168438 0.091875 0.000000
0.198125 0.091875 0.000000
0.227812 0.091875 0.000000
0.257500 0.091875 0.000000
0.287187 0.091875 0.000000
0.316875 0.091875 0.000000
0.346562 0.091875 0.000000
0.376250 0.091875 0.000000
0.405938 0.091875 0.000000
0.435625 0.091875 0.000000
0.465313 0.091875 0.000000
0.495000 0.091875 0.000000
0.524687 0.091875 0.000000
0.554375 0.091875 0.000000
0.584063 0.091875 0.000000
0.613750 0.091875 0.000000
0.643437 0.091875 0.000000
0.673125 0.091875 0.000000
0.702812 0.091875 0.000000
0.732500 0.091875 0.000000
0.762188 0.091875 0.000000
0.791875 0.091875 0.000000
0.821562 0.091875 0.000000
0.851250 0.091875 0.000000
0.880937 0.091875 0.000000
0.910625 0.091875 0.000000
0.940312 0.091875 0.000000
0.970000 0.091875 0.000000
0.020000 0.122500 0.000000
0.049688 0.122500 0.000000
0.079375 0.122500 0.000000
0.109062 0.122500 0.000000
0.138750 0.122500 0.000000
0.168438 0.122500 0.000000
0.198125 0.122500 0.000000
0.227812 0.122500 0.000000
0.257500 0.122500 0.000000
0.287187 0.122500 0.000000
0.316875 0.122500 0.000000
0.346562 0.122500 0.000000
0.376250 0.122500 0.000000
0.405938 0.122500 0.000000
0.435625 0.122500 0.000000
0.465313 0.122500 0.000000
0.495000 0.122500 0.000000
0.524687 0.122500 0.000000
0.554375 0.122500 0.000000
0.584063 0.122500 0.000000
0.613750 0.122500 0.000000
0.643437 0.122500 0.000000
0.673125 0.122500 0.000000
0.702812 0.122500 0.000000
0.732500 0.122500 0.000000
0.762188 0.122500 0.000000
0.791875 0.122500 0.000000
0.821562 0.122500 0.000000
0.851250 0.122500 0.000000
0.880937 0.122500 0.000000
0.910625 0.122500 0.000000
0.940312 0.122500 0.000000
0.970000 0.122500 0.000000
0.020000 0.153125 0.000000
0.049688 0.153125 0.000000
0.079375 0.153125 0.000000
0.109062 0.153125 0.000000
0.138750 0.153125 0.000000
0.168438 0.153125 0.000000
0.198125 0.153125 0.000000
0.227812 0.153125 0.000000
0.257500 0.153125 0.000000
0.287187 0.153125 0.000000
0.316875 0.153125 0.000000
0.346562 0.153125 0.000000
0.376250 0.153125 0.000000
0.405938 0.153125 0.000000
0.435625 0.153125 0.000000
0.465313 0.153125 0.000000
0.495000 0.153125 0.000000
0.524687 0.153125 0.000000
0.554375 0.153125 0.000000
0.584063 0.153125 0.000000
0.613750 0.153125 0.000000
0.643437 0.153125 0.000000
0.673125 0.153125 0.000000
0.702812 0.153125 0.000000
0.732500 0.153125 0.000000
0.762188 0.153125 0.000000
0.791875 0.153125 0.000000
0.821562 0.153125 0.000000
0.851250 0.153125 0.000000
0.880937 0.153125 0.000000
0.910625 0.153125 0.000000
0.940312 0.153125 0.000000
0.970000 0.153125 0.000000
0.020000 0.183750 0.000000
0.049688 0.183750 0.000000
0.079375 0.183750 0.000000
0.109062 0.183750 0.000000
0.138750 0.183750 0.000000
0.168438 0.183750 0.000000
0.198125 0.183750 0.000000
0.227812 0.183750 0.000000
0.257500 0.183750 0.000000
0.287187 0.183750 0.000000
0.316875 0.183750 0.000000
0.346562 0.183750 0.000000
0.376250 0.183750 0.000000
0.405938 0.183750 0.000000
0.435625 0.183750 0.000000
0.465313 0.183750 0.000000
0.495000 0.183750 0.000000
0.524687 0.183750 0.000000
0.554375 0.183750 0.000000
0.584063 0.183750 0.000000
0.613750 0.183750 0.000000
0.643437 0.183750 0.000000
0.673125 0.183750 0.000000
0.702812 0.183750 0.000000
0.732500 0.183750 0.000000
0.762188 0.183750 0.000000
0.791875 0.183750 0.000000
0.821562 0.183750 0.000000
0.851250 0.183750 0.000000
0.880937 0.183750 0.000000
0.910625 0.183750 0.000000
0.940312 0.183750 0.000000
0.970000 0.183750 0.000000
0.020000 0.214375 0.000000
0.049688 0.214375 0.000000
0.079375 0.214375 0.000000
0.109062 0.214375 0.000000
0.138750 0.214375 0.000000
0.168438 0.214375 0.000000
0.198125 0.214375 0.000000
0.227812 0.214375 0.000000
0.257500 0.214375 0.000000
0.287187 0.214375 0.000000
0.316875 0.214375 0.000000
0.346562 0.214375 0.000000
0.376250 0.214375 0.000000
0.405938 0.214375 0.000000
0.435625 0.214375 0.000000
0.465313 0.214375 0.000000
0.495000 0.214375 0.000000
0.524687 0.214375 0.000000
0.554375 0.214375 0.000000
0.584063 0.214375 0.000000
0.613750 0.214375 0.000000
0.643437 0.214375 0.000000
0.673125 0.214375 0.000000
0.702812 0.214375 0.000000
0.732500 0.214375 0.000000
0.762188 0.214375 0.000000
0.791875 0.214375 0.000000
0.821562 0.214375 0.000000
0.851250 0.214375 0.000000
0.880937 0.214375 0.000000
0.910625 0.214375 0.000000
0.940312 0.214375 0.000000
0.970000 0.214375 0.000000
0.020000 0.245000 0.000000
0.049688 0.245000 0.000000
0.079375 0.245000 0.000000
0.109062 0.245000 0.000000
0.138750 0.245000 0.000000
0.168438 0.245000 0.000000
0.198125 0.245000 0.000000
0.227812 0.245000 0.000000
0.257500 0.245000 0.000000
0.287187 0.245000 0.000000
0.316875 0.245000 0.000000
0.346562 0.245000 0.000000
0.376250 0.245000 0.000000
0.405938 0.245000 0.000000
0.435625 0.245000 0.000000
0.465313 0.245000 0.000000
0.495000 0.245000 0.000000
0.524687 0.245000 0.000000
0.554375 0.245000 0.000000
0.584063 0.245000 0.000000
0.613750 0.245000 0.000000
0.643437 0.245000 0.000000
0.673125 0.245000 0.000000
0.702812 0.245000 0.000000
0.732500 0.245000 0.000000
0.762188 0.245000 0.000000
0.791875 0.245000 0.000000
0.821562 0.245000 0.000000
0.851250 0.245000 0.000000
0.880937 0.245000 0.000000
0.910625 0.245000 0.000000
0.940312 0.245000 0.000000
0.970000 0.245000 0.000000
0.020000 0.275625 0.000000
0.049688 0.275625 0.000000
0.079375 0.275625 0.000000
0.109062 0.275625 0.000000
0.138750 0.275625 0.000000
0.168438 0.275625 0.000000
0.198125 0.275625 0.000000
0.227812 0.275625 0.000000
0.257500 0.275625 0.000000
0.287187 0.275625 0.000000
0.316875 0.275625 0.000000
0.346562 0.275625 0.000000
0.376250 0.275625 0.000000
0.405938 0.275625 0.000000
0.435625 0.275625 0.000000
0.465313 0.275625 0.000000
0.495000 0.275625 0.000000
0.524687 0.275625 0.000000
0.554375 0.275625 0.000000
0.584063 0.275625 0.000000
0.613750 0.275625 0.000000
0.643437 0.275625 0.000000
0.673125 0.275625 0.000000
0.702812 0.275625 0.000000
0.732500 0.275625 0.000000
0.762188 0.275625 0.000000
0.791875 0.275625 0.000000
0.821562 0.275625 0.000000
0.851250 0.275625 0.000000
0.880937 0.275625 0.000000
0.910625 0.275625 0.000000
0.940312 0.275625 0.000000
0.970000 0.275625 0.000000
0.020000 0.306250 0.000000
0.049688 0.306250 0.000000
0.079375 0.306250 0.000000
0.109062 0.306250 0.000000
0.138750 0.306250 0.000000
0.168438 0.306250 0.000000
0.198125 0.306250 0.000000
0.227812 0.306250 0.000000
0.257500 0.306250 0.000000
0.287187 0.306250 0.000000
0.316875 0.306250 0.000000
0.346562 0.306250 0.000000
0.376250 0.306250 0.000000
0.405938 0.306250 0.000000
0.435625 0.306250 0.000000
0.465313 0.306250 0.000000
0.495000 0.306250 0.000000
0.524687 0.306250 0.000000
0.554375 0.306250 0.000000
0.584063 0.306250 0.000000
0.613750 0.306250 0.000000
0.643437 0.306250 0.000000
0.673125 0.306250 0.000000
0.702812 0.306250 0.000000
0.732500 0.306250 0.000000
0.762188 0.306250 0.000000
0.791875 0.306250 0.000000
0.821562 0.306250 0.000000
0.851250 0.306250 0.000000
0.880937 0.306250 0.000000
0.910625 0.306250 0.000000
0.940312 0.306250 0.000000
0.970000 0.306250 0.000000
0.020000 0.336875 0.000000
0.049688 0.336875 0.000000
0.079375 0.336875 0.000000
0.109062 0.336875 0.000000
0.138750 0.336875 0.000000
0.168438 0.336875 0.000000
0.198125 0.336875 0.000000
0.227812 0.336875 0.000000
0.257500 0.336875 0.000000
0.287187 0.336875 0.000000
0.316875 0.336875 0.000000
0.346562 0.336875 0.000000
0.376250 0.336875 0.000000
0.405938 0.336875 0.000000
0.435625 0.336875 0.000000
0.465313 0.336875 0.000000
0.495000 0.336875 0.000000
0.524687 0.336875 0.000000
0.554375 0.336875 0.000000
0.584063 0.336875 0.000000
0.613750 0.336875 0.000000
0.643437 0.336875 0.000000
0.673125 0.336875 0.000000
0.702812 0.336875 0.000000
0.732500 0.336875 0.000000
0.762188 0.336875 0.000000
0.791875 0.336875 0.000000
0.821562 0.336875 0.000000
0.851250 0.336875 0.000000
0.880937 0.336875 0.000000
0.910625 0.336875 0.000000
0.940312 0.336875 0.000000
0.970000 0.336875 0.000000
0.020000 0.367500 0.000000
0.049688 0.367500 0.000000
0.079375 0.367500 0.000000
0.109062 0.367500 0.000000
0.138750 0.367500 0.000000
0.168438 0.367500 0.000000
0.198125 0.367500 0.000000
0.227812 0.367500 0.000000
0.257500 0.367500 0.000000
0.287187 0.367500 0.000000
0.316875 0.367500 0.000000
0.346562 0.367500 0.000000
0.376250 0.367500 0.000000
0.405938 0.367500 0.000000
0.435625 0.367500 0.000000
0.465313 0.367500 0.000000
0.495000 0.367500 0.000000
0.524687 0.367500 0.000000
0.554375 0.367500 0.000000
0.584063 0.367500 0.000000
0.613750 0.367500 0.000000
0.643437 0.367500 0.000000
0.673125 0.367500 0.000000
0.702812 0.367500 0.000000
0.732500 0.367500 0.000000
0.762188 0.367500 0.000000
0.791875 0.367500 0.000000
0.821562 0.367500 0.000000
0.851250 0.367500 0.000000
0.880937 0.367500 0.000000
0.910625 0.367500 0.000000
0.940312 0.367500 0.000000
0.970000 0.367500 0.000000
0.020000 0.398125 0.000000
0.049688 0.398125 0.000000
0.079375 0.398125 0.000000
0.109062 0.398125 0.000000
0.138750 0.398125 0.000000
0.168438 0.398125 0.000000
0.198125 0.398125 0.000000
0.227812 0.398125 0.000000
0.257500 0.398125 0.000000
0.287187 0.398125 0.000000
0.316875 0.398125 0.000000
0.346562 0.398125 0.000000
0.376250 0.398125 0.000000
0.405938 0.398125 0.000000
0.435625 0.398125 0.000000
0.465313 0.398125 0.000000
0.495000 0.398125 0.000000
0.524687 0.398125 0.000000
0.554375 0.398125 0.000000
0.584063 0.398125 0.000000
0.613750 0.398125 0.000000
0.643437 0.398125 0.000000
0.673125 0.398125 0.000000
0.702812 0.398125 0.000000
0.732500 0.398125 0.000000
0.762188 0.398125 0.000000
0.791875 0.398125 0.000000
0.821562 0.398125 0.000000
0.851250 0.398125 0.000000
0.880937 0.398125 0.000000
0.910625 0.398125 0.000000
0.940312 0.398125 0.000000
0.970000 0.398125 0.000000
0.020000 0.428750 0.000000
0.049688 0.428750 0.000000
0.079375 0.428750 0.000000
0.109062 0.428750 0.000000
0.138750 0.428750 0.000000
0.168438 0.428750 0.000000
0.198125 0.428750 0.000000
0.227812 0.428750 0.000000
0.257500 0.428750 0.000000
0.287187 0.428750 0.000000
0.316875 0.428750 0.000000
0.346562 0.428750 0.000000
0.376250 0.428750 0.000000
0.405938 0.428750 0.000000
0.435625 0.428750 0.000000
0.465313 0.428750 0.000000
0.495000 0.428750 0.000000
0.524687 0.428750 0.000000
0.554375 0.428750 0.000000
0.584063 0.428750 0.000000
0.613750 0.428750 0.000000
0.643437 0.428750 0.000000
0.673125 0.428750 0.000000
0.702812 0.428750 0.000000
0.732500 0.428750 0.000000
0.762188 0.428750 0.000000
0.791875 0.428750 0.000000
0.821562 0.428750 0.000000
0.851250 0.428750 0.000000
0.880937 0.428750 0.000000
0.910625 0.428750 0.000000
0.940312 0.428750 0.000000
0.970000 0.428750 0.000000
0.020000 0.459375 0.000000
0.049688 0.459375 0.000000
0.079375 0.459375 0.000000
0.109062 0.459375 0.000000
0.138750 0.459375 0.000000
0.168438 0.459375 0.000000
0.198125 0.459375 0.000000
0.227812 0.459375 0.000000
0.257500 0.459375 0.000000
0.287187 0.459375 0.000000
0.316875 0.459375 0.000000
0.346562 0.459375 0.000000
0.376250 0.459375 0.000000
0.405938 0.459375 0.000000
0.435625 0.459375 0.000000
0.465313 0.459375 0.000000
0.495000 0.459375 0.000000
0.524687 0.459375 0.000000
0.554375 0.459375 0.000000
0.584063 0.459375 0.000000
0.613750 0.459375 0.000000
0.643437 0.459375 0.000000
0.673125 0.459375 0.000000
0.702812 0.459375 0.000000
0.732500 0.459375 0.000000
0.762188 0.459375 0.000000
0.791875 0.459375 0.000000
0.821562 0.459375 0.000000
0.851250 0.459375 0.000000
0.880937 0.459375 0.000000
0.910625 0.459375 0.000000
0.940312 0.459375 0.000000
0.970000 0.459375 0.000000
0.020000 0.490000 0.000000
0.049688 0.490000 0.000000
0.079375 0.490000 0.000000
0.109062 0.490000 0.000000
0.138750 0.490000 0.000000
0.168438 0.490000 0.000000
0.198125 0.490000 0.000000
0.227812 0.490000 0.000000
0.257500 0.490000 0.000000
0.287187 0.490000 0.000000
0.316875 0.490000 0.000000
0.346562 0.490000 0.000000
0.376250 0.490000 0.000000
0.405938 0.490000 0.000000
0.435625 0.490000 0.000000
0.465313 0.490000 0.000000
0.495000 0.490000 0.000000
0.524687 0.490000 0.000000
0.554375 0.490000 0.000000
0.584063 0.490000 0.000000
0.613750 0.490000 0.000000
0.643437 0.490000 0.000000
0.673125 0.490000 0.000000
0.702812 0.490000 0.000000
0.732500 0.490000 0.000000
0.762188 0.490000 0.000000
0.791875 0.490000 0.000000
0.821562 0.490000 0.000000
0.851250 0.490000 0.000000
0.880937 0.490000 0.000000
0.910625 0.490000 0.000000
0.940312 0.490000 0.000000
0.970000 0.490000 0.000000
0.020000 0.520625 0.000000
0.049688 0.520625 0.000000
0.079375 0.520625 0.000000
0.109062 0.520625 0.000000
0.138750 0.520625 0.000000
0.168438 0.520625 0.000000
0.198125 0.520625 0.000000
0.227812 0.520625 0.000000
0.257500 0.520625 0.000000
0.287187 0.520625 0.000000
0.316875 0.520625 0.000000
0.346562 0.520625 0.000000
0.376250 0.520625 0.000000
0.405938 0.520625 0.000000
0.435625 0.520625 0.000000
0.465313 0.520625 0.000000
0.495000 0.520625 0.000000
0.524687 0.520625 0.000000
0.554375 0.520625 0.000000
0.584063 0.520625 0.000000
0.613750 0.520625 0.000000
0.643437 0.520625 0.000000
0.673125 0.520625 0.000000
0.702812 0.520625 0.000000
0.732500 0.520625 0.000000
0.762188 0.520625 0.000000
0.791875 0.520625 0.000000
0.821562 0.520625 0.000000
0.851250 0.520625 0.000000
0.880937 0.520625 0.000000
0.910625 0.520625 0.000000
0.940312 0.520625 0.000000
0.970000 0.520625 0.000000
0.020000 0.551250 0.000000
0.049688 0.551250 0.000000
0.079375 0.551250 0.000000
0.109062 0.551250 0.000000
0.138750 0.551250 0.000000
0.168438 0.551250 0.000000
0.198125 0.551250 0.000000
0.227812 0.551250 0.000000
0.257500 0.551250 0.000000
0.287187 0.551250 0.000000
0.316875 0.551250 0.000000
0.346562 0.551250 0.000000
0.376250 0.551250 0.000000
0.405938 0.551250 0.000000
0.435625 0.551250 0.000000
0.465313 0.551250 0.000000
0.495000 0.551250 0.000000
0.524687 0.551250 0.000000
0.554375 0.551250 0.000000
0.584063 0.551250 0.000000
0.613750 0.551250 0.000000
0.643437 0.551250 0.000000
0.673125 0.551250 0.000000
0.702812 0.551250 0.000000
0.732500 0.551250 0.000000
0.762188 0.551250 0.000000
0.791875 0.551250 0.000000
0.821562 0.551250 0.000000
0.851250 0.551250 0.000000
0.880937 0.551250 0.000000
0.910625 0.551250 0.000000
0.940312 0.551250 0.000000
0.970000 0.551250 0.000000
0.020000 0.581875 0.000000
0.049688 0.581875 0.000000
0.079375 0.581875 0.000000
0.109062 0.581875 0.000000
0.138750 0.581875 0.000000
0.168438 0.581875 0.000000
0.198125 0.581875 0.000000
0.227812 0.581875 0.000000
0.257500 0.581875 0.000000
0.287187 0.581875 0.000000
0.316875 0.581875 0.000000
0.346562 0.581875 0.000000
0.376250 0.581875 0.000000
0.405938 0.581875 0.000000
0.435625 0.581875 0.000000
0.465313 0.581875 0.000000
0.495000 0.581875 0.000000
0.524687 0.581875 0.000000
0.554375 0.581875 0.000000
0.584063 0.581875 0.000000
0.613750 0.581875 0.000000
0.643437 0.581875 0.000000
0.673125 0.581875 0.000000
0.702812 0.581875 0.000000
0.732500 0.581875 0.000000
0.762188 0.581875 0.000000
0.791875 0.581875 0.000000
0.821562 0.581875 0.000000
0.851250 0.581875 0.000000
0.880937 0.581875 0.000000
0.910625 0.581875 0.000000
0.940312 0.581875 0.000000
0.970000 0.581875 0.000000
0.020000 0.612500 0.000000
0.049688 0.612500 0.000000
0.079375 0.612500 0.000000
0.109062 0.612500 0.000000
0.138750 0.612500 0.000000
0.168438 0.612500 0.000000
0.198125 0.612500 0.000000
0.227812 0.612500 0.000000
0.257500 0.612500 0.000000
0.287187 0.612500 0.000000
0.316875 0.612500 0.000000
0.346562 0.612500 0.000000
0.376250 0.612500 0.000000
0.405938 0.612500 0.000000
0.435625 0.612500 0.000000
0.465313 0.612500 0.000000
0.495000 0.612500 0.000000
0.524687 0.612500 0.000000
0.554375 0.612500 0.000000
0.584063 0.612500 0.000000
0.613750 0.612500 0.000000
0.643437 0.612500 0.000000
0.673125 0.612500 0.000000
0.702812 0.612500 0.000000
0.732500 0.612500 0.000000
0.762188 0.612500 0.000000
0.791875 0.612500 0.000000
0.821562 0.612500 0.000000
0.851250 0.612500 0.000000
0.880937 0.612500 0.000000
0.910625 0.612500 0.000000
0.940312 0.612500 0.000000
0.970000 0.612500 0.000000
0.020000 0.643125 0.000000
0.049688 0.643125 0.000000
0.079375 0.643125 0.000000
0.109062 0.643125 0.000000
0.138750 0.643125 0.000000
0.168438 0.643125 0.000000
0.198125 0.643125 0.000000
0.227812 0.643125 0.000000
0.257500 0.643125 0.000000
0.287187 0.643125 0.000000
0.316875 0.643125 0.000000
0.346562 0.643125 0.000000
0.376250 0.643125 0.000000
0.405938 0.643125 0.000000
0.435625 0.643125 0.000000
0.465313 0.643125 0.000000
0.495000 0.643125 0.000000
0.524687 0.643125 0.000000
0.554375 0.643125 0.000000
0.584063 0.643125 0.000000
0.613750 0.643125 0.000000
0.643437 0.643125 0.000000
0.673125 0.643125 0.000000
0.702812 0.643125 0.000000
0.732500 0.643125 0.000000
0.762188 0.643125 0.000000
0.791875 0.643125 0.000000
0.821562 0.643125 0.000000
0.851250 0.643125 0.000000
0.880937 0.643125 0.000000
0.910625 0.643125 0.000000
0.940312 0.643125 0.000000
0.970000 0.643125 0.000000
0.020000 0.673750 0.000000
0.049688 0.673750 0.000000
0.079375 0.673750 0.000000
0.109062 0.673750 0.000000
0.138750 0.673750 0.000000
0.168438 0.673750 0.000000
0.198125 0.673750 0.000000
0.227812 0.673750 0.000000
0.257500 0.673750 0.000000
0.287187 0.673750 0.000000
0.316875 0.673750 0.000000
0.346562 0.673750 0.000000
0.376250 0.673750 0.000000
0.405938 0.673750 0.000000
0.435625 0.673750 0.000000
0.465313 0.673750 0.000000
0.495000 0.673750 0.000000
0.524687 0.673750 0.000000
0.554375 0.673750 0.000000
0.584063 0.673750 0.000000
0.613750 0.673750 0.000000
0.643437 0.673750 0.000000
0.673125 0.673750 0.000000
0.702812 0.673750 0.000000
0.732500 0.673750 0.000000
0.762188 0.673750 0.000000
0.791875 0.673750 0.000000
0.821562 0.673750 0.000000
0.851250 0.673750 0.000000
0.880937 0.673750 0.000000
0.910625 0.673750 0.000000
0.940312 0.673750 0.000000
0.970000 0.673750 0.000000
0.020000 0.704375 0.000000
0.049688 0.704375 0.000000
0.079375 0.704375 0.000000
0.109062 0.704375 0.000000
0.138750 0.704375 0.000000
0.168438 0.704375 0.000000
0.198125 0.704375 0.000000
0.227812 0.704375 0.000000
0.257500 0.704375 0.000000
0.287187 0.704375 0.000000
0.316875 0.704375 0.000000
0.346562 0.704375 0.000000
0.376250 0.704375 0.000000
0.405938 0.704375 0.000000
0.435625 0.704375 0.000000
0.465313 0.704375 0.000000
0.495000 0.704375 0.000000
0.524687 0.704375 0.000000
0.554375 0.704375 0.000000
0.584063 0.704375 0.000000
0.613750 0.704375 0.000000
0.643437 0.704375 0.000000
0.673125 0.704375 0.000000
0.702812 0.704375 0.000000
0.732500 0.704375 0.000000
0.762188 0.704375 0.000000
0.791875 0.704375 0.000000
0.821562 0.704375 0.000000
0.851250 0.704375 0.000000
0.880937 0.704375 0.000000
0.910625 0.704375 0.000000
0.940312 0.704375 0.000000
0.970000 0.704375 0.000000
0.020000 0.735000 0.000000
0.049688 0.735000 0.000000
0.079375 0.735000 0.000000
0.109062 0.735000 0.000000
0.138750 0.735000 0.000000
0.168438 0.735000 0.000000
0.198125 0.735000 0.000000
0.227812 0.735000 0.000000
0.257500 0.735000 0.000000
0.287187 0.735000 0.000000
0.316875 0.735000 0.000000
0.346562 0.735000 0.000000
0.376250 0.735000 0.000000
0.405938 0.735000 0.000000
0.435625 0.735000 0.000000
0.465313 0.735000 0.000000
0.495000 0.735000 0.000000
0.524687 0.735000 0.000000
0.554375 0.735000 0.000000
0.584063 0.735000 0.000000
0.613750 0.735000 0.000000
0.643437 0.735000 0.000000
0.673125 0.735000 0.000000
0.702812 0.735000 0.000000
0.732500 0.735000 0.000000
0.762188 0.735000 0.000000
0.791875 0.735000 0.000000
0.821562 0.735000 0.000000
0.851250 0.735000 0.000000
0.880937 0.735000 0.000000
0.910625 0.735000 0.000000
0.940312 0.735000 0.000000
0.970000 0.735000 0.000000
0.020000 0.765625 0.000000
0.049688 0.765625 0.000000
0.079375 0.765625 0.000000
0.109062 0.765625 0.000000
0.138750 0.765625 0.000000
0.168438 0.765625 0.000000
0.198125 0.765625 0.000000
0.227812 0.765625 0.000000
0.257500 0.765625 0.000000
0.287187 0.765625 0.000000
0.316875 0.765625 0.000000
0.346562 0.765625 0.000000
0.376250 0.765625 0.000000
0.405938 0.765625 0.000000
0.435625 0.765625 0.000000
0.465313 0.765625 0.000000
0.495000 0.765625 0.000000
0.524687 0.765625 0.000000
0.554375 0.765625 0.000000
0.584063 0.765625 0.000000
0.613750 0.765625 0.000000
0.643437 0.765625 0.000000
0.673125 0.765625 0.000000
0.702812 0.765625 0.000000
0.732500 0.765625 0.000000
0.762188 0.765625 0.000000
0.791875 0.765625 0.000000
0.821562 0.765625 0.000000
0.851250 0.765625 0.000000
0.880937 0.765625 0.000000
0.910625 0.765625 0.000000
0.940312 0.765625 0.000000
0.970000 0.765625 0.000000
0.020000 0.796250 0.000000
0.049688 0.796250 0.000000
0.079375 0.796250 0.000000
0.109062 0.796250 0.000000
0.138750 0.796250 0.000000
0.168438 0.796250 0.000000
0.198125 0.796250 0.000000
0.227812 0.796250 0.000000
0.257500 0.796250 0.000000
0.287187 0.796250 0.000000
0.316875 0.796250 0.000000
0.346562 0.796250 0.000000
0.376250 0.796250 0.000000
0.405938 0.796250 0.000000
0.435625 0.796250 0.000000
0.465313 0.796250 0.000000
0.495000 0.796250 0.000000
0.524687 0.796250 0.000000
0.554375 0.796250 0.000000
0.584063 0.796250 0.000000
0.613750 0.796250 0.000000
0.643437 0.796250 0.000000
0.673125 0.796250 0.000000
0.702812 0.796250 0.000000
0.732500 0.796250 0.000000
0.762188 0.796250 0.000000
0.791875 0.796250 0.000000
0.821562 0.796250 0.000000
0.851250 0.796250 0.000000
