dashboard/static/social/luts/cinematic.cube
TITLE "cinematic"
LUT_3D_SIZE 5
0.020000 0.000000 0.000000
0.257500 0.000000 0.000000
0.495000 0.000000 0.000000
0.732500 0.000000 0.000000
0.970000 0.000000 0.000000
0.020000 0.245000 0.000000
0.257500 0.245000 0.000000
0.495000 0.245000 0.000000
0.732500 0.245000 0.000000
0.970000 0.245000 0.000000
0.020000 0.490000 0.000000
0.257500 0.490000 0.000000
0.495000 0.490000 0.000000
0.732500 0.490000 0.000000
0.970000 0.490000 0.000000
0.020000 0.735000 0.000000
0.257500 0.735000 0.000000
0.495000 0.735000 0.000000
0.732500 0.735000 0.000000
0.970000 0.735000 0.000000
0.020000 0.980000 0.000000
0.257500 0.980000 0.000000
0.495000 0.980000 0.000000
0.732500 0.980000 0.000000
0.970000 0.980000 0.000000
0.020000 0.000000 0.262500
0.257500 0.000000 0.262500
0.495000 0.000000 0.262500
0.732500 0.000000 0.262500
0.970000 0.000000 0.262500
0.020000 0.245000 0.262500
0.257500 0.245000 0.262500
0.495000 0.245000 0.262500
0.732500 0.245000 0.262500
0.970000 0.245000 0.262500
0.020000 0.490000 0.262500
0.257500 0.490000 0.262500
0.495000 0.490000 0.262500
0.732500 0.490000 0.262500
0.970000 0.490000 0.262500
0.020000 0.735000 0.262500
0.257500 0.735000 0.262500
0.495000 0.735000 0.262500
0.732500 0.735000 0.262500
0.970000 0.735000 0.262500
0.020000 0.980000 0.262500
0.257500 0.980000 0.262500
0.495000 0.980000 0.262500
0.732500 0.980000 0.262500
0.970000 0.980000 0.262500
0.020000 0.000000 0.525000
0.257500 0.000000 0.525000
0.495000 0.000000 0.525000
0.732500 0.000000 0.525000
0.970000 0.000000 0.525000
0.020000 0.245000 0.525000
0.257500 0.245000 0.525000
0.495000 0.245000 0.525000
0.732500 0.245000 0.525000
0.970000 0.245000 0.525000
0.020000 0.490000 0.525000
0.257500 0.490000 0.525000
0.495000 0.490000 0.525000
0.732500 0.490000 0.525000
0.970000 0.490000 0.525000
0.020000 0.735000 0.525000
0.257500 0.735000 0.525000
0.495000 0.735000 0.525000
0.732500 0.735000 0.525000
0.970000 0.735000 0.525000
0.020000 0.980000 0.525000
0.257500 0.980000 0.525000
0.495000 0.980000 0.525000
0.732500 0.980000 0.525000
0.970000 0.980000 0.525000
0.020000 0.000000 0.787500
0.257500 0.000000 0.787500
0.495000 0.000000 0.787500
0.732500 0.000000 0.787500
0.970000 0.000000 0.787500
0.020000 0.245000 0.787500
0.257500 0.245000 0.787500
0.495000 0.245000 0.787500
0.732500 0.245000 0.787500
0.970000 0.245000 0.787500
0.020000 0.490000 0.787500
0.257500 0.490000 0.787500
0.495000 0.490000 0.787500
0.732500 0.490000 0.787500
0.970000 0.490000 0.787500
0.020000 0.735000 0.787500
0.257500 0.735000 0.787500
0.495000 0.735000 0.787500
0.732500 0.735000 0.787500
0.970000 0.735000 0.787500
0.020000 0.980000 0.787500
0.257500 0.980000 0.787500
0.495000 0.980000 0.787500
0.732500 0.980000 0.787500
0.970000 0.980000 0.787500
0.020000 0.000000 1.000000
0.257500 0.000000 1.000000
0.495000 0.000000 1.000000
0.732500 0.000000 1.000000
0.970000 0.000000 1.000000
0.020000 0.245000 1.000000
0.257500 0.245000 1.000000
0.495000 0.245000 1.000000
0.732500 0.245000 1.000000
0.970000 0.245000 1.000000
0.020000 0.490000 1.000000
0.257500 0.490000 1.000000
0.495000 0.490000 1.000000
0.732500 0.490000 1.000000
0.970000 0.490000 1.000000
0.020000 0.735000 1.000000
0.257500 0.735000 1.000000
0.495000 0.735000 1.000000
0.732500 0.735000 1.000000
0.970000 0.735000 1.000000
0.020000 0.980000 1.000000
0.257500 0.980000 1.000000
0.495000 0.980000 1.000000
0.732500 0.980000 1.000000
0.970000 0.980000 1.000000
