dashboard/static/social/luts/moody.cube
TITLE "moody"
LUT_3D_SIZE 5
0.000000 0.000000 0.000000
0.200000 0.000000 0.000000
0.400000 0.000000 0.000000
0.600000 0.000000 0.000000
0.800000 0.000000 0.000000
0.000000 0.212500 0.000000
0.200000 0.212500 0.000000
0.400000 0.212500 0.000000
0.600000 0.212500 0.000000
0.800000 0.212500 0.000000
0.000000 0.425000 0.000000
0.200000 0.425000 0.000000
0.400000 0.425000 0.000000
0.600000 0.425000 0.000000
0.800000 0.425000 0.000000
0.000000 0.637500 0.000000
0.200000 0.637500 0.000000
0.400000 0.637500 0.000000
0.600000 0.637500 0.000000
0.800000 0.637500 0.000000
0.000000 0.850000 0.000000
0.200000 0.850000 0.000000
0.400000 0.850000 0.000000
0.600000 0.850000 0.000000
0.800000 0.850000 0.000000
0.000000 0.000000 0.275000
0.200000 0.000000 0.275000
0.400000 0.000000 0.275000
0.600000 0.000000 0.275000
0.800000 0.000000 0.275000
0.000000 0.212500 0.275000
0.200000 0.212500 0.275000
0.400000 0.212500 0.275000
0.600000 0.212500 0.275000
0.800000 0.212500 0.275000
0.000000 0.425000 0.275000
0.200000 0.425000 0.275000
0.400000 0.425000 0.275000
0.600000 0.425000 0.275000
0.800000 0.425000 0.275000
0.000000 0.637500 0.275000
0.200000 0.637500 0.275000
0.400000 0.637500 0.275000
0.600000 0.637500 0.275000
0.800000 0.637500 0.275000
0.000000 0.850000 0.275000
0.200000 0.850000 0.275000
0.400000 0.850000 0.275000
0.600000 0.850000 0.275000
0.800000 0.850000 0.275000
0.000000 0.000000 0.550000
0.200000 0.000000 0.550000
0.400000 0.000000 0.550000
0.600000 0.000000 0.550000
0.800000 0.000000 0.550000
0.000000 0.212500 0.550000
0.200000 0.212500 0.550000
0.400000 0.212500 0.550000
0.600000 0.212500 0.550000
0.800000 0.212500 0.550000
0.000000 0.425000 0.550000
0.200000 0.425000 0.550000
0.400000 0.425000 0.550000
0.600000 0.425000 0.550000
0.800000 0.425000 0.550000
0.000000 0.637500 0.550000
0.200000 0.637500 0.550000
0.400000 0.637500 0.550000
0.600000 0.637500 0.550000
0.800000 0.637500 0.550000
0.000000 0.850000 0.550000
0.200000 0.850000 0.550000
0.400000 0.850000 0.550000
0.600000 0.850000 0.550000
0.800000 0.850000 0.550000
0.000000 0.000000 0.825000
0.200000 0.000000 0.825000
0.400000 0.000000 0.825000
0.600000 0.000000 0.825000
0.800000 0.000000 0.825000
0.000000 0.212500 0.825000
0.200000 0.212500 0.825000
0.400000 0.212500 0.825000
0.600000 0.212500 0.825000
0.800000 0.212500 0.825000
0.000000 0.425000 0.825000
0.200000 0.425000 0.825000
0.400000 0.425000 0.825000
0.600000 0.425000 0.825000
0.800000 0.425000 0.825000
0.000000 0.637500 0.825000
0.200000 0.637500 0.825000
0.400000 0.637500 0.825000
0.600000 0.637500 0.825000
0.800000 0.637500 0.825000
0.000000 0.850000 0.825000
0.200000 0.850000 0.825000
0.400000 0.850000 0.825000
0.600000 0.850000 0.825000
0.800000 0.850000 0.825000
0.000000 0.000000 1.000000
0.200000 0.000000 1.000000
0.400000 0.000000 1.000000
0.600000 0.000000 1.000000
0.800000 0.000000 1.000000
0.000000 0.212500 1.000000
0.200000 0.212500 1.000000
0.400000 0.212500 1.000000
0.600000 0.212500 1.000000
0.800000 0.212500 1.000000
0.000000 0.425000 1.000000
0.200000 0.425000 1.000000
0.400000 0.425000 1.000000
0.600000 0.425000 1.000000
0.800000 0.425000 1.000000
0.000000 0.637500 1.000000
0.200000 0.637500 1.000000
0.400000 0.637500 1.000000
0.600000 0.637500 1.000000
0.800000 0.637500 1.000000
0.000000 0.850000 1.000000
0.200000 0.850000 1.000000
0.400000 0.850000 1.000000
0.600000 0.850000 1.000000
0.800000 0.850000 1.000000
