dashboard/static/social/luts/moody.cube
TITLE "moody"
LUT_3D_SIZE 33
0.000000 0.000000 0.000000
0.025000 0.000000 0.000000
0.050000 0.000000 0.000000
0.075000 0.000000 0.000000
0.100000 0.000000 0.000000
0.125000 0.000000 0.000000
0.150000 0.000000 0.000000
0.175000 0.000000 0.000000
0.200000 0.000000 0.000000
0.225000 0.000000 0.000000
0.250000 0.000000 0.000000
0.275000 0.000000 0.000000
0.300000 0.000000 0.000000
0.325000 0.000000 0.000000
0.350000 0.000000 0.000000
0.375000 0.000000 0.000000
0.400000 0.000000 0.000000
0.425000 0.000000 0.000000
0.450000 0.000000 0.000000
0.475000 0.000000 0.000000
0.500000 0.000000 0.000000
0.525000 0.000000 0.000000
0.550000 0.000000 0.000000
0.575000 0.000000 0.000000
0.600000 0.000000 0.000000
0.625000 0.000000 0.000000
0.650000 0.000000 0.000000
0.675000 0.000000 0.000000
0.700000 0.000000 0.000000
0.725000 0.000000 0.000000
0.750000 0.000000 0.000000
0.775000 0.000000 0.000000
0.800000 0.000000 0.000000
0.000000 0.026562 0.000000
0.025000 0.026562 0.000000
0.050000 0.026562 0.000000
0.075000 0.026562 0.000000
0.100000 0.026562 0.000000
0.125000 0.026562 0.000000
0.150000 0.026562 0.000000
0.175000 0.026562 0.000000
0.200000 0.026562 0.000000
0.225000 0.026562 0.000000
0.250000 0.026562 0.000000
0.275000 0.026562 0.000000
0.300000 0.026562 0.000000
0.325000 0.026562 0.000000
0.350000 0.026562 0.000000
0.375000 0.026562 0.000000
0.400000 0.026562 0.000000
0.425000 0.026562 0.000000
0.450000 0.026562 0.000000
0.475000 0.026562 0.000000
0.500000 0.026562 0.000000
0.525000 0.026562 0.000000
0.550000 0.026562 0.000000
0.575000 0.026562 0.000000
0.600000 0.026562 0.000000
0.625000 0.026562 0.000000
0.650000 0.026562 0.000000
0.675000 0.026562 0.000000
0.700000 0.026562 0.000000
0.725000 0.026562 0.000000
0.750000 0.026562 0.000000
0.775000 0.026562 0.000000
0.800000 0.026562 0.000000
0.000000 0.053125 0.000000
0.025000 0.053125 0.000000
0.050000 0.053125 0.000000
0.075000 0.053125 0.000000
0.100000 0.053125 0.000000
0.125000 0.053125 0.000000
0.150000 0.053125 0.000000
0.175000 0.053125 0.000000
0.200000 0.053125 0.000000
0.225000 0.053125 0.000000
0.250000 0.053125 0.000000
0.275000 0.053125 0.000000
0.300000 0.053125 0.000000
0.325000 0.053125 0.000000
0.350000 0.053125 0.000000
0.375000 0.053125 0.000000
0.400000 0.053125 0.000000
0.425000 0.053125 0.000000
0.450000 0.053125 0.000000
0.475000 0.053125 0.000000
0.500000 0.053125 0.000000
0.525000 0.053125 0.000000
0.550000 0.053125 0.000000
0.575000 0.053125 0.000000
0.600000 0.053125 0.000000
0.625000 0.053125 0.000000
0.650000 0.053125 0.000000
0.675000 0.053125 0.000000
0.700000 0.053125 0.000000
0.725000 0.053125 0.000000
0.750000 0.053125 0.000000
0.775000 0.053125 0.000000
0.800000 0.053125 0.000000
0.000000 0.079687 0.000000
0.025000 0.079687 0.000000
0.050000 0.079687 0.000000
0.075000 0.079687 0.000000
0.100000 0.079687 0.000000
0.125000 0.079687 0.000000
0.150000 0.079687 0.000000
0.175000 0.079687 0.000000
0.200000 0.079687 0.000000
0.225000 0.079687 0.000000
0.250000 0.079687 0.000000
0.275000 0.079687 0.000000
0.300000 0.079687 0.000000
0.325000 0.079687 0.000000
0.350000 0.079687 0.000000
0.375000 0.079687 0.000000
0.400000 0.079687 0.000000
0.425000 0.079687 0.000000
0.450000 0.079687 0.000000
0.475000 0.079687 0.000000
0.500000 0.079687 0.000000
0.525000 0.079687 0.000000
0.550000 0.079687 0.000000
0.575000 0.079687 0.000000
0.600000 0.079687 0.000000
0.625000 0.079687 0.000000
0.650000 0.079687 0.000000
0.675000 0.079687 0.000000
0.700000 0.079687 0.000000
0.725000 0.079687 0.000000
0.750000 0.079687 0.000000
0.775000 0.079687 0.000000
0.800000 0.079687 0.000000
0.000000 0.106250 0.000000
0.025000 0.106250 0.000000
0.050000 0.106250 0.000000
0.075000 0.106250 0.000000
0.100000 0.106250 0.000000
0.125000 0.106250 0.000000
0.150000 0.106250 0.000000
0.175000 0.106250 0.000000
0.200000 0.106250 0.000000
0.225000 0.106250 0.000000
0.250000 0.106250 0.000000
0.275000 0.106250 0.000000
0.300000 0.106250 0.000000
0.325000 0.106250 0.000000
0.350000 0.106250 0.000000
0.375000 0.106250 0.000000
0.400000 0.106250 0.000000
0.425000 0.106250 0.000000
0.450000 0.106250 0.000000
0.475000 0.106250 0.000000
0.500000 0.106250 0.000000
0.525000 0.106250 0.000000
0.550000 0.106250 0.000000
0.575000 0.106250 0.000000
0.600000 0.106250 0.000000
0.625000 0.106250 0.000000
0.650000 0.106250 0.000000
0.675000 0.106250 0.000000
0.700000 0.106250 0.000000
0.725000 0.106250 0.000000
0.750000 0.106250 0.000000
0.775000 0.106250 0.000000
0.800000 0.106250 0.000000
0.000000 0.132812 0.000000
0.025000 0.132812 0.000000
0.050000 0.132812 0.000000
0.075000 0.132812 0.000000
0.100000 0.132812 0.000000
0.125000 0.132812 0.000000
0.150000 0.132812 0.000000
0.175000 0.132812 0.000000
0.200000 0.132812 0.000000
0.225000 0.132812 0.000000
0.250000 0.132812 0.000000
0.275000 0.132812 0.000000
0.300000 0.132812 0.000000
0.325000 0.132812 0.000000
0.350000 0.132812 0.000000
0.375000 0.132812 0.000000
0.400000 0.132812 0.000000
0.425000 0.132812 0.000000
0.450000 0.132812 0.000000
0.475000 0.132812 0.000000
0.500000 0.132812 0.000000
0.525000 0.132812 0.000000
0.550000 0.132812 0.000000
0.575000 0.132812 0.000000
0.600000 0.132812 0.000000
0.625000 0.132812 0.000000
0.650000 0.132812 0.000000
0.675000 0.132812 0.000000
0.700000 0.132812 0.000000
0.725000 0.132812 0.000000
0.750000 0.132812 0.000000
0.775000 0.132812 0.000000
0.800000 0.132812 0.000000
0.000000 0.159375 0.000000
0.025000 0.159375 0.000000
0.050000 0.159375 0.000000
0.075000 0.159375 0.000000
0.100000 0.159375 0.000000
0.125000 0.159375 0.000000
0.150000 0.159375 0.000000
0.175000 0.159375 0.000000
0.200000 0.159375 0.000000
0.225000 0.159375 0.000000
0.250000 0.159375 0.000000
0.275000 0.159375 0.000000
0.300000 0.159375 0.000000
0.325000 0.159375 0.000000
0.350000 0.159375 0.000000
0.375000 0.159375 0.000000
0.400000 0.159375 0.000000
0.425000 0.159375 0.000000
0.450000 0.159375 0.000000
0.475000 0.159375 0.000000
0.500000 0.159375 0.000000
0.525000 0.159375 0.000000
0.550000 0.159375 0.000000
0.575000 0.159375 0.000000
0.600000 0.159375 0.000000
0.625000 0.159375 0.000000
0.650000 0.159375 0.000000
0.675000 0.159375 0.000000
0.700000 0.159375 0.000000
0.725000 0.159375 0.000000
0.750000 0.159375 0.000000
0.775000 0.159375 0.000000
0.800000 0.159375 0.000000
0.000000 0.185938 0.000000
0.025000 0.185938 0.000000
0.050000 0.185938 0.000000
0.075000 0.185938 0.000000
0.100000 0.185938 0.000000
0.125000 0.185938 0.000000
0.150000 0.185938 0.000000
0.175000 0.185938 0.000000
0.200000 0.185938 0.000000
0.225000 0.185938 0.000000
0.250000 0.185938 0.000000
0.275000 0.185938 0.000000
0.300000 0.185938 0.000000
0.325000 0.185938 0.000000
0.350000 0.185938 0.000000
0.375000 0.185938 0.000000
0.400000 0.185938 0.000000
0.425000 0.185938 0.000000
0.450000 0.185938 0.000000
0.475000 0.185938 0.000000
0.500000 0.185938 0.000000
0.525000 0.185938 0.000000
0.550000 0.185938 0.000000
0.575000 0.185938 0.000000
0.600000 0.185938 0.000000
0.625000 0.185938 0.000000
0.650000 0.185938 0.000000
0.675000 0.185938 0.000000
0.700000 0.185938 0.000000
0.725000 0.185938 0.000000
0.750000 0.185938 0.000000
0.775000 0.185938 0.000000
0.800000 0.185938 0.000000
0.000000 0.212500 0.000000
0.025000 0.212500 0.000000
0.050000 0.212500 0.000000
0.075000 0.212500 0.000000
0.100000 0.212500 0.000000
0.125000 0.212500 0.000000
0.150000 0.212500 0.000000
0.175000 0.212500 0.000000
0.200000 0.212500 0.000000
0.225000 0.212500 0.000000
0.250000 0.212500 0.000000
0.275000 0.212500 0.000000
0.300000 0.212500 0.000000
0.325000 0.212500 0.000000
0.350000 0.212500 0.000000
0.375000 0.212500 0.000000
0.400000 0.212500 0.000000
0.425000 0.212500 0.000000
0.450000 0.212500 0.000000
0.475000 0.212500 0.000000
0.500000 0.212500 0.000000
0.525000 0.212500 0.000000
0.550000 0.212500 0.000000
0.575000 0.212500 0.000000
0.600000 0.212500 0.000000
0.625000 0.212500 0.000000
0.650000 0.212500 0.000000
0.675000 0.212500 0.000000
0.700000 0.212500 0.000000
0.725000 0.212500 0.000000
0.750000 0.212500 0.000000
0.775000 0.212500 0.000000
0.800000 0.212500 0.000000
0.000000 0.239062 0.000000
0.025000 0.239062 0.000000
0.050000 0.239062 0.000000
0.075000 0.239062 0.000000
0.100000 0.239062 0.000000
0.125000 0.239062 0.000000
0.150000 0.239062 0.000000
0.175000 0.239062 0.000000
0.200000 0.239062 0.000000
0.225000 0.239062 0.000000
0.250000 0.239062 0.000000
0.275000 0.239062 0.000000
0.300000 0.239062 0.000000
0.325000 0.239062 0.000000
0.350000 0.239062 0.000000
0.375000 0.239062 0.000000
0.400000 0.239062 0.000000
0.425000 0.239062 0.000000
0.450000 0.239062 0.000000
0.475000 0.239062 0.000000
0.500000 0.239062 0.000000
0.525000 0.239062 0.000000
0.550000 0.239062 0.000000
0.575000 0.239062 0.000000
0.600000 0.239062 0.000000
0.625000 0.239062 0.000000
0.650000 0.239062 0.000000
0.675000 0.239062 0.000000
0.700000 0.239062 0.000000
0.725000 0.239062 0.000000
0.750000 0.239062 0.000000
0.775000 0.239062 0.000000
0.800000 0.239062 0.000000
0.000000 0.265625 0.000000
0.025000 0.265625 0.000000
0.050000 0.265625 0.000000
0.075000 0.265625 0.000000
0.100000 0.265625 0.000000
0.125000 0.265625 0.000000
0.150000 0.265625 0.000000
0.175000 0.265625 0.000000
0.200000 0.265625 0.000000
0.225000 0.265625 0.000000
0.250000 0.265625 0.000000
0.275000 0.265625 0.000000
0.300000 0.265625 0.000000
0.325000 0.265625 0.000000
0.350000 0.265625 0.000000
0.375000 0.265625 0.000000
0.400000 0.265625 0.000000
0.425000 0.265625 0.000000
0.450000 0.265625 0.000000
0.475000 0.265625 0.000000
0.500000 0.265625 0.000000
0.525000 0.265625 0.000000
0.550000 0.265625 0.000000
0.575000 0.265625 0.000000
0.600000 0.265625 0.000000
0.625000 0.265625 0.000000
0.650000 0.265625 0.000000
0.675000 0.265625 0.000000
0.700000 0.265625 0.000000
0.725000 0.265625 0.000000
0.750000 0.265625 0.000000
0.775000 0.265625 0.000000
0.800000 0.265625 0.000000
0.000000 0.292187 0.000000
0.025000 0.292187 0.000000
0.050000 0.292187 0.000000
0.075000 0.292187 0.000000
0.100000 0.292187 0.000000
0.125000 0.292187 0.000000
0.150000 0.292187 0.000000
0.175000 0.292187 0.000000
0.200000 0.292187 0.000000
0.225000 0.292187 0.000000
0.250000 0.292187 0.000000
0.275000 0.292187 0.000000
0.300000 0.292187 0.000000
0.325000 0.292187 0.000000
0.350000 0.292187 0.000000
0.375000 0.292187 0.000000
0.400000 0.292187 0.000000
0.425000 0.292187 0.000000
0.450000 0.292187 0.000000
0.475000 0.292187 0.000000
0.500000 0.292187 0.000000
0.525000 0.292187 0.000000
0.550000 0.292187 0.000000
0.575000 0.292187 0.000000
0.600000 0.292187 0.000000
0.625000 0.292187 0.000000
0.650000 0.292187 0.000000
0.675000 0.292187 0.000000
0.700000 0.292187 0.000000
0.725000 0.292187 0.000000
0.750000 0.292187 0.000000
0.775000 0.292187 0.000000
0.800000 0.292187 0.000000
0.000000 0.318750 0.000000
0.025000 0.318750 0.000000
0.050000 0.318750 0.000000
0.075000 0.318750 0.000000
0.100000 0.318750 0.000000
0.125000 0.318750 0.000000
0.150000 0.318750 0.000000
0.175000 0.318750 0.000000
0.200000 0.318750 0.000000
0.225000 0.318750 0.000000
0.250000 0.318750 0.000000
0.275000 0.318750 0.000000
0.300000 0.318750 0.000000
0.325000 0.318750 0.000000
0.350000 0.318750 0.000000
0.375000 0.318750 0.000000
0.400000 0.318750 0.000000
0.425000 0.318750 0.000000
0.450000 0.318750 0.000000
0.475000 0.318750 0.000000
0.500000 0.318750 0.000000
0.525000 0.318750 0.000000
0.550000 0.318750 0.000000
0.575000 0.318750 0.000000
0.600000 0.318750 0.000000
0.625000 0.318750 0.000000
0.650000 0.318750 0.000000
0.675000 0.318750 0.000000
0.700000 0.318750 0.000000
0.725000 0.318750 0.000000
0.750000 0.318750 0.000000
0.775000 0.318750 0.000000
0.800000 0.318750 0.000000
0.000000 0.345312 0.000000
0.025000 0.345312 0.000000
0.050000 0.345312 0.000000
0.075000 0.345312 0.000000
0.100000 0.345312 0.000000
0.125000 0.345312 0.000000
0.150000 0.345312 0.000000
0.175000 0.345312 0.000000
0.200000 0.345312 0.000000
0.225000 0.345312 0.000000
0.250000 0.345312 0.000000
0.275000 0.345312 0.000000
0.300000 0.345312 0.000000
0.325000 0.345312 0.000000
0.350000 0.345312 0.000000
0.375000 0.345312 0.000000
0.400000 0.345312 0.000000
0.425000 0.345312 0.000000
0.450000 0.345312 0.000000
0.475000 0.345312 0.000000
0.500000 0.345312 0.000000
0.525000 0.345312 0.000000
0.550000 0.345312 0.000000
0.575000 0.345312 0.000000
0.600000 0.345312 0.000000
0.625000 0.345312 0.000000
0.650000 0.345312 0.000000
0.675000 0.345312 0.000000
0.700000 0.345312 0.000000
0.725000 0.345312 0.000000
0.750000 0.345312 0.000000
0.775000 0.345312 0.000000
0.800000 0.345312 0.000000
0.000000 0.371875 0.000000
0.025000 0.371875 0.000000
0.050000 0.371875 0.000000
0.075000 0.371875 0.000000
0.100000 0.371875 0.000000
0.125000 0.371875 0.000000
0.150000 0.371875 0.000000
0.175000 0.371875 0.000000
0.200000 0.371875 0.000000
0.225000 0.371875 0.000000
0.250000 0.371875 0.000000
0.275000 0.371875 0.000000
0.300000 0.371875 0.000000
0.325000 0.371875 0.000000
0.350000 0.371875 0.000000
0.375000 0.371875 0.000000
0.400000 0.371875 0.000000
0.425000 0.371875 0.000000
0.450000 0.371875 0.000000
0.475000 0.371875 0.000000
0.500000 0.371875 0.000000
0.525000 0.371875 0.000000
0.550000 0.371875 0.000000
0.575000 0.371875 0.000000
0.600000 0.371875 0.000000
0.625000 0.371875 0.000000
0.650000 0.371875 0.000000
0.675000 0.371875 0.000000
0.700000 0.371875 0.000000
0.725000 0.371875 0.000000
0.750000 0.371875 0.000000
0.775000 0.371875 0.000000
0.800000 0.371875 0.000000
0.000000 0.398438 0.000000
0.025000 0.398438 0.000000
0.050000 0.398438 0.000000
0.075000 0.398438 0.000000
0.100000 0.398438 0.000000
0.125000 0.398438 0.000000
0.150000 0.398438 0.000000
0.175000 0.398438 0.000000
0.200000 0.398438 0.000000
0.225000 0.398438 0.000000
0.250000 0.398438 0.000000
0.275000 0.398438 0.000000
0.300000 0.398438 0.000000
0.325000 0.398438 0.000000
0.350000 0.398438 0.000000
0.375000 0.398438 0.000000
0.400000 0.398438 0.000000
0.425000 0.398438 0.000000
0.450000 0.398438 0.000000
0.475000 0.398438 0.000000
0.500000 0.398438 0.000000
0.525000 0.398438 0.000000
0.550000 0.398438 0.000000
0.575000 0.398438 0.000000
0.600000 0.398438 0.000000
0.625000 0.398438 0.000000
0.650000 0.398438 0.000000
0.675000 0.398438 0.000000
0.700000 0.398438 0.000000
0.725000 0.398438 0.000000
0.750000 0.398438 0.000000
0.775000 0.398438 0.000000
0.800000 0.398438 0.000000
0.000000 0.425000 0.000000
0.025000 0.425000 0.000000
0.050000 0.425000 0.000000
0.075000 0.425000 0.000000
0.100000 0.425000 0.000000
0.125000 0.425000 0.000000
0.150000 0.425000 0.000000
0.175000 0.425000 0.000000
0.200000 0.425000 0.000000
0.225000 0.425000 0.000000
0.250000 0.425000 0.000000
0.275000 0.425000 0.000000
0.300000 0.425000 0.000000
0.325000 0.425000 0.000000
0.350000 0.425000 0.000000
0.375000 0.425000 0.000000
0.400000 0.425000 0.000000
0.425000 0.425000 0.000000
0.450000 0.425000 0.000000
0.475000 0.425000 0.000000
0.500000 0.425000 0.000000
0.525000 0.425000 0.000000
0.550000 0.425000 0.000000
0.575000 0.425000 0.000000
0.600000 0.425000 0.000000
0.625000 0.425000 0.000000
0.650000 0.425000 0.000000
0.675000 0.425000 0.000000
0.700000 0.425000 0.000000
0.725000 0.425000 0.000000
0.750000 0.425000 0.000000
0.775000 0.425000 0.000000
0.800000 0.425000 0.000000
0.000000 0.451562 0.000000
0.025000 0.451562 0.000000
0.050000 0.451562 0.000000
0.075000 0.451562 0.000000
0.100000 0.451562 0.000000
0.125000 0.451562 0.000000
0.150000 0.451562 0.000000
0.175000 0.451562 0.000000
0.200000 0.451562 0.000000
0.225000 0.451562 0.000000
0.250000 0.451562 0.000000
0.275000 0.451562 0.000000
0.300000 0.451562 0.000000
0.325000 0.451562 0.000000
0.350000 0.451562 0.000000
0.375000 0.451562 0.000000
0.400000 0.451562 0.000000
0.425000 0.451562 0.000000
0.450000 0.451562 0.000000
0.475000 0.451562 0.000000
0.500000 0.451562 0.000000
0.525000 0.451562 0.000000
0.550000 0.451562 0.000000
0.575000 0.451562 0.000000
0.600000 0.451562 0.000000
0.625000 0.451562 0.000000
0.650000 0.451562 0.000000
0.675000 0.451562 0.000000
0.700000 0.451562 0.000000
0.725000 0.451562 0.000000
0.750000 0.451562 0.000000
0.775000 0.451562 0.000000
0.800000 0.451562 0.000000
0.000000 0.478125 0.000000
0.025000 0.478125 0.000000
0.050000 0.478125 0.000000
0.075000 0.478125 0.000000
0.100000 0.478125 0.000000
0.125000 0.478125 0.000000
0.150000 0.478125 0.000000
0.175000 0.478125 0.000000
0.200000 0.478125 0.000000
0.225000 0.478125 0.000000
0.250000 0.478125 0.000000
0.275000 0.478125 0.000000
0.300000 0.478125 0.000000
0.325000 0.478125 0.000000
0.350000 0.478125 0.000000
0.375000 0.478125 0.000000
0.400000 0.478125 0.000000
0.425000 0.478125 0.000000
0.450000 0.478125 0.000000
0.475000 0.478125 0.000000
0.500000 0.478125 0.000000
0.525000 0.478125 0.000000
0.550000 0.478125 0.000000
0.575000 0.478125 0.000000
0.600000 0.478125 0.000000
0.625000 0.478125 0.000000
0.650000 0.478125 0.000000
0.675000 0.478125 0.000000
0.700000 0.478125 0.000000
0.725000 0.478125 0.000000
0.750000 0.478125 0.000000
0.775000 0.478125 0.000000
0.800000 0.478125 0.000000
0.000000 0.504687 0.000000
0.025000 0.504687 0.000000
0.050000 0.504687 0.000000
0.075000 0.504687 0.000000
0.100000 0.504687 0.000000
0.125000 0.504687 0.000000
0.150000 0.504687 0.000000
0.175000 0.504687 0.000000
0.200000 0.504687 0.000000
0.225000 0.504687 0.000000
0.250000 0.504687 0.000000
0.275000 0.504687 0.000000
0.300000 0.504687 0.000000
0.325000 0.504687 0.000000
0.350000 0.504687 0.000000
0.375000 0.504687 0.000000
0.400000 0.504687 0.000000
0.425000 0.504687 0.000000
0.450000 0.504687 0.000000
0.475000 0.504687 0.000000
0.500000 0.504687 0.000000
0.525000 0.504687 0.000000
0.550000 0.504687 0.000000
0.575000 0.504687 0.000000
0.600000 0.504687 0.000000
0.625000 0.504687 0.000000
0.650000 0.504687 0.000000
0.675000 0.504687 0.000000
0.700000 0.504687 0.000000
0.725000 0.504687 0.000000
0.750000 0.504687 0.000000
0.775000 0.504687 0.000000
0.800000 0.504687 0.000000
0.000000 0.531250 0.000000
0.025000 0.531250 0.000000
0.050000 0.531250 0.000000
0.075000 0.531250 0.000000
0.100000 0.531250 0.000000
0.125000 0.531250 0.000000
0.150000 0.531250 0.000000
0.175000 0.531250 0.000000
0.200000 0.531250 0.000000
0.225000 0.531250 0.000000
0.250000 0.531250 0.000000
0.275000 0.531250 0.000000
0.300000 0.531250 0.000000
0.325000 0.531250 0.000000
0.350000 0.531250 0.000000
0.375000 0.531250 0.000000
0.400000 0.531250 0.000000
0.425000 0.531250 0.000000
0.450000 0.531250 0.000000
0.475000 0.531250 0.000000
0.500000 0.531250 0.000000
0.525000 0.531250 0.000000
0.550000 0.531250 0.000000
0.575000 0.531250 0.000000
0.600000 0.531250 0.000000
0.625000 0.531250 0.000000
0.650000 0.531250 0.000000
0.675000 0.531250 0.000000
0.700000 0.531250 0.000000
0.725000 0.531250 0.000000
0.750000 0.531250 0.000000
0.775000 0.531250 0.000000
0.800000 0.531250 0.000000
0.000000 0.557812 0.000000
0.025000 0.557812 0.000000
0.050000 0.557812 0.000000
0.075000 0.557812 0.000000
0.100000 0.557812 0.000000
0.125000 0.557812 0.000000
0.150000 0.557812 0.000000
0.175000 0.557812 0.000000
0.200000 0.557812 0.000000
0.225000 0.557812 0.000000
0.250000 0.557812 0.000000
0.275000 0.557812 0.000000
0.300000 0.557812 0.000000
0.325000 0.557812 0.000000
0.350000 0.557812 0.000000
0.375000 0.557812 0.000000
0.400000 0.557812 0.000000
0.425000 0.557812 0.000000
0.450000 0.557812 0.000000
0.475000 0.557812 0.000000
0.500000 0.557812 0.000000
0.525000 0.557812 0.000000
0.550000 0.557812 0.000000
0.575000 0.557812 0.000000
0.600000 0.557812 0.000000
0.625000 0.557812 0.000000
0.650000 0.557812 0.000000
0.675000 0.557812 0.000000
0.700000 0.557812 0.000000
0.725000 0.557812 0.000000
0.750000 0.557812 0.000000
0.775000 0.557812 0.000000
0.800000 0.557812 0.000000
0.000000 0.584375 0.000000
0.025000 0.584375 0.000000
0.050000 0.584375 0.000000
0.075000 0.584375 0.000000
0.100000 0.584375 0.000000
0.125000 0.584375 0.000000
0.150000 0.584375 0.000000
0.175000 0.584375 0.000000
0.200000 0.584375 0.000000
0.225000 0.584375 0.000000
0.250000 0.584375 0.000000
0.275000 0.584375 0.000000
0.300000 0.584375 0.000000
0.325000 0.584375 0.000000
0.350000 0.584375 0.000000
0.375000 0.584375 0.000000
0.400000 0.584375 0.000000
0.425000 0.584375 0.000000
0.450000 0.584375 0.000000
0.475000 0.584375 0.000000
0.500000 0.584375 0.000000
0.525000 0.584375 0.000000
0.550000 0.584375 0.000000
0.575000 0.584375 0.000000
0.600000 0.584375 0.000000
0.625000 0.584375 0.000000
0.650000 0.584375 0.000000
0.675000 0.584375 0.000000
0.700000 0.584375 0.000000
0.725000 0.584375 0.000000
0.750000 0.584375 0.000000
0.775000 0.584375 0.000000
0.800000 0.584375 0.000000
0.000000 0.610938 0.000000
0.025000 0.610938 0.000000
0.050000 0.610938 0.000000
0.075000 0.610938 0.000000
0.100000 0.610938 0.000000
0.125000 0.610938 0.000000
0.150000 0.610938 0.000000
0.175000 0.610938 0.000000
0.200000 0.610938 0.000000
0.225000 0.610938 0.000000
0.250000 0.610938 0.000000
0.275000 0.610938 0.000000
0.300000 0.610938 0.000000
0.325000 0.610938 0.000000
0.350000 0.610938 0.000000
0.375000 0.610938 0.000000
0.400000 0.610938 0.000000
0.425000 0.610938 0.000000
0.450000 0.610938 0.000000
0.475000 0.610938 0.000000
0.500000 0.610938 0.000000
0.525000 0.610938 0.000000
0.550000 0.610938 0.000000
0.575000 0.610938 0.000000
0.600000 0.610938 0.000000
0.625000 0.610938 0.000000
0.650000 0.610938 0.000000
0.675000 0.610938 0.000000
0.700000 0.610938 0.000000
0.725000 0.610938 0.000000
0.750000 0.610938 0.000000
0.775000 0.610938 0.000000
0.800000 0.610938 0.000000
0.000000 0.637500 0.000000
0.025000 0.637500 0.000000
0.050000 0.637500 0.000000
0.075000 0.637500 0.000000
0.100000 0.637500 0.000000
0.125000 0.637500 0.000000
0.150000 0.637500 0.000000
0.175000 0.637500 0.000000
0.200000 0.637500 0.000000
0.225000 0.637500 0.000000
0.250000 0.637500 0.000000
0.275000 0.637500 0.000000
0.300000 0.637500 0.000000
0.325000 0.637500 0.000000
0.350000 0.637500 0.000000
0.375000 0.637500 0.000000
0.400000 0.637500 0.000000
0.425000 0.637500 0.000000
0.450000 0.637500 0.000000
0.475000 0.637500 0.000000
0.500000 0.637500 0.000000
0.525000 0.637500 0.000000
0.550000 0.637500 0.000000
0.575000 0.637500 0.000000
0.600000 0.637500 0.000000
0.625000 0.637500 0.000000
0.650000 0.637500 0.000000
0.675000 0.637500 0.000000
0.700000 0.637500 0.000000
0.725000 0.637500 0.000000
0.750000 0.637500 0.000000
0.775000 0.637500 0.000000
0.800000 0.637500 0.000000
0.000000 0.664062 0.000000
0.025000 0.664062 0.000000
0.050000 0.664062 0.000000
0.075000 0.664062 0.000000
0.100000 0.664062 0.000000
0.125000 0.664062 0.000000
0.150000 0.664062 0.000000
0.175000 0.664062 0.000000
0.200000 0.664062 0.000000
0.225000 0.664062 0.000000
0.250000 0.664062 0.000000
0.275000 0.664062 0.000000
0.300000 0.664062 0.000000
0.325000 0.664062 0.000000
0.350000 0.664062 0.000000
0.375000 0.664062 0.000000
0.400000 0.664062 0.000000
0.425000 0.664062 0.000000
0.450000 0.664062 0.000000
0.475000 0.664062 0.000000
0.500000 0.664062 0.000000
0.525000 0.664062 0.000000
0.550000 0.664062 0.000000
0.575000 0.664062 0.000000
0.600000 0.664062 0.000000
0.625000 0.664062 0.000000
0.650000 0.664062 0.000000
0.675000 0.664062 0.000000
0.700000 0.664062 0.000000
0.725000 0.664062 0.000000
0.750000 0.664062 0.000000
0.775000 0.664062 0.000000
0.800000 0.664062 0.000000
0.000000 0.690625 0.000000
0.025000 0.690625 0.000000
0.050000 0.690625 0.000000
0.075000 0.690625 0.000000
0.100000 0.690625 0.000000
0.125000 0.690625 0.000000
0.150000 0.690625 0.000000
0.175000 0.690625 0.000000
0.200000 0.690625 0.000000
0.225000 0.690625 0.000000
0.250000 0.690625 0.000000
0.275000 0.690625 0.000000
0.300000 0.690625 0.000000
0.325000 0.690625 0.000000
0.350000 0.690625 0.000000
0.375000 0.690625 0.000000
0.400000 0.690625 0.000000
0.425000 0.690625 0.000000
0.450000 0.690625 0.000000
0.475000 0.690625 0.000000
0.500000 0.690625 0.000000
0.525000 0.690625 0.000000
0.550000 0.690625 0.000000
0.575000 0.690625 0.000000
0.600000 0.690625 0.000000
0.625000 0.690625 0.000000
0.650000 0.690625 0.000000
0.675000 0.690625 0.000000
0.700000 0.690625 0.000000
