dashboard/static/social/luts/moody.cube
TITLE "moody"
LUT_3D_SIZE 9
0.000000 0.000000 0.000000
0.100000 0.000000 0.000000
0.200000 0.000000 0.000000
0.300000 0.000000 0.000000
0.400000 0.000000 0.000000
0.500000 0.000000 0.000000
0.600000 0.000000 0.000000
0.700000 0.000000 0.000000
0.800000 0.000000 0.000000
0.000000 0.106250 0.000000
0.100000 0.106250 0.000000
0.200000 0.106250 0.000000
0.300000 0.106250 0.000000
0.400000 0.106250 0.000000
0.500000 0.106250 0.000000
0.600000 0.106250 0.000000
0.700000 0.106250 0.000000
0.800000 0.106250 0.000000
0.000000 0.212500 0.000000
0.100000 0.212500 0.000000
0.200000 0.212500 0.000000
0.300000 0.212500 0.000000
0.400000 0.212500 0.000000
0.500000 0.212500 0.000000
0.600000 0.212500 0.000000
0.700000 0.212500 0.000000
0.800000 0.212500 0.000000
0.000000 0.318750 0.000000
0.100000 0.318750 0.000000
0.200000 0.318750 0.000000
0.300000 0.318750 0.000000
0.400000 0.318750 0.000000
0.500000 0.318750 0.000000
0.600000 0.318750 0.000000
0.700000 0.318750 0.000000
0.800000 0.318750 0.000000
0.000000 0.425000 0.000000
0.100000 0.425000 0.000000
0.200000 0.425000 0.000000
0.300000 0.425000 0.000000
0.400000 0.425000 0.000000
0.500000 0.425000 0.000000
0.600000 0.425000 0.000000
0.700000 0.425000 0.000000
0.800000 0.425000 0.000000
0.000000 0.531250 0.000000
0.100000 0.531250 0.000000
0.200000 0.531250 0.000000
0.300000 0.531250 0.000000
0.400000 0.531250 0.000000
0.500000 0.531250 0.000000
0.600000 0.531250 0.000000
0.700000 0.531250 0.000000
0.800000 0.531250 0.000000
0.000000 0.637500 0.000000
0.100000 0.637500 0.000000
0.200000 0.637500 0.000000
0.300000 0.637500 0.000000
0.400000 0.637500 0.000000
0.500000 0.637500 0.000000
0.600000 0.637500 0.000000
0.700000 0.637500 0.000000
0.800000 0.637500 0.000000
0.000000 0.743750 0.000000
0.100000 0.743750 0.000000
0.200000 0.743750 0.000000
0.300000 0.743750 0.000000
0.400000 0.743750 0.000000
0.500000 0.743750 0.000000
0.600000 0.743750 0.000000
0.700000 0.743750 0.000000
0.800000 0.743750 0.000000
0.000000 0.850000 0.000000
0.100000 0.850000 0.000000
0.200000 0.850000 0.000000
0.300000 0.850000 0.000000
0.400000 0.850000 0.000000
0.500000 0.850000 0.000000
0.600000 0.850000 0.000000
0.700000 0.850000 0.000000
0.800000 0.850000 0.000000
0.000000 0.000000 0.137500
0.100000 0.000000 0.137500
0.200000 0.000000 0.137500
0.300000 0.000000 0.137500
0.400000 0.000000 0.137500
0.500000 0.000000 0.137500
0.600000 0.000000 0.137500
0.700000 0.000000 0.137500
0.800000 0.000000 0.137500
0.000000 0.106250 0.137500
0.100000 0.106250 0.137500
0.200000 0.106250 0.137500
0.300000 0.106250 0.137500
0.400000 0.106250 0.137500
0.500000 0.106250 0.137500
0.600000 0.106250 0.137500
0.700000 0.106250 0.137500
0.800000 0.106250 0.137500
0.000000 0.212500 0.137500
0.100000 0.212500 0.137500
0.200000 0.212500 0.137500
0.300000 0.212500 0.137500
0.400000 0.212500 0.137500
0.500000 0.212500 0.137500
0.600000 0.212500 0.137500
0.700000 0.212500 0.137500
0.800000 0.212500 0.137500
0.000000 0.318750 0.137500
0.100000 0.318750 0.137500
0.200000 0.318750 0.137500
0.300000 0.318750 0.137500
0.400000 0.318750 0.137500
0.500000 0.318750 0.137500
0.600000 0.318750 0.137500
0.700000 0.318750 0.137500
0.800000 0.318750 0.137500
0.000000 0.425000 0.137500
0.100000 0.425000 0.137500
0.200000 0.425000 0.137500
0.300000 0.425000 0.137500
0.400000 0.425000 0.137500
0.500000 0.425000 0.137500
0.600000 0.425000 0.137500
0.700000 0.425000 0.137500
0.800000 0.425000 0.137500
0.000000 0.531250 0.137500
0.100000 0.531250 0.137500
0.200000 0.531250 0.137500
0.300000 0.531250 0.137500
0.400000 0.531250 0.137500
0.500000 0.531250 0.137500
0.600000 0.531250 0.137500
0.700000 0.531250 0.137500
0.800000 0.531250 0.137500
0.000000 0.637500 0.137500
0.100000 0.637500 0.137500
0.200000 0.637500 0.137500
0.300000 0.637500 0.137500
0.400000 0.637500 0.137500
0.500000 0.637500 0.137500
0.600000 0.637500 0.137500
0.700000 0.637500 0.137500
0.800000 0.637500 0.137500
0.000000 0.743750 0.137500
0.100000 0.743750 0.137500
0.200000 0.743750 0.137500
0.300000 0.743750 0.137500
0.400000 0.743750 0.137500
0.500000 0.743750 0.137500
0.600000 0.743750 0.137500
0.700000 0.743750 0.137500
0.800000 0.743750 0.137500
0.000000 0.850000 0.137500
0.100000 0.850000 0.137500
0.200000 0.850000 0.137500
0.300000 0.850000 0.137500
0.400000 0.850000 0.137500
0.500000 0.850000 0.137500
0.600000 0.850000 0.137500
0.700000 0.850000 0.137500
0.800000 0.850000 0.137500
0.000000 0.000000 0.275000
0.100000 0.000000 0.275000
0.200000 0.000000 0.275000
0.300000 0.000000 0.275000
0.400000 0.000000 0.275000
0.500000 0.000000 0.275000
0.600000 0.000000 0.275000
0.700000 0.000000 0.275000
0.800000 0.000000 0.275000
0.000000 0.106250 0.275000
0.100000 0.106250 0.275000
0.200000 0.106250 0.275000
0.300000 0.106250 0.275000
0.400000 0.106250 0.275000
0.500000 0.106250 0.275000
0.600000 0.106250 0.275000
0.700000 0.106250 0.275000
0.800000 0.106250 0.275000
0.000000 0.212500 0.275000
0.100000 0.212500 0.275000
0.200000 0.212500 0.275000
0.300000 0.212500 0.275000
0.400000 0.212500 0.275000
0.500000 0.212500 0.275000
0.600000 0.212500 0.275000
0.700000 0.212500 0.275000
0.800000 0.212500 0.275000
0.000000 0.318750 0.275000
0.100000 0.318750 0.275000
0.200000 0.318750 0.275000
0.300000 0.318750 0.275000
0.400000 0.318750 0.275000
0.500000 0.318750 0.275000
0.600000 0.318750 0.275000
0.700000 0.318750 0.275000
0.800000 0.318750 0.275000
0.000000 0.425000 0.275000
0.100000 0.425000 0.275000
0.200000 0.425000 0.275000
0.300000 0.425000 0.275000
0.400000 0.425000 0.275000
0.500000 0.425000 0.275000
0.600000 0.425000 0.275000
0.700000 0.425000 0.275000
0.800000 0.425000 0.275000
0.000000 0.531250 0.275000
0.100000 0.531250 0.275000
0.200000 0.531250 0.275000
0.300000 0.531250 0.275000
0.400000 0.531250 0.275000
0.500000 0.531250 0.275000
0.600000 0.531250 0.275000
0.700000 0.531250 0.275000
0.800000 0.531250 0.275000
0.000000 0.637500 0.275000
0.100000 0.637500 0.275000
0.200000 0.637500 0.275000
0.300000 0.637500 0.275000
0.400000 0.637500 0.275000
0.500000 0.637500 0.275000
0.600000 0.637500 0.275000
0.700000 0.637500 0.275000
0.800000 0.637500 0.275000
0.000000 0.743750 0.275000
0.100000 0.743750 0.275000
0.200000 0.743750 0.275000
0.300000 0.743750 0.275000
0.400000 0.743750 0.275000
0.500000 0.743750 0.275000
0.600000 0.743750 0.275000
0.700000 0.743750 0.275000
0.800000 0.743750 0.275000
0.000000 0.850000 0.275000
0.100000 0.850000 0.275000
0.200000 0.850000 0.275000
0.300000 0.850000 0.275000
0.400000 0.850000 0.275000
0.500000 0.850000 0.275000
0.600000 0.850000 0.275000
0.700000 0.850000 0.275000
0.800000 0.850000 0.275000
0.000000 0.000000 0.412500
0.100000 0.000000 0.412500
0.200000 0.000000 0.412500
0.300000 0.000000 0.412500
0.400000 0.000000 0.412500
0.500000 0.000000 0.412500
0.600000 0.000000 0.412500
0.700000 0.000000 0.412500
0.800000 0.000000 0.412500
0.000000 0.106250 0.412500
0.100000 0.106250 0.412500
0.200000 0.106250 0.412500
0.300000 0.106250 0.412500
0.400000 0.106250 0.412500
0.500000 0.106250 0.412500
0.600000 0.106250 0.412500
0.700000 0.106250 0.412500
0.800000 0.106250 0.412500
0.000000 0.212500 0.412500
0.100000 0.212500 0.412500
0.200000 0.212500 0.412500
0.300000 0.212500 0.412500
0.400000 0.212500 0.412500
0.500000 0.212500 0.412500
0.600000 0.212500 0.412500
0.700000 0.212500 0.412500
0.800000 0.212500 0.412500
0.000000 0.318750 0.412500
0.100000 0.318750 0.412500
0.200000 0.318750 0.412500
0.300000 0.318750 0.412500
0.400000 0.318750 0.412500
0.500000 0.318750 0.412500
0.600000 0.318750 0.412500
0.700000 0.318750 0.412500
0.800000 0.318750 0.412500
0.000000 0.425000 0.412500
0.100000 0.425000 0.412500
0.200000 0.425000 0.412500
0.300000 0.425000 0.412500
0.400000 0.425000 0.412500
0.500000 0.425000 0.412500
0.600000 0.425000 0.412500
0.700000 0.425000 0.412500
0.800000 0.425000 0.412500
0.000000 0.531250 0.412500
0.100000 0.531250 0.412500
0.200000 0.531250 0.412500
0.300000 0.531250 0.412500
0.400000 0.531250 0.412500
0.500000 0.531250 0.412500
0.600000 0.531250 0.412500
0.700000 0.531250 0.412500
0.800000 0.531250 0.412500
0.000000 0.637500 0.412500
0.100000 0.637500 0.412500
0.200000 0.637500 0.412500
0.300000 0.637500 0.412500
0.400000 0.637500 0.412500
0.500000 0.637500 0.412500
0.600000 0.637500 0.412500
0.700000 0.637500 0.412500
0.800000 0.637500 0.412500
0.000000 0.743750 0.412500
0.100000 0.743750 0.412500
0.200000 0.743750 0.412500
0.300000 0.743750 0.412500
0.400000 0.743750 0.412500
0.500000 0.743750 0.412500
0.600000 0.743750 0.412500
0.700000 0.743750 0.412500
0.800000 0.743750 0.412500
0.000000 0.850000 0.412500
0.100000 0.850000 0.412500
0.200000 0.850000 0.412500
0.300000 0.850000 0.412500
0.400000 0.850000 0.412500
0.500000 0.850000 0.412500
0.600000 0.850000 0.412500
0.700000 0.850000 0.412500
0.800000 0.850000 0.412500
0.000000 0.000000 0.550000
0.100000 0.000000 0.550000
0.200000 0.000000 0.550000
0.300000 0.000000 0.550000
0.400000 0.000000 0.550000
0.500000 0.000000 0.550000
0.600000 0.000000 0.550000
0.700000 0.000000 0.550000
0.800000 0.000000 0.550000
0.000000 0.106250 0.550000
0.100000 0.106250 0.550000
0.200000 0.106250 0.550000
0.300000 0.106250 0.550000
0.400000 0.106250 0.550000
0.500000 0.106250 0.550000
0.600000 0.106250 0.550000
0.700000 0.106250 0.550000
0.800000 0.106250 0.550000
0.000000 0.212500 0.550000
0.100000 0.212500 0.550000
0.200000 0.212500 0.550000
0.300000 0.212500 0.550000
0.400000 0.212500 0.550000
0.500000 0.212500 0.550000
0.600000 0.212500 0.550000
0.700000 0.212500 0.550000
0.800000 0.212500 0.550000
0.000000 0.318750 0.550000
0.100000 0.318750 0.550000
0.200000 0.318750 0.550000
0.300000 0.318750 0.550000
0.400000 0.318750 0.550000
0.500000 0.318750 0.550000
0.600000 0.318750 0.550000
0.700000 0.318750 0.550000
0.800000 0.318750 0.550000
0.000000 0.425000 0.550000
0.100000 0.425000 0.550000
0.200000 0.425000 0.550000
0.300000 0.425000 0.550000
0.400000 0.425000 0.550000
0.500000 0.425000 0.550000
0.600000 0.425000 0.550000
0.700000 0.425000 0.550000
0.800000 0.425000 0.550000
0.000000 0.531250 0.550000
0.100000 0.531250 0.550000
0.200000 0.531250 0.550000
0.300000 0.531250 0.550000
0.400000 0.531250 0.550000
0.500000 0.531250 0.550000
0.600000 0.531250 0.550000
0.700000 0.531250 0.550000
0.800000 0.531250 0.550000
0.000000 0.637500 0.550000
0.100000 0.637500 0.550000
0.200000 0.637500 0.550000
0.300000 0.637500 0.550000
0.400000 0.637500 0.550000
0.500000 0.637500 0.550000
0.600000 0.637500 0.550000
0.700000 0.637500 0.550000
0.800000 0.637500 0.550000
0.000000 0.743750 0.550000
0.100000 0.743750 0.550000
0.200000 0.743750 0.550000
0.300000 0.743750 0.550000
0.400000 0.743750 0.550000
0.500000 0.743750 0.550000
0.600000 0.743750 0.550000
0.700000 0.743750 0.550000
0.800000 0.743750 0.550000
0.000000 0.850000 0.550000
0.100000 0.850000 0.550000
0.200000 0.850000 0.550000
0.300000 0.850000 0.550000
0.400000 0.850000 0.550000
0.500000 0.850000 0.550000
0.600000 0.850000 0.550000
0.700000 0.850000 0.550000
0.800000 0.850000 0.550000
0.000000 0.000000 0.687500
0.100000 0.000000 0.687500
0.200000 0.000000 0.687500
0.300000 0.000000 0.687500
0.400000 0.000000 0.687500
0.500000 0.000000 0.687500
0.600000 0.000000 0.687500
0.700000 0.000000 0.687500
0.800000 0.000000 0.687500
0.000000 0.106250 0.687500
0.100000 0.106250 0.687500
0.200000 0.106250 0.687500
0.300000 0.106250 0.687500
0.400000 0.106250 0.687500
0.500000 0.106250 0.687500
0.600000 0.106250 0.687500
0.700000 0.106250 0.687500
0.800000 0.106250 0.687500
0.000000 0.212500 0.687500
0.100000 0.212500 0.687500
0.200000 0.212500 0.687500
0.300000 0.212500 0.687500
0.400000 0.212500 0.687500
0.500000 0.212500 0.687500
0.600000 0.212500 0.687500
0.700000 0.212500 0.687500
0.800000 0.212500 0.687500
0.000000 0.318750 0.687500
0.100000 0.318750 0.687500
0.200000 0.318750 0.687500
0.300000 0.318750 0.687500
0.400000 0.318750 0.687500
0.500000 0.318750 0.687500
0.600000 0.318750 0.687500
0.700000 0.318750 0.687500
0.800000 0.318750 0.687500
0.000000 0.425000 0.687500
0.100000 0.425000 0.687500
0.200000 0.425000 0.687500
0.300000 0.425000 0.687500
0.400000 0.425000 0.687500
0.500000 0.425000 0.687500
0.600000 0.425000 0.687500
0.700000 0.425000 0.687500
0.800000 0.425000 0.687500
0.000000 0.531250 0.687500
0.100000 0.531250 0.687500
0.200000 0.531250 0.687500
0.300000 0.531250 0.687500
0.400000 0.531250 0.687500
0.500000 0.531250 0.687500
0.600000 0.531250 0.687500
0.700000 0.531250 0.687500
0.800000 0.531250 0.687500
0.000000 0.637500 0.687500
0.100000 0.637500 0.687500
0.200000 0.637500 0.687500
0.300000 0.637500 0.687500
0.400000 0.637500 0.687500
0.500000 0.637500 0.687500
0.600000 0.637500 0.687500
0.700000 0.637500 0.687500
0.800000 0.637500 0.687500
0.000000 0.743750 0.687500
0.100000 0.743750 0.687500
0.200000 0.743750 0.687500
0.300000 0.743750 0.687500
0.400000 0.743750 0.687500
0.500000 0.743750 0.687500
0.600000 0.743750 0.687500
0.700000 0.743750 0.687500
0.800000 0.743750 0.687500
0.000000 0.850000 0.687500
0.100000 0.850000 0.687500
0.200000 0.850000 0.687500
0.300000 0.850000 0.687500
0.400000 0.850000 0.687500
0.500000 0.850000 0.687500
0.600000 0.850000 0.687500
0.700000 0.850000 0.687500
0.800000 0.850000 0.687500
0.000000 0.000000 0.825000
0.100000 0.000000 0.825000
0.200000 0.000000 0.825000
0.300000 0.000000 0.825000
0.400000 0.000000 0.825000
0.500000 0.000000 0.825000
0.600000 0.000000 0.825000
0.700000 0.000000 0.825000
0.800000 0.000000 0.825000
0.000000 0.106250 0.825000
0.100000 0.106250 0.825000
0.200000 0.106250 0.825000
0.300000 0.106250 0.825000
0.400000 0.106250 0.825000
0.500000 0.106250 0.825000
0.600000 0.106250 0.825000
0.700000 0.106250 0.825000
0.800000 0.106250 0.825000
0.000000 0.212500 0.825000
0.100000 0.212500 0.825000
0.200000 0.212500 0.825000
0.300000 0.212500 0.825000
0.400000 0.212500 0.825000
0.500000 0.212500 0.825000
0.600000 0.212500 0.825000
0.700000 0.212500 0.825000
0.800000 0.212500 0.825000
0.000000 0.318750 0.825000
0.100000 0.318750 0.825000
0.200000 0.318750 0.825000
0.300000 0.318750 0.825000
0.400000 0.318750 0.825000
0.500000 0.318750 0.825000
0.600000 0.318750 0.825000
0.700000 0.318750 0.825000
0.800000 0.318750 0.825000
0.000000 0.425000 0.825000
0.100000 0.425000 0.825000
0.200000 0.425000 0.825000
0.300000 0.425000 0.825000
0.400000 0.425000 0.825000
0.500000 0.425000 0.825000
0.600000 0.425000 0.825000
0.700000 0.425000 0.825000
0.800000 0.425000 0.825000
0.000000 0.531250 0.825000
0.100000 0.531250 0.825000
0.200000 0.531250 0.825000
0.300000 0.531250 0.825000
0.400000 0.531250 0.825000
0.500000 0.531250 0.825000
0.600000 0.531250 0.825000
0.700000 0.531250 0.825000
0.800000 0.531250 0.825000
0.000000 0.637500 0.825000
0.100000 0.637500 0.825000
0.200000 0.637500 0.825000
0.300000 0.637500 0.825000
0.400000 0.637500 0.825000
0.500000 0.637500 0.825000
0.600000 0.637500 0.825000
0.700000 0.637500 0.825000
0.800000 0.637500 0.825000
0.000000 0.743750 0.825000
0.100000 0.743750 0.825000
0.200000 0.743750 0.825000
0.300000 0.743750 0.825000
0.400000 0.743750 0.825000
0.500000 0.743750 0.825000
0.600000 0.743750 0.825000
0.700000 0.743750 0.825000
0.800000 0.743750 0.825000
0.000000 0.850000 0.825000
0.100000 0.850000 0.825000
0.200000 0.850000 0.825000
0.300000 0.850000 0.825000
0.400000 0.850000 0.825000
0.500000 0.850000 0.825000
0.600000 0.850000 0.825000
0.700000 0.850000 0.825000
0.800000 0.850000 0.825000
0.000000 0.000000 0.962500
0.100000 0.000000 0.962500
0.200000 0.000000 0.962500
0.300000 0.000000 0.962500
0.400000 0.000000 0.962500
0.500000 0.000000 0.962500
0.600000 0.000000 0.962500
0.700000 0.000000 0.962500
0.800000 0.000000 0.962500
0.000000 0.106250 0.962500
0.100000 0.106250 0.962500
0.200000 0.106250 0.962500
0.300000 0.106250 0.962500
0.400000 0.106250 0.962500
0.500000 0.106250 0.962500
0.600000 0.106250 0.962500
0.700000 0.106250 0.962500
0.800000 0.106250 0.962500
0.000000 0.212500 0.962500
0.100000 0.212500 0.962500
0.200000 0.212500 0.962500
0.300000 0.212500 0.962500
0.400000 0.212500 0.962500
0.500000 0.212500 0.962500
0.600000 0.212500 0.962500
0.700000 0.212500 0.962500
0.800000 0.212500 0.962500
0.000000 0.318750 0.962500
0.100000 0.318750 0.962500
0.200000 0.318750 0.962500
0.300000 0.318750 0.962500
0.400000 0.318750 0.962500
0.500000 0.318750 0.962500
0.600000 0.318750 0.962500
0.700000 0.318750 0.962500
0.800000 0.318750 0.962500
0.000000 0.425000 0.962500
0.100000 0.425000 0.962500
0.200000 0.425000 0.962500
0.300000 0.425000 0.962500
0.400000 0.425000 0.962500
0.500000 0.425000 0.962500
0.600000 0.425000 0.962500
0.700000 0.425000 0.962500
0.800000 0.425000 0.962500
0.000000 0.531250 0.962500
0.100000 0.531250 0.962500
0.200000 0.531250 0.962500
0.300000 0.531250 0.962500
0.400000 0.531250 0.962500
0.500000 0.531250 0.962500
0.600000 0.531250 0.962500
0.700000 0.531250 0.962500
0.800000 0.531250 0.962500
0.000000 0.637500 0.962500
0.100000 0.637500 0.962500
0.200000 0.637500 0.962500
0.300000 0.637500 0.962500
0.400000 0.637500 0.962500
0.500000 0.637500 0.962500
0.600000 0.637500 0.962500
0.700000 0.637500 0.962500
0.800000 0.637500 0.962500
0.000000 0.743750 0.962500
0.100000 0.743750 0.962500
0.200000 0.743750 0.962500
0.300000 0.743750 0.962500
0.400000 0.743750 0.962500
0.500000 0.743750 0.962500
0.600000 0.743750 0.962500
0.700000 0.743750 0.962500
0.800000 0.743750 0.962500
0.000000 0.850000 0.962500
0.100000 0.850000 0.962500
0.200000 0.850000 0.962500
0.300000 0.850000 0.962500
0.400000 0.850000 0.962500
0.500000 0.850000 0.962500
0.600000 0.850000 0.962500
0.700000 0.850000 0.962500
0.800000 0.850000 0.962500
0.000000 0.000000 1.000000
0.100000 0.000000 1.000000
0.200000 0.000000 1.000000
0.300000 0.000000 1.000000
0.400000 0.000000 1.000000
0.500000 0.000000 1.000000
0.600000 0.000000 1.000000
0.700000 0.000000 1.000000
0.800000 0.000000 1.000000
0.000000 0.106250 1.000000
0.100000 0.106250 1.000000
0.200000 0.106250 1.000000
0.300000 0.106250 1.000000
0.400000 0.106250 1.000000
0.500000 0.106250 1.000000
0.600000 0.106250 1.000000
0.700000 0.106250 1.000000
0.800000 0.106250 1.000000
0.000000 0.212500 1.000000
0.100000 0.212500 1.000000
0.200000 0.212500 1.000000
0.300000 0.212500 1.000000
0.400000 0.212500 1.000000
0.500000 0.212500 1.000000
0.600000 0.212500 1.000000
0.700000 0.212500 1.000000
0.800000 0.212500 1.000000
0.000000 0.318750 1.000000
0.100000 0.318750 1.000000
0.200000 0.318750 1.000000
0.300000 0.318750 1.000000
0.400000 0.318750 1.000000
0.500000 0.318750 1.000000
0.600000 0.318750 1.000000
0.700000 0.318750 1.000000
0.800000 0.318750 1.000000
0.000000 0.425000 1.000000
0.100000 0.425000 1.000000
0.200000 0.425000 1.000000
0.300000 0.425000 1.000000
0.400000 0.425000 1.000000
0.500000 0.425000 1.000000
0.600000 0.425000 1.000000
0.700000 0.425000 1.000000
0.800000 0.425000 1.000000
0.000000 0.531250 1.000000
0.100000 0.531250 1.000000
0.200000 0.531250 1.000000
0.300000 0.531250 1.000000
0.400000 0.531250 1.000000
0.500000 0.531250 1.000000
0.600000 0.531250 1.000000
0.700000 0.531250 1.000000
0.800000 0.531250 1.000000
0.000000 0.637500 1.000000
0.100000 0.637500 1.000000
0.200000 0.637500 1.000000
0.300000 0.637500 1.000000
0.400000 0.637500 1.000000
0.500000 0.637500 1.000000
0.600000 0.637500 1.000000
0.700000 0.637500 1.000000
0.800000 0.637500 1.000000
0.000000 0.743750 1.000000
0.100000 0.743750 1.000000
0.200000 0.743750 1.000000
0.300000 0.743750 1.000000
0.400000 0.743750 1.000000
0.500000 0.743750 1.000000
0.600000 0.743750 1.000000
0.700000 0.743750 1.000000
0.800000 0.743750 1.000000
0.000000 0.850000 1.000000
0.100000 0.850000 1.000000
0.200000 0.850000 1.000000
0.300000 0.850000 1.000000
0.400000 0.850000 1.000000
0.500000 0.850000 1.000000
0.600000 0.850000 1.000000
0.700000 0.850000 1.000000
0.800000 0.850000 1.000000
