dashboard/static/social/luts/vibrant.cube
TITLE "vibrant"
LUT_3D_SIZE 9
0.000000 0.000000 0.000000
0.151250 0.000000 0.000000
0.302500 0.000000 0.000000
0.453750 0.000000 0.000000
0.605000 0.000000 0.000000
0.756250 0.000000 0.000000
0.907500 0.000000 0.000000
1.000000 0.000000 0.000000
1.000000 0.000000 0.000000
0.000000 0.140375 0.000000
0.129125 0.129125 0.000000
0.280375 0.117875 0.000000
0.431625 0.106625 0.000000
0.582875 0.095375 0.000000
0.734125 0.084125 0.000000
0.885375 0.072875 0.000000
1.000000 0.061625 0.000000
1.000000 0.050375 0.000000
0.000000 0.280750 0.000000
0.107000 0.269500 0.000000
0.258250 0.258250 0.000000
0.409500 0.247000 0.000000
0.560750 0.235750 0.000000
0.712000 0.224500 0.000000
0.863250 0.213250 0.000000
1.000000 0.202000 0.000000
1.000000 0.190750 0.000000
0.000000 0.421125 0.000000
0.084875 0.409875 0.000000
0.236125 0.398625 0.000000
0.387375 0.387375 0.000000
0.538625 0.376125 0.000000
0.689875 0.364875 0.000000
0.841125 0.353625 0.000000
0.992375 0.342375 0.000000
1.000000 0.331125 0.000000
0.000000 0.561500 0.000000
0.062750 0.550250 0.000000
0.214000 0.539000 0.000000
0.365250 0.527750 0.000000
0.516500 0.516500 0.000000
0.667750 0.505250 0.000000
0.819000 0.494000 0.000000
0.970250 0.482750 0.000000
1.000000 0.471500 0.000000
0.000000 0.701875 0.000000
0.040625 0.690625 0.000000
0.191875 0.679375 0.000000
0.343125 0.668125 0.000000
0.494375 0.656875 0.000000
0.645625 0.645625 0.000000
0.796875 0.634375 0.000000
0.948125 0.623125 0.000000
1.000000 0.611875 0.000000
0.000000 0.842250 0.000000
0.018500 0.831000 0.000000
0.169750 0.819750 0.000000
0.321000 0.808500 0.000000
0.472250 0.797250 0.000000
0.623500 0.786000 0.000000
0.774750 0.774750 0.000000
0.926000 0.763500 0.000000
1.000000 0.752250 0.000000
0.000000 0.982625 0.000000
0.000000 0.971375 0.000000
0.147625 0.960125 0.000000
0.298875 0.948875 0.000000
0.450125 0.937625 0.000000
0.601375 0.926375 0.000000
0.752625 0.915125 0.000000
0.903875 0.903875 0.000000
1.000000 0.892625 0.000000
0.000000 1.000000 0.000000
0.000000 1.000000 0.000000
0.125500 1.000000 0.000000
0.276750 1.000000 0.000000
0.428000 1.000000 0.000000
0.579250 1.000000 0.000000
0.730500 1.000000 0.000000
0.881750 1.000000 0.000000
1.000000 1.000000 0.000000
0.000000 0.000000 0.158375
0.147125 0.000000 0.147125
0.298375 0.000000 0.135875
0.449625 0.000000 0.124625
0.600875 0.000000 0.113375
0.752125 0.000000 0.102125
0.903375 0.000000 0.090875
1.000000 0.000000 0.079625
1.000000 0.000000 0.068375
0.000000 0.136250 0.136250
0.125000 0.125000 0.125000
0.276250 0.113750 0.113750
0.427500 0.102500 0.102500
0.578750 0.091250 0.091250
0.730000 0.080000 0.080000
0.881250 0.068750 0.068750
1.000000 0.057500 0.057500
1.000000 0.046250 0.046250
0.000000 0.276625 0.114125
0.102875 0.265375 0.102875
0.254125 0.254125 0.091625
0.405375 0.242875 0.080375
0.556625 0.231625 0.069125
0.707875 0.220375 0.057875
0.859125 0.209125 0.046625
1.000000 0.197875 0.035375
1.000000 0.186625 0.024125
0.000000 0.417000 0.092000
0.080750 0.405750 0.080750
0.232000 0.394500 0.069500
0.383250 0.383250 0.058250
0.534500 0.372000 0.047000
0.685750 0.360750 0.035750
0.837000 0.349500 0.024500
0.988250 0.338250 0.013250
1.000000 0.327000 0.002000
0.000000 0.557375 0.069875
0.058625 0.546125 0.058625
0.209875 0.534875 0.047375
0.361125 0.523625 0.036125
0.512375 0.512375 0.024875
0.663625 0.501125 0.013625
0.814875 0.489875 0.002375
0.966125 0.478625 0.000000
1.000000 0.467375 0.000000
0.000000 0.697750 0.047750
0.036500 0.686500 0.036500
0.187750 0.675250 0.025250
0.339000 0.664000 0.014000
0.490250 0.652750 0.002750
0.641500 0.641500 0.000000
0.792750 0.630250 0.000000
0.944000 0.619000 0.000000
1.000000 0.607750 0.000000
0.000000 0.838125 0.025625
0.014375 0.826875 0.014375
0.165625 0.815625 0.003125
0.316875 0.804375 0.000000
0.468125 0.793125 0.000000
0.619375 0.781875 0.000000
0.770625 0.770625 0.000000
0.921875 0.759375 0.000000
1.000000 0.748125 0.000000
0.000000 0.978500 0.003500
0.000000 0.967250 0.000000
0.143500 0.956000 0.000000
0.294750 0.944750 0.000000
0.446000 0.933500 0.000000
0.597250 0.922250 0.000000
0.748500 0.911000 0.000000
0.899750 0.899750 0.000000
1.000000 0.888500 0.000000
0.000000 1.000000 0.000000
0.000000 1.000000 0.000000
0.121375 1.000000 0.000000
0.272625 1.000000 0.000000
0.423875 1.000000 0.000000
0.575125 1.000000 0.000000
0.726375 1.000000 0.000000
0.877625 1.000000 0.000000
1.000000 1.000000 0.000000
0.000000 0.000000 0.316750
0.143000 0.000000 0.305500
0.294250 0.000000 0.294250
0.445500 0.000000 0.283000
0.596750 0.000000 0.271750
0.748000 0.000000 0.260500
0.899250 0.000000 0.249250
1.000000 0.000000 0.238000
1.000000 0.000000 0.226750
0.000000 0.132125 0.294625
0.120875 0.120875 0.283375
0.272125 0.109625 0.272125
0.423375 0.098375 0.260875
0.574625 0.087125 0.249625
0.725875 0.075875 0.238375
0.877125 0.064625 0.227125
1.000000 0.053375 0.215875
1.000000 0.042125 0.204625
0.000000 0.272500 0.272500
0.098750 0.261250 0.261250
0.250000 0.250000 0.250000
0.401250 0.238750 0.238750
0.552500 0.227500 0.227500
0.703750 0.216250 0.216250
0.855000 0.205000 0.205000
1.000000 0.193750 0.193750
1.000000 0.182500 0.182500
0.000000 0.412875 0.250375
0.076625 0.401625 0.239125
0.227875 0.390375 0.227875
0.379125 0.379125 0.216625
0.530375 0.367875 0.205375
0.681625 0.356625 0.194125
0.832875 0.345375 0.182875
0.984125 0.334125 0.171625
1.000000 0.322875 0.160375
0.000000 0.553250 0.228250
0.054500 0.542000 0.217000
0.205750 0.530750 0.205750
0.357000 0.519500 0.194500
0.508250 0.508250 0.183250
0.659500 0.497000 0.172000
0.810750 0.485750 0.160750
0.962000 0.474500 0.149500
1.000000 0.463250 0.138250
0.000000 0.693625 0.206125
0.032375 0.682375 0.194875
0.183625 0.671125 0.183625
0.334875 0.659875 0.172375
0.486125 0.648625 0.161125
0.637375 0.637375 0.149875
0.788625 0.626125 0.138625
0.939875 0.614875 0.127375
1.000000 0.603625 0.116125
0.000000 0.834000 0.184000
0.010250 0.822750 0.172750
0.161500 0.811500 0.161500
0.312750 0.800250 0.150250
0.464000 0.789000 0.139000
0.615250 0.777750 0.127750
0.766500 0.766500 0.116500
0.917750 0.755250 0.105250
1.000000 0.744000 0.094000
0.000000 0.974375 0.161875
0.000000 0.963125 0.150625
0.139375 0.951875 0.139375
0.290625 0.940625 0.128125
0.441875 0.929375 0.116875
0.593125 0.918125 0.105625
0.744375 0.906875 0.094375
0.895625 0.895625 0.083125
1.000000 0.884375 0.071875
0.000000 1.000000 0.139750
0.000000 1.000000 0.128500
0.117250 1.000000 0.117250
0.268500 1.000000 0.106000
0.419750 1.000000 0.094750
0.571000 1.000000 0.083500
0.722250 1.000000 0.072250
0.873500 1.000000 0.061000
1.000000 1.000000 0.049750
0.000000 0.000000 0.475125
0.138875 0.000000 0.463875
0.290125 0.000000 0.452625
0.441375 0.000000 0.441375
0.592625 0.000000 0.430125
0.743875 0.000000 0.418875
0.895125 0.000000 0.407625
1.000000 0.000000 0.396375
1.000000 0.000000 0.385125
0.000000 0.128000 0.453000
0.116750 0.116750 0.441750
0.268000 0.105500 0.430500
0.419250 0.094250 0.419250
0.570500 0.083000 0.408000
0.721750 0.071750 0.396750
0.873000 0.060500 0.385500
1.000000 0.049250 0.374250
1.000000 0.038000 0.363000
0.000000 0.268375 0.430875
0.094625 0.257125 0.419625
0.245875 0.245875 0.408375
0.397125 0.234625 0.397125
0.548375 0.223375 0.385875
0.699625 0.212125 0.374625
0.850875 0.200875 0.363375
1.000000 0.189625 0.352125
1.000000 0.178375 0.340875
0.000000 0.408750 0.408750
0.072500 0.397500 0.397500
0.223750 0.386250 0.386250
0.375000 0.375000 0.375000
0.526250 0.363750 0.363750
0.677500 0.352500 0.352500
0.828750 0.341250 0.341250
0.980000 0.330000 0.330000
1.000000 0.318750 0.318750
0.000000 0.549125 0.386625
0.050375 0.537875 0.375375
0.201625 0.526625 0.364125
0.352875 0.515375 0.352875
0.504125 0.504125 0.341625
0.655375 0.492875 0.330375
0.806625 0.481625 0.319125
0.957875 0.470375 0.307875
1.000000 0.459125 0.296625
0.000000 0.689500 0.364500
0.028250 0.678250 0.353250
0.179500 0.667000 0.342000
0.330750 0.655750 0.330750
0.482000 0.644500 0.319500
0.633250 0.633250 0.308250
0.784500 0.622000 0.297000
0.935750 0.610750 0.285750
1.000000 0.599500 0.274500
0.000000 0.829875 0.342375
0.006125 0.818625 0.331125
0.157375 0.807375 0.319875
0.308625 0.796125 0.308625
0.459875 0.784875 0.297375
0.611125 0.773625 0.286125
0.762375 0.762375 0.274875
0.913625 0.751125 0.263625
1.000000 0.739875 0.252375
0.000000 0.970250 0.320250
0.000000 0.959000 0.309000
0.135250 0.947750 0.297750
0.286500 0.936500 0.286500
0.437750 0.925250 0.275250
0.589000 0.914000 0.264000
0.740250 0.902750 0.252750
0.891500 0.891500 0.241500
1.000000 0.880250 0.230250
0.000000 1.000000 0.298125
0.000000 1.000000 0.286875
0.113125 1.000000 0.275625
0.264375 1.000000 0.264375
0.415625 1.000000 0.253125
0.566875 1.000000 0.241875
0.718125 1.000000 0.230625
0.869375 1.000000 0.219375
1.000000 1.000000 0.208125
0.000000 0.000000 0.633500
0.134750 0.000000 0.622250
0.286000 0.000000 0.611000
0.437250 0.000000 0.599750
0.588500 0.000000 0.588500
0.739750 0.000000 0.577250
0.891000 0.000000 0.566000
1.000000 0.000000 0.554750
1.000000 0.000000 0.543500
0.000000 0.123875 0.611375
0.112625 0.112625 0.600125
0.263875 0.101375 0.588875
0.415125 0.090125 0.577625
0.566375 0.078875 0.566375
0.717625 0.067625 0.555125
0.868875 0.056375 0.543875
1.000000 0.045125 0.532625
1.000000 0.033875 0.521375
0.000000 0.264250 0.589250
0.090500 0.253000 0.578000
0.241750 0.241750 0.566750
0.393000 0.230500 0.555500
0.544250 0.219250 0.544250
0.695500 0.208000 0.533000
0.846750 0.196750 0.521750
0.998000 0.185500 0.510500
1.000000 0.174250 0.499250
0.000000 0.404625 0.567125
0.068375 0.393375 0.555875
0.219625 0.382125 0.544625
0.370875 0.370875 0.533375
0.522125 0.359625 0.522125
0.673375 0.348375 0.510875
0.824625 0.337125 0.499625
0.975875 0.325875 0.488375
1.000000 0.314625 0.477125
0.000000 0.545000 0.545000
0.046250 0.533750 0.533750
0.197500 0.522500 0.522500
0.348750 0.511250 0.511250
0.500000 0.500000 0.500000
0.651250 0.488750 0.488750
0.802500 0.477500 0.477500
0.953750 0.466250 0.466250
1.000000 0.455000 0.455000
0.000000 0.685375 0.522875
0.024125 0.674125 0.511625
0.175375 0.662875 0.500375
0.326625 0.651625 0.489125
0.477875 0.640375 0.477875
0.629125 0.629125 0.466625
0.780375 0.617875 0.455375
0.931625 0.606625 0.444125
1.000000 0.595375 0.432875
0.000000 0.825750 0.500750
0.002000 0.814500 0.489500
0.153250 0.803250 0.478250
0.304500 0.792000 0.467000
0.455750 0.780750 0.455750
0.607000 0.769500 0.444500
0.758250 0.758250 0.433250
0.909500 0.747000 0.422000
1.000000 0.735750 0.410750
0.000000 0.966125 0.478625
0.000000 0.954875 0.467375
0.131125 0.943625 0.456125
0.282375 0.932375 0.444875
0.433625 0.921125 0.433625
0.584875 0.909875 0.422375
0.736125 0.898625 0.411125
0.887375 0.887375 0.399875
1.000000 0.876125 0.388625
0.000000 1.000000 0.456500
0.000000 1.000000 0.445250
0.109000 1.000000 0.434000
0.260250 1.000000 0.422750
0.411500 1.000000 0.411500
0.562750 1.000000 0.400250
0.714000 1.000000 0.389000
0.865250 1.000000 0.377750
1.000000 1.000000 0.366500
0.000000 0.000000 0.791875
0.130625 0.000000 0.780625
0.281875 0.000000 0.769375
0.433125 0.000000 0.758125
0.584375 0.000000 0.746875
0.735625 0.000000 0.735625
0.886875 0.000000 0.724375
1.000000 0.000000 0.713125
1.000000 0.000000 0.701875
0.000000 0.119750 0.769750
0.108500 0.108500 0.758500
0.259750 0.097250 0.747250
0.411000 0.086000 0.736000
0.562250 0.074750 0.724750
0.713500 0.063500 0.713500
0.864750 0.052250 0.702250
1.000000 0.041000 0.691000
1.000000 0.029750 0.679750
0.000000 0.260125 0.747625
0.086375 0.248875 0.736375
0.237625 0.237625 0.725125
0.388875 0.226375 0.713875
0.540125 0.215125 0.702625
0.691375 0.203875 0.691375
0.842625 0.192625 0.680125
0.993875 0.181375 0.668875
1.000000 0.170125 0.657625
0.000000 0.400500 0.725500
0.064250 0.389250 0.714250
0.215500 0.378000 0.703000
0.366750 0.366750 0.691750
0.518000 0.355500 0.680500
0.669250 0.344250 0.669250
0.820500 0.333000 0.658000
0.971750 0.321750 0.646750
1.000000 0.310500 0.635500
0.000000 0.540875 0.703375
0.042125 0.529625 0.692125
0.193375 0.518375 0.680875
0.344625 0.507125 0.669625
0.495875 0.495875 0.658375
0.647125 0.484625 0.647125
0.798375 0.473375 0.635875
0.949625 0.462125 0.624625
1.000000 0.450875 0.613375
0.000000 0.681250 0.681250
0.020000 0.670000 0.670000
0.171250 0.658750 0.658750
0.322500 0.647500 0.647500
0.473750 0.636250 0.636250
0.625000 0.625000 0.625000
0.776250 0.613750 0.613750
0.927500 0.602500 0.602500
1.000000 0.591250 0.591250
0.000000 0.821625 0.659125
0.000000 0.810375 0.647875
0.149125 0.799125 0.636625
0.300375 0.787875 0.625375
0.451625 0.776625 0.614125
0.602875 0.765375 0.602875
0.754125 0.754125 0.591625
0.905375 0.742875 0.580375
1.000000 0.731625 0.569125
0.000000 0.962000 0.637000
0.000000 0.950750 0.625750
0.127000 0.939500 0.614500
0.278250 0.928250 0.603250
0.429500 0.917000 0.592000
0.580750 0.905750 0.580750
0.732000 0.894500 0.569500
0.883250 0.883250 0.558250
1.000000 0.872000 0.547000
0.000000 1.000000 0.614875
0.000000 1.000000 0.603625
0.104875 1.000000 0.592375
0.256125 1.000000 0.581125
0.407375 1.000000 0.569875
0.558625 1.000000 0.558625
0.709875 1.000000 0.547375
0.861125 1.000000 0.536125
1.000000 1.000000 0.524875
0.000000 0.000000 0.950250
0.126500 0.000000 0.939000
0.277750 0.000000 0.927750
0.429000 0.000000 0.916500
0.580250 0.000000 0.905250
0.731500 0.000000 0.894000
0.882750 0.000000 0.882750
1.000000 0.000000 0.871500
1.000000 0.000000 0.860250
0.000000 0.115625 0.928125
0.104375 0.104375 0.916875
0.255625 0.093125 0.905625
0.406875 0.081875 0.894375
0.558125 0.070625 0.883125
0.709375 0.059375 0.871875
0.860625 0.048125 0.860625
1.000000 0.036875 0.849375
1.000000 0.025625 0.838125
0.000000 0.256000 0.906000
0.082250 0.244750 0.894750
0.233500 0.233500 0.883500
0.384750 0.222250 0.872250
0.536000 0.211000 0.861000
0.687250 0.199750 0.849750
0.838500 0.188500 0.838500
0.989750 0.177250 0.827250
1.000000 0.166000 0.816000
0.000000 0.396375 0.883875
0.060125 0.385125 0.872625
0.211375 0.373875 0.861375
0.362625 0.362625 0.850125
0.513875 0.351375 0.838875
0.665125 0.340125 0.827625
0.816375 0.328875 0.816375
0.967625 0.317625 0.805125
1.000000 0.306375 0.793875
0.000000 0.536750 0.861750
0.038000 0.525500 0.850500
0.189250 0.514250 0.839250
0.340500 0.503000 0.828000
0.491750 0.491750 0.816750
0.643000 0.480500 0.805500
0.794250 0.469250 0.794250
0.945500 0.458000 0.783000
1.000000 0.446750 0.771750
0.000000 0.677125 0.839625
0.015875 0.665875 0.828375
0.167125 0.654625 0.817125
0.318375 0.643375 0.805875
0.469625 0.632125 0.794625
0.620875 0.620875 0.783375
0.772125 0.609625 0.772125
0.923375 0.598375 0.760875
1.000000 0.587125 0.749625
0.000000 0.817500 0.817500
0.000000 0.806250 0.806250
0.145000 0.795000 0.795000
0.296250 0.783750 0.783750
0.447500 0.772500 0.772500
0.598750 0.761250 0.761250
0.750000 0.750000 0.750000
0.901250 0.738750 0.738750
1.000000 0.727500 0.727500
0.000000 0.957875 0.795375
0.000000 0.946625 0.784125
0.122875 0.935375 0.772875
0.274125 0.924125 0.761625
0.425375 0.912875 0.750375
0.576625 0.901625 0.739125
0.727875 0.890375 0.727875
0.879125 0.879125 0.716625
1.000000 0.867875 0.705375
0.000000 1.000000 0.773250
0.000000 1.000000 0.762000
0.100750 1.000000 0.750750
0.252000 1.000000 0.739500
0.403250 1.000000 0.728250
0.554500 1.000000 0.717000
0.705750 1.000000 0.705750
0.857000 1.000000 0.694500
1.000000 1.000000 0.683250
0.000000 0.000000 1.000000
0.122375 0.000000 1.000000
0.273625 0.000000 1.000000
0.424875 0.000000 1.000000
0.576125 0.000000 1.000000
0.727375 0.000000 1.000000
0.878625 0.000000 1.000000
1.000000 0.000000 1.000000
1.000000 0.000000 1.000000
0.000000 0.111500 1.000000
0.100250 0.100250 1.000000
0.251500 0.089000 1.000000
0.402750 0.077750 1.000000
0.554000 0.066500 1.000000
0.705250 0.055250 1.000000
0.856500 0.044000 1.000000
1.000000 0.032750 1.000000
1.000000 0.021500 0.996500
0.000000 0.251875 1.000000
0.078125 0.240625 1.000000
0.229375 0.229375 1.000000
0.380625 0.218125 1.000000
0.531875 0.206875 1.000000
0.683125 0.195625 1.000000
0.834375 0.184375 0.996875
0.985625 0.173125 0.985625
1.000000 0.161875 0.974375
0.000000 0.392250 1.000000
0.056000 0.381000 1.000000
0.207250 0.369750 1.000000
0.358500 0.358500 1.000000
0.509750 0.347250 0.997250
0.661000 0.336000 0.986000
0.812250 0.324750 0.974750
0.963500 0.313500 0.963500
1.000000 0.302250 0.952250
0.000000 0.532625 1.000000
0.033875 0.521375 1.000000
0.185125 0.510125 0.997625
0.336375 0.498875 0.986375
0.487625 0.487625 0.975125
0.638875 0.476375 0.963875
0.790125 0.465125 0.952625
0.941375 0.453875 0.941375
1.000000 0.442625 0.930125
0.000000 0.673000 0.998000
0.011750 0.661750 0.986750
0.163000 0.650500 0.975500
0.314250 0.639250 0.964250
0.465500 0.628000 0.953000
0.616750 0.616750 0.941750
0.768000 0.605500 0.930500
0.919250 0.594250 0.919250
1.000000 0.583000 0.908000
0.000000 0.813375 0.975875
0.000000 0.802125 0.964625
0.140875 0.790875 0.953375
0.292125 0.779625 0.942125
0.443375 0.768375 0.930875
0.594625 0.757125 0.919625
0.745875 0.745875 0.908375
0.897125 0.734625 0.897125
1.000000 0.723375 0.885875
0.000000 0.953750 0.953750
0.000000 0.942500 0.942500
0.118750 0.931250 0.931250
0.270000 0.920000 0.920000
0.421250 0.908750 0.908750
0.572500 0.897500 0.897500
0.723750 0.886250 0.886250
0.875000 0.875000 0.875000
1.000000 0.863750 0.863750
0.000000 1.000000 0.931625
0.000000 1.000000 0.920375
0.096625 1.000000 0.909125
0.247875 1.000000 0.897875
0.399125 1.000000 0.886625
0.550375 1.000000 0.875375
0.701625 1.000000 0.864125
0.852875 1.000000 0.852875
1.000000 1.000000 0.841625
0.000000 0.000000 1.000000
0.118250 0.000000 1.000000
0.269500 0.000000 1.000000
0.420750 0.000000 1.000000
0.572000 0.000000 1.000000
0.723250 0.000000 1.000000
0.874500 0.000000 1.000000
1.000000 0.000000 1.000000
1.000000 0.000000 1.000000
0.000000 0.107375 1.000000
0.096125 0.096125 1.000000
0.247375 0.084875 1.000000
0.398625 0.073625 1.000000
0.549875 0.062375 1.000000
0.701125 0.051125 1.000000
0.852375 0.039875 1.000000
1.000000 0.028625 1.000000
1.000000 0.017375 1.000000
0.000000 0.247750 1.000000
0.074000 0.236500 1.000000
0.225250 0.225250 1.000000
0.376500 0.214000 1.000000
0.527750 0.202750 1.000000
0.679000 0.191500 1.000000
0.830250 0.180250 1.000000
0.981500 0.169000 1.000000
1.000000 0.157750 1.000000
0.000000 0.388125 1.000000
0.051875 0.376875 1.000000
0.203125 0.365625 1.000000
0.354375 0.354375 1.000000
0.505625 0.343125 1.000000
0.656875 0.331875 1.000000
0.808125 0.320625 1.000000
0.959375 0.309375 1.000000
1.000000 0.298125 1.000000
0.000000 0.528500 1.000000
0.029750 0.517250 1.000000
0.181000 0.506000 1.000000
0.332250 0.494750 1.000000
0.483500 0.483500 1.000000
0.634750 0.472250 1.000000
0.786000 0.461000 1.000000
0.937250 0.449750 1.000000
1.000000 0.438500 1.000000
0.000000 0.668875 1.000000
0.007625 0.657625 1.000000
0.158875 0.646375 1.000000
0.310125 0.635125 1.000000
0.461375 0.623875 1.000000
0.612625 0.612625 1.000000
0.763875 0.601375 1.000000
0.915125 0.590125 1.000000
1.000000 0.578875 1.000000
0.000000 0.809250 1.000000
0.000000 0.798000 1.000000
0.136750 0.786750 1.000000
0.288000 0.775500 1.000000
0.439250 0.764250 1.000000
0.590500 0.753000 1.000000
0.741750 0.741750 1.000000
0.893000 0.730500 1.000000
1.000000 0.719250 1.000000
0.000000 0.949625 1.000000
0.000000 0.938375 1.000000
0.114625 0.927125 1.000000
0.265875 0.915875 1.000000
0.417125 0.904625 1.000000
0.568375 0.893375 1.000000
0.719625 0.882125 1.000000
0.870875 0.870875 1.000000
1.000000 0.859625 1.000000
0.000000 1.000000 1.000000
0.000000 1.000000 1.000000
0.092500 1.000000 1.000000
0.243750 1.000000 1.000000
0.395000 1.000000 1.000000
0.546250 1.000000 1.000000
0.697500 1.000000 1.000000
0.848750 1.000000 1.000000
1.000000 1.000000 1.000000
