dashboard/static/social/luts/vibrant.cube
TITLE "vibrant"
LUT_3D_SIZE 33
0.000000 0.000000 0.000000
0.037812 0.000000 0.000000
0.075625 0.000000 0.000000
0.113438 0.000000 0.000000
0.151250 0.000000 0.000000
0.189062 0.000000 0.000000
0.226875 0.000000 0.000000
0.264688 0.000000 0.000000
0.302500 0.000000 0.000000
0.340313 0.000000 0.000000
0.378125 0.000000 0.000000
0.415937 0.000000 0.000000
0.453750 0.000000 0.000000
0.491563 0.000000 0.000000
0.529375 0.000000 0.000000
0.567187 0.000000 0.000000
0.605000 0.000000 0.000000
0.642813 0.000000 0.000000
0.680625 0.000000 0.000000
0.718438 0.000000 0.000000
0.756250 0.000000 0.000000
0.794063 0.000000 0.000000
0.831875 0.000000 0.000000
0.869688 0.000000 0.000000
0.907500 0.000000 0.000000
0.945312 0.000000 0.000000
0.983125 0.000000 0.000000
1.000000 0.000000 0.000000
1.000000 0.000000 0.000000
1.000000 0.000000 0.000000
1.000000 0.000000 0.000000
1.000000 0.000000 0.000000
1.000000 0.000000 0.000000
0.000000 0.035094 0.000000
0.032281 0.032281 0.000000
0.070094 0.029469 0.000000
0.107906 0.026656 0.000000
0.145719 0.023844 0.000000
0.183531 0.021031 0.000000
0.221344 0.018219 0.000000
0.259156 0.015406 0.000000
0.296969 0.012594 0.000000
0.334781 0.009781 0.000000
0.372594 0.006969 0.000000
0.410406 0.004156 0.000000
0.448219 0.001344 0.000000
0.486031 0.000000 0.000000
0.523844 0.000000 0.000000
0.561656 0.000000 0.000000
0.599469 0.000000 0.000000
0.637281 0.000000 0.000000
0.675094 0.000000 0.000000
0.712906 0.000000 0.000000
0.750719 0.000000 0.000000
0.788531 0.000000 0.000000
0.826344 0.000000 0.000000
0.864156 0.000000 0.000000
0.901969 0.000000 0.000000
0.939781 0.000000 0.000000
0.977594 0.000000 0.000000
1.000000 0.000000 0.000000
1.000000 0.000000 0.000000
1.000000 0.000000 0.000000
1.000000 0.000000 0.000000
1.000000 0.000000 0.000000
1.000000 0.000000 0.000000
0.000000 0.070187 0.000000
0.026750 0.067375 0.000000
0.064562 0.064562 0.000000
0.102375 0.061750 0.000000
0.140188 0.058938 0.000000
0.178000 0.056125 0.000000
0.215813 0.053313 0.000000
0.253625 0.050500 0.000000
0.291438 0.047687 0.000000
0.329250 0.044875 0.000000
0.367063 0.042063 0.000000
0.404875 0.039250 0.000000
0.442688 0.036437 0.000000
0.480500 0.033625 0.000000
0.518313 0.030812 0.000000
0.556125 0.028000 0.000000
0.593938 0.025188 0.000000
0.631750 0.022375 0.000000
0.669563 0.019563 0.000000
0.707375 0.016750 0.000000
0.745188 0.013937 0.000000
0.783000 0.011125 0.000000
0.820812 0.008313 0.000000
0.858625 0.005500 0.000000
0.896437 0.002688 0.000000
0.934250 0.000000 0.000000
0.972063 0.000000 0.000000
1.000000 0.000000 0.000000
1.000000 0.000000 0.000000
1.000000 0.000000 0.000000
1.000000 0.000000 0.000000
1.000000 0.000000 0.000000
1.000000 0.000000 0.000000
0.000000 0.105281 0.000000
0.021219 0.102469 0.000000
0.059031 0.099656 0.000000
0.096844 0.096844 0.000000
0.134656 0.094031 0.000000
0.172469 0.091219 0.000000
0.210281 0.088406 0.000000
0.248094 0.085594 0.000000
0.285906 0.082781 0.000000
0.323719 0.079969 0.000000
0.361531 0.077156 0.000000
0.399344 0.074344 0.000000
0.437156 0.071531 0.000000
0.474969 0.068719 0.000000
0.512781 0.065906 0.000000
0.550594 0.063094 0.000000
0.588406 0.060281 0.000000
0.626219 0.057469 0.000000
0.664031 0.054656 0.000000
0.701844 0.051844 0.000000
0.739656 0.049031 0.000000
0.777469 0.046219 0.000000
0.815281 0.043406 0.000000
0.853094 0.040594 0.000000
0.890906 0.037781 0.000000
0.928719 0.034969 0.000000
0.966531 0.032156 0.000000
1.000000 0.029344 0.000000
1.000000 0.026531 0.000000
1.000000 0.023719 0.000000
1.000000 0.020906 0.000000
1.000000 0.018094 0.000000
1.000000 0.015281 0.000000
0.000000 0.140375 0.000000
0.015688 0.137563 0.000000
0.053500 0.134750 0.000000
0.091313 0.131938 0.000000
0.129125 0.129125 0.000000
0.166938 0.126312 0.000000
0.204750 0.123500 0.000000
0.242563 0.120688 0.000000
0.280375 0.117875 0.000000
0.318188 0.115063 0.000000
0.356000 0.112250 0.000000
0.393813 0.109437 0.000000
0.431625 0.106625 0.000000
0.469438 0.103813 0.000000
0.507250 0.101000 0.000000
0.545063 0.098187 0.000000
0.582875 0.095375 0.000000
0.620688 0.092562 0.000000
0.658500 0.089750 0.000000
0.696313 0.086938 0.000000
0.734125 0.084125 0.000000
0.771938 0.081312 0.000000
0.809750 0.078500 0.000000
0.847562 0.075687 0.000000
0.885375 0.072875 0.000000
0.923188 0.070062 0.000000
0.961000 0.067250 0.000000
0.998812 0.064437 0.000000
1.000000 0.061625 0.000000
1.000000 0.058812 0.000000
1.000000 0.056000 0.000000
1.000000 0.053187 0.000000
1.000000 0.050375 0.000000
0.000000 0.175469 0.000000
0.010156 0.172656 0.000000
0.047969 0.169844 0.000000
0.085781 0.167031 0.000000
0.123594 0.164219 0.000000
0.161406 0.161406 0.000000
0.199219 0.158594 0.000000
0.237031 0.155781 0.000000
0.274844 0.152969 0.000000
0.312656 0.150156 0.000000
0.350469 0.147344 0.000000
0.388281 0.144531 0.000000
0.426094 0.141719 0.000000
0.463906 0.138906 0.000000
0.501719 0.136094 0.000000
0.539531 0.133281 0.000000
0.577344 0.130469 0.000000
0.615156 0.127656 0.000000
0.652969 0.124844 0.000000
0.690781 0.122031 0.000000
0.728594 0.119219 0.000000
0.766406 0.116406 0.000000
0.804219 0.113594 0.000000
0.842031 0.110781 0.000000
0.879844 0.107969 0.000000
0.917656 0.105156 0.000000
0.955469 0.102344 0.000000
0.993281 0.099531 0.000000
1.000000 0.096719 0.000000
1.000000 0.093906 0.000000
1.000000 0.091094 0.000000
1.000000 0.088281 0.000000
1.000000 0.085469 0.000000
0.000000 0.210562 0.000000
0.004625 0.207750 0.000000
0.042438 0.204937 0.000000
0.080250 0.202125 0.000000
0.118063 0.199313 0.000000
0.155875 0.196500 0.000000
0.193688 0.193688 0.000000
0.231500 0.190875 0.000000
0.269313 0.188062 0.000000
0.307125 0.185250 0.000000
0.344938 0.182438 0.000000
0.382750 0.179625 0.000000
0.420563 0.176813 0.000000
0.458375 0.174000 0.000000
0.496188 0.171187 0.000000
0.534000 0.168375 0.000000
0.571813 0.165563 0.000000
0.609625 0.162750 0.000000
0.647437 0.159938 0.000000
0.685250 0.157125 0.000000
0.723062 0.154312 0.000000
0.760875 0.151500 0.000000
0.798687 0.148688 0.000000
0.836500 0.145875 0.000000
0.874313 0.143063 0.000000
0.912125 0.140250 0.000000
0.949937 0.137437 0.000000
0.987750 0.134625 0.000000
1.000000 0.131812 0.000000
1.000000 0.129000 0.000000
1.000000 0.126188 0.000000
1.000000 0.123375 0.000000
1.000000 0.120562 0.000000
0.000000 0.245656 0.000000
0.000000 0.242844 0.000000
0.036906 0.240031 0.000000
0.074719 0.237219 0.000000
0.112531 0.234406 0.000000
0.150344 0.231594 0.000000
0.188156 0.228781 0.000000
0.225969 0.225969 0.000000
0.263781 0.223156 0.000000
0.301594 0.220344 0.000000
0.339406 0.217531 0.000000
0.377219 0.214719 0.000000
0.415031 0.211906 0.000000
0.452844 0.209094 0.000000
0.490656 0.206281 0.000000
0.528469 0.203469 0.000000
0.566281 0.200656 0.000000
0.604094 0.197844 0.000000
0.641906 0.195031 0.000000
0.679719 0.192219 0.000000
0.717531 0.189406 0.000000
0.755344 0.186594 0.000000
0.793156 0.183781 0.000000
0.830969 0.180969 0.000000
0.868781 0.178156 0.000000
0.906594 0.175344 0.000000
0.944406 0.172531 0.000000
0.982219 0.169719 0.000000
1.000000 0.166906 0.000000
1.000000 0.164094 0.000000
1.000000 0.161281 0.000000
1.000000 0.158469 0.000000
1.000000 0.155656 0.000000
0.000000 0.280750 0.000000
0.000000 0.277938 0.000000
0.031375 0.275125 0.000000
0.069187 0.272313 0.000000
0.107000 0.269500 0.000000
0.144813 0.266688 0.000000
0.182625 0.263875 0.000000
0.220438 0.261062 0.000000
0.258250 0.258250 0.000000
0.296063 0.255437 0.000000
0.333875 0.252625 0.000000
0.371688 0.249812 0.000000
0.409500 0.247000 0.000000
0.447313 0.244188 0.000000
0.485125 0.241375 0.000000
0.522938 0.238563 0.000000
0.560750 0.235750 0.000000
0.598562 0.232937 0.000000
0.636375 0.230125 0.000000
0.674187 0.227313 0.000000
0.712000 0.224500 0.000000
0.749812 0.221687 0.000000
0.787625 0.218875 0.000000
0.825438 0.216062 0.000000
0.863250 0.213250 0.000000
0.901062 0.210437 0.000000
0.938875 0.207625 0.000000
0.976688 0.204812 0.000000
1.000000 0.202000 0.000000
1.000000 0.199188 0.000000
1.000000 0.196375 0.000000
1.000000 0.193562 0.000000
1.000000 0.190750 0.000000
0.000000 0.315844 0.000000
0.000000 0.313031 0.000000
0.025844 0.310219 0.000000
0.063656 0.307406 0.000000
0.101469 0.304594 0.000000
0.139281 0.301781 0.000000
0.177094 0.298969 0.000000
0.214906 0.296156 0.000000
0.252719 0.293344 0.000000
0.290531 0.290531 0.000000
0.328344 0.287719 0.000000
0.366156 0.284906 0.000000
0.403969 0.282094 0.000000
0.441781 0.279281 0.000000
0.479594 0.276469 0.000000
0.517406 0.273656 0.000000
0.555219 0.270844 0.000000
0.593031 0.268031 0.000000
0.630844 0.265219 0.000000
0.668656 0.262406 0.000000
0.706469 0.259594 0.000000
0.744281 0.256781 0.000000
0.782094 0.253969 0.000000
0.819906 0.251156 0.000000
0.857719 0.248344 0.000000
0.895531 0.245531 0.000000
0.933344 0.242719 0.000000
0.971156 0.239906 0.000000
1.000000 0.237094 0.000000
1.000000 0.234281 0.000000
1.000000 0.231469 0.000000
1.000000 0.228656 0.000000
1.000000 0.225844 0.000000
0.000000 0.350938 0.000000
0.000000 0.348125 0.000000
0.020313 0.345313 0.000000
0.058125 0.342500 0.000000
0.095938 0.339688 0.000000
0.133750 0.336875 0.000000
0.171563 0.334063 0.000000
0.209375 0.331250 0.000000
0.247188 0.328437 0.000000
0.285000 0.325625 0.000000
0.322813 0.322813 0.000000
0.360625 0.320000 0.000000
0.398438 0.317188 0.000000
0.436250 0.314375 0.000000
0.474062 0.311563 0.000000
0.511875 0.308750 0.000000
0.549687 0.305938 0.000000
0.587500 0.303125 0.000000
0.625312 0.300312 0.000000
0.663125 0.297500 0.000000
0.700937 0.294687 0.000000
0.738750 0.291875 0.000000
0.776563 0.289062 0.000000
0.814375 0.286250 0.000000
0.852188 0.283438 0.000000
0.890000 0.280625 0.000000
0.927813 0.277813 0.000000
0.965625 0.275000 0.000000
1.000000 0.272188 0.000000
1.000000 0.269375 0.000000
1.000000 0.266563 0.000000
1.000000 0.263750 0.000000
1.000000 0.260937 0.000000
0.000000 0.386031 0.000000
0.000000 0.383219 0.000000
0.014781 0.380406 0.000000
0.052594 0.377594 0.000000
0.090406 0.374781 0.000000
0.128219 0.371969 0.000000
0.166031 0.369156 0.000000
0.203844 0.366344 0.000000
0.241656 0.363531 0.000000
0.279469 0.360719 0.000000
0.317281 0.357906 0.000000
0.355094 0.355094 0.000000
0.392906 0.352281 0.000000
0.430719 0.349469 0.000000
0.468531 0.346656 0.000000
0.506344 0.343844 0.000000
0.544156 0.341031 0.000000
0.581969 0.338219 0.000000
0.619781 0.335406 0.000000
0.657594 0.332594 0.000000
0.695406 0.329781 0.000000
0.733219 0.326969 0.000000
0.771031 0.324156 0.000000
0.808844 0.321344 0.000000
0.846656 0.318531 0.000000
0.884469 0.315719 0.000000
0.922281 0.312906 0.000000
0.960094 0.310094 0.000000
0.997906 0.307281 0.000000
1.000000 0.304469 0.000000
1.000000 0.301656 0.000000
1.000000 0.298844 0.000000
1.000000 0.296031 0.000000
0.000000 0.421125 0.000000
0.000000 0.418312 0.000000
0.009250 0.415500 0.000000
0.047062 0.412687 0.000000
0.084875 0.409875 0.000000
0.122688 0.407062 0.000000
0.160500 0.404250 0.000000
0.198313 0.401438 0.000000
0.236125 0.398625 0.000000
0.273938 0.395813 0.000000
0.311750 0.393000 0.000000
0.349562 0.390188 0.000000
0.387375 0.387375 0.000000
0.425187 0.384562 0.000000
0.463000 0.381750 0.000000
0.500812 0.378937 0.000000
0.538625 0.376125 0.000000
0.576438 0.373312 0.000000
0.614250 0.370500 0.000000
0.652062 0.367688 0.000000
0.689875 0.364875 0.000000
0.727688 0.362063 0.000000
0.765500 0.359250 0.000000
0.803312 0.356437 0.000000
0.841125 0.353625 0.000000
0.878938 0.350812 0.000000
0.916750 0.348000 0.000000
0.954562 0.345187 0.000000
0.992375 0.342375 0.000000
1.000000 0.339562 0.000000
1.000000 0.336750 0.000000
1.000000 0.333937 0.000000
1.000000 0.331125 0.000000
0.000000 0.456219 0.000000
0.000000 0.453406 0.000000
0.003719 0.450594 0.000000
0.041531 0.447781 0.000000
0.079344 0.444969 0.000000
0.117156 0.442156 0.000000
0.154969 0.439344 0.000000
0.192781 0.436531 0.000000
0.230594 0.433719 0.000000
0.268406 0.430906 0.000000
0.306219 0.428094 0.000000
0.344031 0.425281 0.000000
0.381844 0.422469 0.000000
0.419656 0.419656 0.000000
0.457469 0.416844 0.000000
0.495281 0.414031 0.000000
0.533094 0.411219 0.000000
0.570906 0.408406 0.000000
0.608719 0.405594 0.000000
0.646531 0.402781 0.000000
0.684344 0.399969 0.000000
0.722156 0.397156 0.000000
0.759969 0.394344 0.000000
0.797781 0.391531 0.000000
0.835594 0.388719 0.000000
0.873406 0.385906 0.000000
0.911219 0.383094 0.000000
0.949031 0.380281 0.000000
0.986844 0.377469 0.000000
1.000000 0.374656 0.000000
1.000000 0.371844 0.000000
1.000000 0.369031 0.000000
1.000000 0.366219 0.000000
0.000000 0.491313 0.000000
0.000000 0.488500 0.000000
0.000000 0.485688 0.000000
0.036000 0.482875 0.000000
0.073813 0.480063 0.000000
0.111625 0.477250 0.000000
0.149438 0.474438 0.000000
0.187250 0.471625 0.000000
0.225062 0.468812 0.000000
0.262875 0.466000 0.000000
0.300687 0.463187 0.000000
0.338500 0.460375 0.000000
0.376312 0.457562 0.000000
0.414125 0.454750 0.000000
0.451937 0.451937 0.000000
0.489750 0.449125 0.000000
0.527563 0.446313 0.000000
0.565375 0.443500 0.000000
0.603187 0.440688 0.000000
0.641000 0.437875 0.000000
0.678813 0.435063 0.000000
0.716625 0.432250 0.000000
0.754438 0.429438 0.000000
0.792250 0.426625 0.000000
0.830063 0.423813 0.000000
0.867875 0.421000 0.000000
0.905687 0.418187 0.000000
0.943500 0.415375 0.000000
0.981313 0.412562 0.000000
1.000000 0.409750 0.000000
1.000000 0.406938 0.000000
1.000000 0.404125 0.000000
1.000000 0.401312 0.000000
0.000000 0.526406 0.000000
0.000000 0.523594 0.000000
0.000000 0.520781 0.000000
0.030469 0.517969 0.000000
0.068281 0.515156 0.000000
0.106094 0.512344 0.000000
0.143906 0.509531 0.000000
0.181719 0.506719 0.000000
0.219531 0.503906 0.000000
0.257344 0.501094 0.000000
0.295156 0.498281 0.000000
0.332969 0.495469 0.000000
0.370781 0.492656 0.000000
0.408594 0.489844 0.000000
0.446406 0.487031 0.000000
0.484219 0.484219 0.000000
0.522031 0.481406 0.000000
0.559844 0.478594 0.000000
0.597656 0.475781 0.000000
0.635469 0.472969 0.000000
0.673281 0.470156 0.000000
0.711094 0.467344 0.000000
0.748906 0.464531 0.000000
0.786719 0.461719 0.000000
0.824531 0.458906 0.000000
0.862344 0.456094 0.000000
0.900156 0.453281 0.000000
0.937969 0.450469 0.000000
0.975781 0.447656 0.000000
1.000000 0.444844 0.000000
1.000000 0.442031 0.000000
1.000000 0.439219 0.000000
1.000000 0.436406 0.000000
0.000000 0.561500 0.000000
0.000000 0.558688 0.000000
0.000000 0.555875 0.000000
0.024938 0.553063 0.000000
0.062750 0.550250 0.000000
0.100562 0.547438 0.000000
0.138375 0.544625 0.000000
0.176187 0.541813 0.000000
0.214000 0.539000 0.000000
0.251812 0.536188 0.000000
0.289625 0.533375 0.000000
0.327437 0.530563 0.000000
0.365250 0.527750 0.000000
0.403062 0.524938 0.000000
0.440875 0.522125 0.000000
0.478687 0.519313 0.000000
0.516500 0.516500 0.000000
0.554312 0.513687 0.000000
0.592125 0.510875 0.000000
0.629938 0.508062 0.000000
0.667750 0.505250 0.000000
0.705562 0.502437 0.000000
0.743375 0.499625 0.000000
0.781188 0.496812 0.000000
0.819000 0.494000 0.000000
0.856812 0.491187 0.000000
0.894625 0.488375 0.000000
0.932438 0.485563 0.000000
0.970250 0.482750 0.000000
1.000000 0.479938 0.000000
1.000000 0.477125 0.000000
1.000000 0.474313 0.000000
1.000000 0.471500 0.000000
0.000000 0.596594 0.000000
0.000000 0.593781 0.000000
0.000000 0.590969 0.000000
0.019406 0.588156 0.000000
0.057219 0.585344 0.000000
0.095031 0.582531 0.000000
0.132844 0.579719 0.000000
0.170656 0.576906 0.000000
0.208469 0.574094 0.000000
0.246281 0.571281 0.000000
0.284094 0.568469 0.000000
0.321906 0.565656 0.000000
0.359719 0.562844 0.000000
0.397531 0.560031 0.000000
0.435344 0.557219 0.000000
0.473156 0.554406 0.000000
0.510969 0.551594 0.000000
0.548781 0.548781 0.000000
0.586594 0.545969 0.000000
0.624406 0.543156 0.000000
0.662219 0.540344 0.000000
0.700031 0.537531 0.000000
0.737844 0.534719 0.000000
0.775656 0.531906 0.000000
0.813469 0.529094 0.000000
0.851281 0.526281 0.000000
0.889094 0.523469 0.000000
0.926906 0.520656 0.000000
0.964719 0.517844 0.000000
1.000000 0.515031 0.000000
1.000000 0.512219 0.000000
1.000000 0.509406 0.000000
1.000000 0.506594 0.000000
0.000000 0.631687 0.000000
0.000000 0.628875 0.000000
0.000000 0.626062 0.000000
0.013875 0.623250 0.000000
0.051687 0.620437 0.000000
0.089500 0.617625 0.000000
0.127312 0.614812 0.000000
0.165125 0.612000 0.000000
0.202937 0.609187 0.000000
0.240750 0.606375 0.000000
0.278562 0.603563 0.000000
0.316375 0.600750 0.000000
0.354187 0.597938 0.000000
0.392000 0.595125 0.000000
0.429812 0.592313 0.000000
0.467625 0.589500 0.000000
0.505437 0.586688 0.000000
0.543250 0.583875 0.000000
0.581063 0.581063 0.000000
0.618875 0.578250 0.000000
0.656688 0.575438 0.000000
0.694500 0.572625 0.000000
0.732313 0.569813 0.000000
0.770125 0.567000 0.000000
0.807937 0.564187 0.000000
0.845750 0.561375 0.000000
0.883563 0.558563 0.000000
0.921375 0.555750 0.000000
0.959188 0.552937 0.000000
0.997000 0.550125 0.000000
1.000000 0.547312 0.000000
1.000000 0.544500 0.000000
1.000000 0.541687 0.000000
0.000000 0.666781 0.000000
0.000000 0.663969 0.000000
0.000000 0.661156 0.000000
0.008344 0.658344 0.000000
0.046156 0.655531 0.000000
0.083969 0.652719 0.000000
0.121781 0.649906 0.000000
0.159594 0.647094 0.000000
0.197406 0.644281 0.000000
0.235219 0.641469 0.000000
0.273031 0.638656 0.000000
0.310844 0.635844 0.000000
0.348656 0.633031 0.000000
0.386469 0.630219 0.000000
0.424281 0.627406 0.000000
0.462094 0.624594 0.000000
0.499906 0.621781 0.000000
0.537719 0.618969 0.000000
0.575531 0.616156 0.000000
0.613344 0.613344 0.000000
0.651156 0.610531 0.000000
0.688969 0.607719 0.000000
0.726781 0.604906 0.000000
0.764594 0.602094 0.000000
0.802406 0.599281 0.000000
0.840219 0.596469 0.000000
0.878031 0.593656 0.000000
0.915844 0.590844 0.000000
0.953656 0.588031 0.000000
0.991469 0.585219 0.000000
1.000000 0.582406 0.000000
1.000000 0.579594 0.000000
1.000000 0.576781 0.000000
0.000000 0.701875 0.000000
0.000000 0.699063 0.000000
0.000000 0.696250 0.000000
0.002812 0.693438 0.000000
0.040625 0.690625 0.000000
0.078437 0.687812 0.000000
0.116250 0.685000 0.000000
0.154062 0.682188 0.000000
0.191875 0.679375 0.000000
0.229688 0.676562 0.000000
0.267500 0.673750 0.000000
0.305312 0.670937 0.000000
0.343125 0.668125 0.000000
0.380937 0.665312 0.000000
0.418750 0.662500 0.000000
0.456563 0.659687 0.000000
0.494375 0.656875 0.000000
0.532188 0.654062 0.000000
0.570000 0.651250 0.000000
0.607812 0.648438 0.000000
0.645625 0.645625 0.000000
0.683438 0.642813 0.000000
0.721250 0.640000 0.000000
0.759062 0.637188 0.000000
0.796875 0.634375 0.000000
0.834688 0.631563 0.000000
0.872500 0.628750 0.000000
0.910313 0.625938 0.000000
0.948125 0.623125 0.000000
0.985938 0.620313 0.000000
1.000000 0.617500 0.000000
1.000000 0.614688 0.000000
1.000000 0.611875 0.000000
0.000000 0.736969 0.000000
0.000000 0.734156 0.000000
0.000000 0.731344 0.000000
0.000000 0.728531 0.000000
0.035094 0.725719 0.000000
0.072906 0.722906 0.000000
0.110719 0.720094 0.000000
0.148531 0.717281 0.000000
0.186344 0.714469 0.000000
0.224156 0.711656 0.000000
0.261969 0.708844 0.000000
0.299781 0.706031 0.000000
0.337594 0.703219 0.000000
0.375406 0.700406 0.000000
0.413219 0.697594 0.000000
0.451031 0.694781 0.000000
0.488844 0.691969 0.000000
0.526656 0.689156 0.000000
0.564469 0.686344 0.000000
0.602281 0.683531 0.000000
0.640094 0.680719 0.000000
0.677906 0.677906 0.000000
0.715719 0.675094 0.000000
0.753531 0.672281 0.000000
0.791344 0.669469 0.000000
0.829156 0.666656 0.000000
0.866969 0.663844 0.000000
0.904781 0.661031 0.000000
0.942594 0.658219 0.000000
0.980406 0.655406 0.000000
1.000000 0.652594 0.000000
1.000000 0.649781 0.000000
1.000000 0.646969 0.000000
0.000000 0.772063 0.000000
0.000000 0.769250 0.000000
0.000000 0.766438 0.000000
0.000000 0.763625 0.000000
0.029562 0.760813 0.000000
0.067375 0.758000 0.000000
0.105187 0.755188 0.000000
0.143000 0.752375 0.000000
0.180812 0.749563 0.000000
0.218625 0.746750 0.000000
0.256437 0.743938 0.000000
0.294250 0.741125 0.000000
0.332063 0.738313 0.000000
0.369875 0.735500 0.000000
0.407687 0.732688 0.000000
0.445500 0.729875 0.000000
0.483313 0.727063 0.000000
0.521125 0.724250 0.000000
0.558937 0.721437 0.000000
0.596750 0.718625 0.000000
0.634563 0.715813 0.000000
0.672375 0.713000 0.000000
0.710187 0.710187 0.000000
0.748000 0.707375 0.000000
0.785813 0.704562 0.000000
0.823625 0.701750 0.000000
0.861438 0.698937 0.000000
0.899250 0.696125 0.000000
0.937063 0.693312 0.000000
0.974875 0.690500 0.000000
1.000000 0.687688 0.000000
1.000000 0.684875 0.000000
1.000000 0.682063 0.000000
0.000000 0.807156 0.000000
0.000000 0.804344 0.000000
0.000000 0.801531 0.000000
0.000000 0.798719 0.000000
0.024031 0.795906 0.000000
0.061844 0.793094 0.000000
0.099656 0.790281 0.000000
0.137469 0.787469 0.000000
0.175281 0.784656 0.000000
0.213094 0.781844 0.000000
0.250906 0.779031 0.000000
0.288719 0.776219 0.000000
0.326531 0.773406 0.000000
0.364344 0.770594 0.000000
0.402156 0.767781 0.000000
0.439969 0.764969 0.000000
0.477781 0.762156 0.000000
0.515594 0.759344 0.000000
0.553406 0.756531 0.000000
0.591219 0.753719 0.000000
0.629031 0.750906 0.000000
0.666844 0.748094 0.000000
0.704656 0.745281 0.000000
0.742469 0.742469 0.000000
0.780281 0.739656 0.000000
0.818094 0.736844 0.000000
0.855906 0.734031 0.000000
0.893719 0.731219 0.000000
0.931531 0.728406 0.000000
0.969344 0.725594 0.000000
1.000000 0.722781 0.000000
1.000000 0.719969 0.000000
1.000000 0.717156 0.000000
0.000000 0.842250 0.000000
0.000000 0.839438 0.000000
0.000000 0.836625 0.000000
0.000000 0.833813 0.000000
0.018500 0.831000 0.000000
0.056312 0.828188 0.000000
0.094125 0.825375 0.000000
0.131937 0.822562 0.000000
0.169750 0.819750 0.000000
0.207562 0.816938 0.000000
0.245375 0.814125 0.000000
0.283187 0.811312 0.000000
0.321000 0.808500 0.000000
0.358812 0.805688 0.000000
0.396625 0.802875 0.000000
0.434438 0.800063 0.000000
0.472250 0.797250 0.000000
0.510062 0.794438 0.000000
0.547875 0.791625 0.000000
0.585688 0.788813 0.000000
0.623500 0.786000 0.000000
0.661312 0.783188 0.000000
0.699125 0.780375 0.000000
0.736938 0.777563 0.000000
0.774750 0.774750 0.000000
0.812562 0.771937 0.000000
0.850375 0.769125 0.000000
0.888188 0.766313 0.000000
0.926000 0.763500 0.000000
0.963812 0.760687 0.000000
1.000000 0.757875 0.000000
1.000000 0.755062 0.000000
1.000000 0.752250 0.000000
0.000000 0.877344 0.000000
0.000000 0.874531 0.000000
0.000000 0.871719 0.000000
0.000000 0.868906 0.000000
0.012969 0.866094 0.000000
0.050781 0.863281 0.000000
0.088594 0.860469 0.000000
0.126406 0.857656 0.000000
0.164219 0.854844 0.000000
0.202031 0.852031 0.000000
0.239844 0.849219 0.000000
0.277656 0.846406 0.000000
0.315469 0.843594 0.000000
0.353281 0.840781 0.000000
0.391094 0.837969 0.000000
0.428906 0.835156 0.000000
0.466719 0.832344 0.000000
0.504531 0.829531 0.000000
0.542344 0.826719 0.000000
0.580156 0.823906 0.000000
0.617969 0.821094 0.000000
0.655781 0.818281 0.000000
0.693594 0.815469 0.000000
0.731406 0.812656 0.000000
0.769219 0.809844 0.000000
0.807031 0.807031 0.000000
0.844844 0.804219 0.000000
0.882656 0.801406 0.000000
0.920469 0.798594 0.000000
0.958281 0.795781 0.000000
0.996094 0.792969 0.000000
1.000000 0.790156 0.000000
1.000000 0.787344 0.000000
0.000000 0.912438 0.000000
0.000000 0.909625 0.000000
0.000000 0.906813 0.000000
0.000000 0.904000 0.000000
0.007437 0.901188 0.000000
0.045250 0.898375 0.000000
0.083062 0.895563 0.000000
0.120875 0.892750 0.000000
0.158687 0.889938 0.000000
0.196500 0.887125 0.000000
0.234312 0.884313 0.000000
0.272125 0.881500 0.000000
0.309938 0.878688 0.000000
0.347750 0.875875 0.000000
0.385563 0.873063 0.000000
0.423375 0.870250 0.000000
0.461187 0.867437 0.000000
0.499000 0.864625 0.000000
0.536813 0.861812 0.000000
0.574625 0.859000 0.000000
0.612437 0.856187 0.000000
0.650250 0.853375 0.000000
0.688063 0.850562 0.000000
0.725875 0.847750 0.000000
0.763687 0.844938 0.000000
0.801500 0.842125 0.000000
0.839313 0.839313 0.000000
0.877125 0.836500 0.000000
0.914937 0.833688 0.000000
