dashboard/static/social/luts/vibrant.cube
TITLE "vibrant"
LUT_3D_SIZE 5
0.000000 0.000000 0.000000
0.302500 0.000000 0.000000
0.605000 0.000000 0.000000
0.907500 0.000000 0.000000
1.000000 0.000000 0.000000
0.000000 0.280750 0.000000
0.258250 0.258250 0.000000
0.560750 0.235750 0.000000
0.863250 0.213250 0.000000
1.000000 0.190750 0.000000
0.000000 0.561500 0.000000
0.214000 0.539000 0.000000
0.516500 0.516500 0.000000
0.819000 0.494000 0.000000
1.000000 0.471500 0.000000
0.000000 0.842250 0.000000
0.169750 0.819750 0.000000
0.472250 0.797250 0.000000
0.774750 0.774750 0.000000
1.000000 0.752250 0.000000
0.000000 1.000000 0.000000
0.125500 1.000000 0.000000
0.428000 1.000000 0.000000
0.730500 1.000000 0.000000
1.000000 1.000000 0.000000
0.000000 0.000000 0.316750
0.294250 0.000000 0.294250
0.596750 0.000000 0.271750
0.899250 0.000000 0.249250
1.000000 0.000000 0.226750
0.000000 0.272500 0.272500
0.250000 0.250000 0.250000
0.552500 0.227500 0.227500
0.855000 0.205000 0.205000
1.000000 0.182500 0.182500
0.000000 0.553250 0.228250
0.205750 0.530750 0.205750
0.508250 0.508250 0.183250
0.810750 0.485750 0.160750
1.000000 0.463250 0.138250
0.000000 0.834000 0.184000
0.161500 0.811500 0.161500
0.464000 0.789000 0.139000
0.766500 0.766500 0.116500
1.000000 0.744000 0.094000
0.000000 1.000000 0.139750
0.117250 1.000000 0.117250
0.419750 1.000000 0.094750
0.722250 1.000000 0.072250
1.000000 1.000000 0.049750
0.000000 0.000000 0.633500
0.286000 0.000000 0.611000
0.588500 0.000000 0.588500
0.891000 0.000000 0.566000
1.000000 0.000000 0.543500
0.000000 0.264250 0.589250
0.241750 0.241750 0.566750
0.544250 0.219250 0.544250
0.846750 0.196750 0.521750
1.000000 0.174250 0.499250
0.000000 0.545000 0.545000
0.197500 0.522500 0.522500
0.500000 0.500000 0.500000
0.802500 0.477500 0.477500
1.000000 0.455000 0.455000
0.000000 0.825750 0.500750
0.153250 0.803250 0.478250
0.455750 0.780750 0.455750
0.758250 0.758250 0.433250
1.000000 0.735750 0.410750
0.000000 1.000000 0.456500
0.109000 1.000000 0.434000
0.411500 1.000000 0.411500
0.714000 1.000000 0.389000
1.000000 1.000000 0.366500
0.000000 0.000000 0.950250
0.277750 0.000000 0.927750
0.580250 0.000000 0.905250
0.882750 0.000000 0.882750
1.000000 0.000000 0.860250
0.000000 0.256000 0.906000
0.233500 0.233500 0.883500
0.536000 0.211000 0.861000
0.838500 0.188500 0.838500
1.000000 0.166000 0.816000
0.000000 0.536750 0.861750
0.189250 0.514250 0.839250
0.491750 0.491750 0.816750
0.794250 0.469250 0.794250
1.000000 0.446750 0.771750
0.000000 0.817500 0.817500
0.145000 0.795000 0.795000
0.447500 0.772500 0.772500
0.750000 0.750000 0.750000
1.000000 0.727500 0.727500
0.000000 1.000000 0.773250
0.100750 1.000000 0.750750
0.403250 1.000000 0.728250
0.705750 1.000000 0.705750
1.000000 1.000000 0.683250
0.000000 0.000000 1.000000
0.269500 0.000000 1.000000
0.572000 0.000000 1.000000
0.874500 0.000000 1.000000
1.000000 0.000000 1.000000
0.000000 0.247750 1.000000
0.225250 0.225250 1.000000
0.527750 0.202750 1.000000
0.830250 0.180250 1.000000
1.000000 0.157750 1.000000
0.000000 0.528500 1.000000
0.181000 0.506000 1.000000
0.483500 0.483500 1.000000
0.786000 0.461000 1.000000
1.000000 0.438500 1.000000
0.000000 0.809250 1.000000
0.136750 0.786750 1.000000
0.439250 0.764250 1.000000
0.741750 0.741750 1.000000
1.000000 0.719250 1.000000
0.000000 1.000000 1.000000
0.092500 1.000000 1.000000
0.395000 1.000000 1.000000
0.697500 1.000000 1.000000
1.000000 1.000000 1.000000
