dashboard/static/social/luts/warm.cube
TITLE "warm"
LUT_3D_SIZE 33
0.000000 0.000000 0.000000
0.034375 0.000000 0.000000
0.068750 0.000000 0.000000
0.103125 0.000000 0.000000
0.137500 0.000000 0.000000
0.171875 0.000000 0.000000
0.206250 0.000000 0.000000
0.240625 0.000000 0.000000
0.275000 0.000000 0.000000
0.309375 0.000000 0.000000
0.343750 0.000000 0.000000
0.378125 0.000000 0.000000
0.412500 0.000000 0.000000
0.446875 0.000000 0.000000
0.481250 0.000000 0.000000
0.515625 0.000000 0.000000
0.550000 0.000000 0.000000
0.584375 0.000000 0.000000
0.618750 0.000000 0.000000
0.653125 0.000000 0.000000
0.687500 0.000000 0.000000
0.721875 0.000000 0.000000
0.756250 0.000000 0.000000
0.790625 0.000000 0.000000
0.825000 0.000000 0.000000
0.859375 0.000000 0.000000
0.893750 0.000000 0.000000
0.928125 0.000000 0.000000
0.962500 0.000000 0.000000
0.996875 0.000000 0.000000
1.000000 0.000000 0.000000
1.000000 0.000000 0.000000
1.000000 0.000000 0.000000
0.000000 0.031875 0.000000
0.034375 0.031875 0.000000
0.068750 0.031875 0.000000
0.103125 0.031875 0.000000
0.137500 0.031875 0.000000
0.171875 0.031875 0.000000
0.206250 0.031875 0.000000
0.240625 0.031875 0.000000
0.275000 0.031875 0.000000
0.309375 0.031875 0.000000
0.343750 0.031875 0.000000
0.378125 0.031875 0.000000
0.412500 0.031875 0.000000
0.446875 0.031875 0.000000
0.481250 0.031875 0.000000
0.515625 0.031875 0.000000
0.550000 0.031875 0.000000
0.584375 0.031875 0.000000
0.618750 0.031875 0.000000
0.653125 0.031875 0.000000
0.687500 0.031875 0.000000
0.721875 0.031875 0.000000
0.756250 0.031875 0.000000
0.790625 0.031875 0.000000
0.825000 0.031875 0.000000
0.859375 0.031875 0.000000
0.893750 0.031875 0.000000
0.928125 0.031875 0.000000
0.962500 0.031875 0.000000
0.996875 0.031875 0.000000
1.000000 0.031875 0.000000
1.000000 0.031875 0.000000
1.000000 0.031875 0.000000
0.000000 0.063750 0.000000
0.034375 0.063750 0.000000
0.068750 0.063750 0.000000
0.103125 0.063750 0.000000
0.137500 0.063750 0.000000
0.171875 0.063750 0.000000
0.206250 0.063750 0.000000
0.240625 0.063750 0.000000
0.275000 0.063750 0.000000
0.309375 0.063750 0.000000
0.343750 0.063750 0.000000
0.378125 0.063750 0.000000
0.412500 0.063750 0.000000
0.446875 0.063750 0.000000
0.481250 0.063750 0.000000
0.515625 0.063750 0.000000
0.550000 0.063750 0.000000
0.584375 0.063750 0.000000
0.618750 0.063750 0.000000
0.653125 0.063750 0.000000
0.687500 0.063750 0.000000
0.721875 0.063750 0.000000
0.756250 0.063750 0.000000
0.790625 0.063750 0.000000
0.825000 0.063750 0.000000
0.859375 0.063750 0.000000
0.893750 0.063750 0.000000
0.928125 0.063750 0.000000
0.962500 0.063750 0.000000
0.996875 0.063750 0.000000
1.000000 0.063750 0.000000
1.000000 0.063750 0.000000
1.000000 0.063750 0.000000
0.000000 0.095625 0.000000
0.034375 0.095625 0.000000
0.068750 0.095625 0.000000
0.103125 0.095625 0.000000
0.137500 0.095625 0.000000
0.171875 0.095625 0.000000
0.206250 0.095625 0.000000
0.240625 0.095625 0.000000
0.275000 0.095625 0.000000
0.309375 0.095625 0.000000
0.343750 0.095625 0.000000
0.378125 0.095625 0.000000
0.412500 0.095625 0.000000
0.446875 0.095625 0.000000
0.481250 0.095625 0.000000
0.515625 0.095625 0.000000
0.550000 0.095625 0.000000
0.584375 0.095625 0.000000
0.618750 0.095625 0.000000
0.653125 0.095625 0.000000
0.687500 0.095625 0.000000
0.721875 0.095625 0.000000
0.756250 0.095625 0.000000
0.790625 0.095625 0.000000
0.825000 0.095625 0.000000
0.859375 0.095625 0.000000
0.893750 0.095625 0.000000
0.928125 0.095625 0.000000
0.962500 0.095625 0.000000
0.996875 0.095625 0.000000
1.000000 0.095625 0.000000
1.000000 0.095625 0.000000
1.000000 0.095625 0.000000
0.000000 0.127500 0.000000
0.034375 0.127500 0.000000
0.068750 0.127500 0.000000
0.103125 0.127500 0.000000
0.137500 0.127500 0.000000
0.171875 0.127500 0.000000
0.206250 0.127500 0.000000
0.240625 0.127500 0.000000
0.275000 0.127500 0.000000
0.309375 0.127500 0.000000
0.343750 0.127500 0.000000
0.378125 0.127500 0.000000
0.412500 0.127500 0.000000
0.446875 0.127500 0.000000
0.481250 0.127500 0.000000
0.515625 0.127500 0.000000
0.550000 0.127500 0.000000
0.584375 0.127500 0.000000
0.618750 0.127500 0.000000
0.653125 0.127500 0.000000
0.687500 0.127500 0.000000
0.721875 0.127500 0.000000
0.756250 0.127500 0.000000
0.790625 0.127500 0.000000
0.825000 0.127500 0.000000
0.859375 0.127500 0.000000
0.893750 0.127500 0.000000
0.928125 0.127500 0.000000
0.962500 0.127500 0.000000
0.996875 0.127500 0.000000
1.000000 0.127500 0.000000
1.000000 0.127500 0.000000
1.000000 0.127500 0.000000
0.000000 0.159375 0.000000
0.034375 0.159375 0.000000
0.068750 0.159375 0.000000
0.103125 0.159375 0.000000
0.137500 0.159375 0.000000
0.171875 0.159375 0.000000
0.206250 0.159375 0.000000
0.240625 0.159375 0.000000
0.275000 0.159375 0.000000
0.309375 0.159375 0.000000
0.343750 0.159375 0.000000
0.378125 0.159375 0.000000
0.412500 0.159375 0.000000
0.446875 0.159375 0.000000
0.481250 0.159375 0.000000
0.515625 0.159375 0.000000
0.550000 0.159375 0.000000
0.584375 0.159375 0.000000
0.618750 0.159375 0.000000
0.653125 0.159375 0.000000
0.687500 0.159375 0.000000
0.721875 0.159375 0.000000
0.756250 0.159375 0.000000
0.790625 0.159375 0.000000
0.825000 0.159375 0.000000
0.859375 0.159375 0.000000
0.893750 0.159375 0.000000
0.928125 0.159375 0.000000
0.962500 0.159375 0.000000
0.996875 0.159375 0.000000
1.000000 0.159375 0.000000
1.000000 0.159375 0.000000
1.000000 0.159375 0.000000
0.000000 0.191250 0.000000
0.034375 0.191250 0.000000
0.068750 0.191250 0.000000
0.103125 0.191250 0.000000
0.137500 0.191250 0.000000
0.171875 0.191250 0.000000
0.206250 0.191250 0.000000
0.240625 0.191250 0.000000
0.275000 0.191250 0.000000
0.309375 0.191250 0.000000
0.343750 0.191250 0.000000
0.378125 0.191250 0.000000
0.412500 0.191250 0.000000
0.446875 0.191250 0.000000
0.481250 0.191250 0.000000
0.515625 0.191250 0.000000
0.550000 0.191250 0.000000
0.584375 0.191250 0.000000
0.618750 0.191250 0.000000
0.653125 0.191250 0.000000
0.687500 0.191250 0.000000
0.721875 0.191250 0.000000
0.756250 0.191250 0.000000
0.790625 0.191250 0.000000
0.825000 0.191250 0.000000
0.859375 0.191250 0.000000
0.893750 0.191250 0.000000
0.928125 0.191250 0.000000
0.962500 0.191250 0.000000
0.996875 0.191250 0.000000
1.000000 0.191250 0.000000
1.000000 0.191250 0.000000
1.000000 0.191250 0.000000
0.000000 0.223125 0.000000
0.034375 0.223125 0.000000
0.068750 0.223125 0.000000
0.103125 0.223125 0.000000
0.137500 0.223125 0.000000
0.171875 0.223125 0.000000
0.206250 0.223125 0.000000
0.240625 0.223125 0.000000
0.275000 0.223125 0.000000
0.309375 0.223125 0.000000
0.343750 0.223125 0.000000
0.378125 0.223125 0.000000
0.412500 0.223125 0.000000
0.446875 0.223125 0.000000
0.481250 0.223125 0.000000
0.515625 0.223125 0.000000
0.550000 0.223125 0.000000
0.584375 0.223125 0.000000
0.618750 0.223125 0.000000
0.653125 0.223125 0.000000
0.687500 0.223125 0.000000
0.721875 0.223125 0.000000
0.756250 0.223125 0.000000
0.790625 0.223125 0.000000
0.825000 0.223125 0.000000
0.859375 0.223125 0.000000
0.893750 0.223125 0.000000
0.928125 0.223125 0.000000
0.962500 0.223125 0.000000
0.996875 0.223125 0.000000
1.000000 0.223125 0.000000
1.000000 0.223125 0.000000
1.000000 0.223125 0.000000
0.000000 0.255000 0.000000
0.034375 0.255000 0.000000
0.068750 0.255000 0.000000
0.103125 0.255000 0.000000
0.137500 0.255000 0.000000
0.171875 0.255000 0.000000
0.206250 0.255000 0.000000
0.240625 0.255000 0.000000
0.275000 0.255000 0.000000
0.309375 0.255000 0.000000
0.343750 0.255000 0.000000
0.378125 0.255000 0.000000
0.412500 0.255000 0.000000
0.446875 0.255000 0.000000
0.481250 0.255000 0.000000
0.515625 0.255000 0.000000
0.550000 0.255000 0.000000
0.584375 0.255000 0.000000
0.618750 0.255000 0.000000
0.653125 0.255000 0.000000
0.687500 0.255000 0.000000
0.721875 0.255000 0.000000
0.756250 0.255000 0.000000
0.790625 0.255000 0.000000
0.825000 0.255000 0.000000
0.859375 0.255000 0.000000
0.893750 0.255000 0.000000
0.928125 0.255000 0.000000
0.962500 0.255000 0.000000
0.996875 0.255000 0.000000
1.000000 0.255000 0.000000
1.000000 0.255000 0.000000
1.000000 0.255000 0.000000
0.000000 0.286875 0.000000
0.034375 0.286875 0.000000
0.068750 0.286875 0.000000
0.103125 0.286875 0.000000
0.137500 0.286875 0.000000
0.171875 0.286875 0.000000
0.206250 0.286875 0.000000
0.240625 0.286875 0.000000
0.275000 0.286875 0.000000
0.309375 0.286875 0.000000
0.343750 0.286875 0.000000
0.378125 0.286875 0.000000
0.412500 0.286875 0.000000
0.446875 0.286875 0.000000
0.481250 0.286875 0.000000
0.515625 0.286875 0.000000
0.550000 0.286875 0.000000
0.584375 0.286875 0.000000
0.618750 0.286875 0.000000
0.653125 0.286875 0.000000
0.687500 0.286875 0.000000
0.721875 0.286875 0.000000
0.756250 0.286875 0.000000
0.790625 0.286875 0.000000
0.825000 0.286875 0.000000
0.859375 0.286875 0.000000
0.893750 0.286875 0.000000
0.928125 0.286875 0.000000
0.962500 0.286875 0.000000
0.996875 0.286875 0.000000
1.000000 0.286875 0.000000
1.000000 0.286875 0.000000
1.000000 0.286875 0.000000
0.000000 0.318750 0.000000
0.034375 0.318750 0.000000
0.068750 0.318750 0.000000
0.103125 0.318750 0.000000
0.137500 0.318750 0.000000
0.171875 0.318750 0.000000
0.206250 0.318750 0.000000
0.240625 0.318750 0.000000
0.275000 0.318750 0.000000
0.309375 0.318750 0.000000
0.343750 0.318750 0.000000
0.378125 0.318750 0.000000
0.412500 0.318750 0.000000
0.446875 0.318750 0.000000
0.481250 0.318750 0.000000
0.515625 0.318750 0.000000
0.550000 0.318750 0.000000
0.584375 0.318750 0.000000
0.618750 0.318750 0.000000
0.653125 0.318750 0.000000
0.687500 0.318750 0.000000
0.721875 0.318750 0.000000
0.756250 0.318750 0.000000
0.790625 0.318750 0.000000
0.825000 0.318750 0.000000
0.859375 0.318750 0.000000
0.893750 0.318750 0.000000
0.928125 0.318750 0.000000
0.962500 0.318750 0.000000
0.996875 0.318750 0.000000
1.000000 0.318750 0.000000
1.000000 0.318750 0.000000
1.000000 0.318750 0.000000
0.000000 0.350625 0.000000
0.034375 0.350625 0.000000
0.068750 0.350625 0.000000
0.103125 0.350625 0.000000
0.137500 0.350625 0.000000
0.171875 0.350625 0.000000
0.206250 0.350625 0.000000
0.240625 0.350625 0.000000
0.275000 0.350625 0.000000
0.309375 0.350625 0.000000
0.343750 0.350625 0.000000
0.378125 0.350625 0.000000
0.412500 0.350625 0.000000
0.446875 0.350625 0.000000
0.481250 0.350625 0.000000
0.515625 0.350625 0.000000
0.550000 0.350625 0.000000
0.584375 0.350625 0.000000
0.618750 0.350625 0.000000
0.653125 0.350625 0.000000
0.687500 0.350625 0.000000
0.721875 0.350625 0.000000
0.756250 0.350625 0.000000
0.790625 0.350625 0.000000
0.825000 0.350625 0.000000
0.859375 0.350625 0.000000
0.893750 0.350625 0.000000
0.928125 0.350625 0.000000
0.962500 0.350625 0.000000
0.996875 0.350625 0.000000
1.000000 0.350625 0.000000
1.000000 0.350625 0.000000
1.000000 0.350625 0.000000
0.000000 0.382500 0.000000
0.034375 0.382500 0.000000
0.068750 0.382500 0.000000
0.103125 0.382500 0.000000
0.137500 0.382500 0.000000
0.171875 0.382500 0.000000
0.206250 0.382500 0.000000
0.240625 0.382500 0.000000
0.275000 0.382500 0.000000
0.309375 0.382500 0.000000
0.343750 0.382500 0.000000
0.378125 0.382500 0.000000
0.412500 0.382500 0.000000
0.446875 0.382500 0.000000
0.481250 0.382500 0.000000
0.515625 0.382500 0.000000
0.550000 0.382500 0.000000
0.584375 0.382500 0.000000
0.618750 0.382500 0.000000
0.653125 0.382500 0.000000
0.687500 0.382500 0.000000
0.721875 0.382500 0.000000
0.756250 0.382500 0.000000
0.790625 0.382500 0.000000
0.825000 0.382500 0.000000
0.859375 0.382500 0.000000
0.893750 0.382500 0.000000
0.928125 0.382500 0.000000
0.962500 0.382500 0.000000
0.996875 0.382500 0.000000
1.000000 0.382500 0.000000
1.000000 0.382500 0.000000
1.000000 0.382500 0.000000
0.000000 0.414375 0.000000
0.034375 0.414375 0.000000
0.068750 0.414375 0.000000
0.103125 0.414375 0.000000
0.137500 0.414375 0.000000
0.171875 0.414375 0.000000
0.206250 0.414375 0.000000
0.240625 0.414375 0.000000
0.275000 0.414375 0.000000
0.309375 0.414375 0.000000
0.343750 0.414375 0.000000
0.378125 0.414375 0.000000
0.412500 0.414375 0.000000
0.446875 0.414375 0.000000
0.481250 0.414375 0.000000
0.515625 0.414375 0.000000
0.550000 0.414375 0.000000
0.584375 0.414375 0.000000
0.618750 0.414375 0.000000
0.653125 0.414375 0.000000
0.687500 0.414375 0.000000
0.721875 0.414375 0.000000
0.756250 0.414375 0.000000
0.790625 0.414375 0.000000
0.825000 0.414375 0.000000
0.859375 0.414375 0.000000
0.893750 0.414375 0.000000
0.928125 0.414375 0.000000
0.962500 0.414375 0.000000
0.996875 0.414375 0.000000
1.000000 0.414375 0.000000
1.000000 0.414375 0.000000
1.000000 0.414375 0.000000
0.000000 0.446250 0.000000
0.034375 0.446250 0.000000
0.068750 0.446250 0.000000
0.103125 0.446250 0.000000
0.137500 0.446250 0.000000
0.171875 0.446250 0.000000
0.206250 0.446250 0.000000
0.240625 0.446250 0.000000
0.275000 0.446250 0.000000
0.309375 0.446250 0.000000
0.343750 0.446250 0.000000
0.378125 0.446250 0.000000
0.412500 0.446250 0.000000
0.446875 0.446250 0.000000
0.481250 0.446250 0.000000
0.515625 0.446250 0.000000
0.550000 0.446250 0.000000
0.584375 0.446250 0.000000
0.618750 0.446250 0.000000
0.653125 0.446250 0.000000
0.687500 0.446250 0.000000
0.721875 0.446250 0.000000
0.756250 0.446250 0.000000
0.790625 0.446250 0.000000
0.825000 0.446250 0.000000
0.859375 0.446250 0.000000
0.893750 0.446250 0.000000
0.928125 0.446250 0.000000
0.962500 0.446250 0.000000
0.996875 0.446250 0.000000
1.000000 0.446250 0.000000
1.000000 0.446250 0.000000
1.000000 0.446250 0.000000
0.000000 0.478125 0.000000
0.034375 0.478125 0.000000
0.068750 0.478125 0.000000
0.103125 0.478125 0.000000
0.137500 0.478125 0.000000
0.171875 0.478125 0.000000
0.206250 0.478125 0.000000
0.240625 0.478125 0.000000
0.275000 0.478125 0.000000
0.309375 0.478125 0.000000
0.343750 0.478125 0.000000
0.378125 0.478125 0.000000
0.412500 0.478125 0.000000
0.446875 0.478125 0.000000
0.481250 0.478125 0.000000
0.515625 0.478125 0.000000
0.550000 0.478125 0.000000
0.584375 0.478125 0.000000
0.618750 0.478125 0.000000
0.653125 0.478125 0.000000
0.687500 0.478125 0.000000
0.721875 0.478125 0.000000
0.756250 0.478125 0.000000
0.790625 0.478125 0.000000
0.825000 0.478125 0.000000
0.859375 0.478125 0.000000
0.893750 0.478125 0.000000
0.928125 0.478125 0.000000
0.962500 0.478125 0.000000
0.996875 0.478125 0.000000
1.000000 0.478125 0.000000
1.000000 0.478125 0.000000
1.000000 0.478125 0.000000
0.000000 0.510000 0.000000
0.034375 0.510000 0.000000
0.068750 0.510000 0.000000
0.103125 0.510000 0.000000
0.137500 0.510000 0.000000
0.171875 0.510000 0.000000
0.206250 0.510000 0.000000
0.240625 0.510000 0.000000
0.275000 0.510000 0.000000
0.309375 0.510000 0.000000
0.343750 0.510000 0.000000
0.378125 0.510000 0.000000
0.412500 0.510000 0.000000
0.446875 0.510000 0.000000
0.481250 0.510000 0.000000
0.515625 0.510000 0.000000
0.550000 0.510000 0.000000
0.584375 0.510000 0.000000
0.618750 0.510000 0.000000
0.653125 0.510000 0.000000
0.687500 0.510000 0.000000
0.721875 0.510000 0.000000
0.756250 0.510000 0.000000
0.790625 0.510000 0.000000
0.825000 0.510000 0.000000
0.859375 0.510000 0.000000
0.893750 0.510000 0.000000
0.928125 0.510000 0.000000
0.962500 0.510000 0.000000
0.996875 0.510000 0.000000
1.000000 0.510000 0.000000
1.000000 0.510000 0.000000
1.000000 0.510000 0.000000
0.000000 0.541875 0.000000
0.034375 0.541875 0.000000
0.068750 0.541875 0.000000
0.103125 0.541875 0.000000
0.137500 0.541875 0.000000
0.171875 0.541875 0.000000
0.206250 0.541875 0.000000
0.240625 0.541875 0.000000
0.275000 0.541875 0.000000
0.309375 0.541875 0.000000
0.343750 0.541875 0.000000
0.378125 0.541875 0.000000
0.412500 0.541875 0.000000
0.446875 0.541875 0.000000
0.481250 0.541875 0.000000
0.515625 0.541875 0.000000
0.550000 0.541875 0.000000
0.584375 0.541875 0.000000
0.618750 0.541875 0.000000
0.653125 0.541875 0.000000
0.687500 0.541875 0.000000
0.721875 0.541875 0.000000
0.756250 0.541875 0.000000
0.790625 0.541875 0.000000
0.825000 0.541875 0.000000
0.859375 0.541875 0.000000
0.893750 0.541875 0.000000
0.928125 0.541875 0.000000
0.962500 0.541875 0.000000
0.996875 0.541875 0.000000
1.000000 0.541875 0.000000
1.000000 0.541875 0.000000
1.000000 0.541875 0.000000
0.000000 0.573750 0.000000
0.034375 0.573750 0.000000
0.068750 0.573750 0.000000
0.103125 0.573750 0.000000
0.137500 0.573750 0.000000
0.171875 0.573750 0.000000
0.206250 0.573750 0.000000
0.240625 0.573750 0.000000
0.275000 0.573750 0.000000
0.309375 0.573750 0.000000
0.343750 0.573750 0.000000
0.378125 0.573750 0.000000
0.412500 0.573750 0.000000
0.446875 0.573750 0.000000
0.481250 0.573750 0.000000
0.515625 0.573750 0.000000
0.550000 0.573750 0.000000
0.584375 0.573750 0.000000
0.618750 0.573750 0.000000
0.653125 0.573750 0.000000
0.687500 0.573750 0.000000
0.721875 0.573750 0.000000
0.756250 0.573750 0.000000
0.790625 0.573750 0.000000
0.825000 0.573750 0.000000
0.859375 0.573750 0.000000
0.893750 0.573750 0.000000
0.928125 0.573750 0.000000
0.962500 0.573750 0.000000
0.996875 0.573750 0.000000
1.000000 0.573750 0.000000
1.000000 0.573750 0.000000
1.000000 0.573750 0.000000
0.000000 0.605625 0.000000
0.034375 0.605625 0.000000
0.068750 0.605625 0.000000
0.103125 0.605625 0.000000
0.137500 0.605625 0.000000
0.171875 0.605625 0.000000
0.206250 0.605625 0.000000
0.240625 0.605625 0.000000
0.275000 0.605625 0.000000
0.309375 0.605625 0.000000
0.343750 0.605625 0.000000
0.378125 0.605625 0.000000
0.412500 0.605625 0.000000
0.446875 0.605625 0.000000
0.481250 0.605625 0.000000
0.515625 0.605625 0.000000
0.550000 0.605625 0.000000
0.584375 0.605625 0.000000
0.618750 0.605625 0.000000
0.653125 0.605625 0.000000
0.687500 0.605625 0.000000
0.721875 0.605625 0.000000
0.756250 0.605625 0.000000
0.790625 0.605625 0.000000
0.825000 0.605625 0.000000
0.859375 0.605625 0.000000
0.893750 0.605625 0.000000
0.928125 0.605625 0.000000
0.962500 0.605625 0.000000
0.996875 0.605625 0.000000
1.000000 0.605625 0.000000
1.000000 0.605625 0.000000
1.000000 0.605625 0.000000
0.000000 0.637500 0.000000
0.034375 0.637500 0.000000
0.068750 0.637500 0.000000
0.103125 0.637500 0.000000
0.137500 0.637500 0.000000
0.171875 0.637500 0.000000
0.206250 0.637500 0.000000
0.240625 0.637500 0.000000
0.275000 0.637500 0.000000
0.309375 0.637500 0.000000
0.343750 0.637500 0.000000
0.378125 0.637500 0.000000
0.412500 0.637500 0.000000
0.446875 0.637500 0.000000
0.481250 0.637500 0.000000
0.515625 0.637500 0.000000
0.550000 0.637500 0.000000
0.584375 0.637500 0.000000
0.618750 0.637500 0.000000
0.653125 0.637500 0.000000
0.687500 0.637500 0.000000
0.721875 0.637500 0.000000
0.756250 0.637500 0.000000
0.790625 0.637500 0.000000
0.825000 0.637500 0.000000
0.859375 0.637500 0.000000
0.893750 0.637500 0.000000
0.928125 0.637500 0.000000
0.962500 0.637500 0.000000
0.996875 0.637500 0.000000
1.000000 0.637500 0.000000
1.000000 0.637500 0.000000
1.000000 0.637500 0.000000
0.000000 0.669375 0.000000
0.034375 0.669375 0.000000
0.068750 0.669375 0.000000
0.103125 0.669375 0.000000
0.137500 0.669375 0.000000
0.171875 0.669375 0.000000
0.206250 0.669375 0.000000
0.240625 0.669375 0.000000
0.275000 0.669375 0.000000
0.309375 0.669375 0.000000
0.343750 0.669375 0.000000
0.378125 0.669375 0.000000
0.412500 0.669375 0.000000
0.446875 0.669375 0.000000
0.481250 0.669375 0.000000
0.515625 0.669375 0.000000
0.550000 0.669375 0.000000
0.584375 0.669375 0.000000
0.618750 0.669375 0.000000
0.653125 0.669375 0.000000
0.687500 0.669375 0.000000
0.721875 0.669375 0.000000
0.756250 0.669375 0.000000
0.790625 0.669375 0.000000
0.825000 0.669375 0.000000
0.859375 0.669375 0.000000
0.893750 0.669375 0.000000
0.928125 0.669375 0.000000
0.962500 0.669375 0.000000
0.996875 0.669375 0.000000
1.000000 0.669375 0.000000
1.000000 0.669375 0.000000
1.000000 0.669375 0.000000
0.000000 0.701250 0.000000
0.034375 0.701250 0.000000
0.068750 0.701250 0.000000
0.103125 0.701250 0.000000
0.137500 0.701250 0.000000
0.171875 0.701250 0.000000
0.206250 0.701250 0.000000
0.240625 0.701250 0.000000
0.275000 0.701250 0.000000
0.309375 0.701250 0.000000
0.343750 0.701250 0.000000
0.378125 0.701250 0.000000
0.412500 0.701250 0.000000
0.446875 0.701250 0.000000
0.481250 0.701250 0.000000
0.515625 0.701250 0.000000
0.550000 0.701250 0.000000
0.584375 0.701250 0.000000
0.618750 0.701250 0.000000
0.653125 0.701250 0.000000
0.687500 0.701250 0.000000
0.721875 0.701250 0.000000
0.756250 0.701250 0.000000
0.790625 0.701250 0.000000
0.825000 0.701250 0.000000
0.859375 0.701250 0.000000
0.893750 0.701250 0.000000
0.928125 0.701250 0.000000
0.962500 0.701250 0.000000
0.996875 0.701250 0.000000
1.000000 0.701250 0.000000
1.000000 0.701250 0.000000
1.000000 0.701250 0.000000
0.000000 0.733125 0.000000
0.034375 0.733125 0.000000
0.068750 0.733125 0.000000
0.103125 0.733125 0.000000
0.137500 0.733125 0.000000
0.171875 0.733125 0.000000
0.206250 0.733125 0.000000
0.240625 0.733125 0.000000
0.275000 0.733125 0.000000
0.309375 0.733125 0.000000
0.343750 0.733125 0.000000
0.378125 0.733125 0.000000
0.412500 0.733125 0.000000
0.446875 0.733125 0.000000
0.481250 0.733125 0.000000
0.515625 0.733125 0.000000
0.550000 0.733125 0.000000
0.584375 0.733125 0.000000
0.618750 0.733125 0.000000
0.653125 0.733125 0.000000
0.687500 0.733125 0.000000
0.721875 0.733125 0.000000
0.756250 0.733125 0.000000
0.790625 0.733125 0.000000
0.825000 0.733125 0.000000
0.859375 0.733125 0.000000
0.893750 0.733125 0.000000
0.928125 0.733125 0.000000
0.962500 0.733125 0.000000
0.996875 0.733125 0.000000
1.000000 0.733125 0.000000
1.000000 0.733125 0.000000
1.000000 0.733125 0.000000
0.000000 0.765000 0.000000
0.034375 0.765000 0.000000
0.068750 0.765000 0.000000
0.103125 0.765000 0.000000
0.137500 0.765000 0.000000
0.171875 0.765000 0.000000
0.206250 0.765000 0.000000
0.240625 0.765000 0.000000
0.275000 0.765000 0.000000
0.309375 0.765000 0.000000
0.343750 0.765000 0.000000
0.378125 0.765000 0.000000
0.412500 0.765000 0.000000
0.446875 0.765000 0.000000
0.481250 0.765000 0.000000
0.515625 0.765000 0.000000
0.550000 0.765000 0.000000
0.584375 0.765000 0.000000
0.618750 0.765000 0.000000
0.653125 0.765000 0.000000
0.687500 0.765000 0.000000
0.721875 0.765000 0.000000
0.756250 0.765000 0.000000
0.790625 0.765000 0.000000
0.825000 0.765000 0.000000
0.859375 0.765000 0.000000
0.893750 0.765000 0.000000
0.928125 0.765000 0.000000
0.962500 0.765000 0.000000
0.996875 0.765000 0.000000
1.000000 0.765000 0.000000
1.000000 0.765000 0.000000
1.000000 0.765000 0.000000
0.000000 0.796875 0.000000
0.034375 0.796875 0.000000
0.068750 0.796875 0.000000
0.103125 0.796875 0.000000
0.137500 0.796875 0.000000
0.171875 0.796875 0.000000
0.206250 0.796875 0.000000
0.240625 0.796875 0.000000
0.275000 0.796875 0.000000
0.309375 0.796875 0.000000
0.343750 0.796875 0.000000
0.378125 0.796875 0.000000
0.412500 0.796875 0.000000
0.446875 0.796875 0.000000
0.481250 0.796875 0.000000
0.515625 0.796875 0.000000
0.550000 0.796875 0.000000
0.584375 0.796875 0.000000
0.618750 0.796875 0.000000
0.653125 0.796875 0.000000
0.687500 0.796875 0.000000
0.721875 0.796875 0.000000
0.756250 0.796875 0.000000
0.790625 0.796875 0.000000
0.825000 0.796875 0.000000
0.859375 0.796875 0.000000
0.893750 0.796875 0.000000
0.928125 0.796875 0.000000
0.962500 0.796875 0.000000
0.996875 0.796875 0.000000
1.000000 0.796875 0.000000
1.000000 0.796875 0.000000
1.000000 0.796875 0.000000
0.000000 0.828750 0.000000
0.034375 0.828750 0.000000
0.068750 0.828750 0.000000
0.103125 0.828750 0.000000
0.137500 0.828750 0.000000
0.171875 0.828750 0.000000
0.206250 0.828750 0.000000
0.240625 0.828750 0.000000
0.275000 0.828750 0.000000
0.309375 0.828750 0.000000
0.343750 0.828750 0.000000
0.378125 0.828750 0.000000
0.412500 0.828750 0.000000
0.446875 0.828750 0.000000
0.481250 0.828750 0.000000
0.515625 0.828750 0.000000
0.550000 0.828750 0.000000
0.584375 0.828750 0.000000
0.618750 0.828750 0.000000
0.653125 0.828750 0.000000
0.687500 0.828750 0.000000
0.721875 0.828750 0.000000
0.756250 0.828750 0.000000
0.790625 0.828750 0.000000
0.825000 0.828750 0.000000
0.859375 0.828750 0.000000
0.893750 0.828750 0.000000
0.928125 0.828750 0.000000
0.962500 0.828750 0.000000
