dashboard/static/social/luts/warm.cube
TITLE "warm"
LUT_3D_SIZE 9
0.000000 0.000000 0.000000
0.137500 0.000000 0.000000
0.275000 0.000000 0.000000
0.412500 0.000000 0.000000
0.550000 0.000000 0.000000
0.687500 0.000000 0.000000
0.825000 0.000000 0.000000
0.962500 0.000000 0.000000
1.000000 0.000000 0.000000
0.000000 0.127500 0.000000
0.137500 0.127500 0.000000
0.275000 0.127500 0.000000
0.412500 0.127500 0.000000
0.550000 0.127500 0.000000
0.687500 0.127500 0.000000
0.825000 0.127500 0.000000
0.962500 0.127500 0.000000
1.000000 0.127500 0.000000
0.000000 0.255000 0.000000
0.137500 0.255000 0.000000
0.275000 0.255000 0.000000
0.412500 0.255000 0.000000
0.550000 0.255000 0.000000
0.687500 0.255000 0.000000
0.825000 0.255000 0.000000
0.962500 0.255000 0.000000
1.000000 0.255000 0.000000
0.000000 0.382500 0.000000
0.137500 0.382500 0.000000
0.275000 0.382500 0.000000
0.412500 0.382500 0.000000
0.550000 0.382500 0.000000
0.687500 0.382500 0.000000
0.825000 0.382500 0.000000
0.962500 0.382500 0.000000
1.000000 0.382500 0.000000
0.000000 0.510000 0.000000
0.137500 0.510000 0.000000
0.275000 0.510000 0.000000
0.412500 0.510000 0.000000
0.550000 0.510000 0.000000
0.687500 0.510000 0.000000
0.825000 0.510000 0.000000
0.962500 0.510000 0.000000
1.000000 0.510000 0.000000
0.000000 0.637500 0.000000
0.137500 0.637500 0.000000
0.275000 0.637500 0.000000
0.412500 0.637500 0.000000
0.550000 0.637500 0.000000
0.687500 0.637500 0.000000
0.825000 0.637500 0.000000
0.962500 0.637500 0.000000
1.000000 0.637500 0.000000
0.000000 0.765000 0.000000
0.137500 0.765000 0.000000
0.275000 0.765000 0.000000
0.412500 0.765000 0.000000
0.550000 0.765000 0.000000
0.687500 0.765000 0.000000
0.825000 0.765000 0.000000
0.962500 0.765000 0.000000
1.000000 0.765000 0.000000
0.000000 0.892500 0.000000
0.137500 0.892500 0.000000
0.275000 0.892500 0.000000
0.412500 0.892500 0.000000
0.550000 0.892500 0.000000
0.687500 0.892500 0.000000
0.825000 0.892500 0.000000
0.962500 0.892500 0.000000
1.000000 0.892500 0.000000
0.000000 1.000000 0.000000
0.137500 1.000000 0.000000
0.275000 1.000000 0.000000
0.412500 1.000000 0.000000
0.550000 1.000000 0.000000
0.687500 1.000000 0.000000
0.825000 1.000000 0.000000
0.962500 1.000000 0.000000
1.000000 1.000000 0.000000
0.000000 0.000000 0.110000
0.137500 0.000000 0.110000
0.275000 0.000000 0.110000
0.412500 0.000000 0.110000
0.550000 0.000000 0.110000
0.687500 0.000000 0.110000
0.825000 0.000000 0.110000
0.962500 0.000000 0.110000
1.000000 0.000000 0.110000
0.000000 0.127500 0.110000
0.137500 0.127500 0.110000
0.275000 0.127500 0.110000
0.412500 0.127500 0.110000
0.550000 0.127500 0.110000
0.687500 0.127500 0.110000
0.825000 0.127500 0.110000
0.962500 0.127500 0.110000
1.000000 0.127500 0.110000
0.000000 0.255000 0.110000
0.137500 0.255000 0.110000
0.275000 0.255000 0.110000
0.412500 0.255000 0.110000
0.550000 0.255000 0.110000
0.687500 0.255000 0.110000
0.825000 0.255000 0.110000
0.962500 0.255000 0.110000
1.000000 0.255000 0.110000
0.000000 0.382500 0.110000
0.137500 0.382500 0.110000
0.275000 0.382500 0.110000
0.412500 0.382500 0.110000
0.550000 0.382500 0.110000
0.687500 0.382500 0.110000
0.825000 0.382500 0.110000
0.962500 0.382500 0.110000
1.000000 0.382500 0.110000
0.000000 0.510000 0.110000
0.137500 0.510000 0.110000
0.275000 0.510000 0.110000
0.412500 0.510000 0.110000
0.550000 0.510000 0.110000
0.687500 0.510000 0.110000
0.825000 0.510000 0.110000
0.962500 0.510000 0.110000
1.000000 0.510000 0.110000
0.000000 0.637500 0.110000
0.137500 0.637500 0.110000
0.275000 0.637500 0.110000
0.412500 0.637500 0.110000
0.550000 0.637500 0.110000
0.687500 0.637500 0.110000
0.825000 0.637500 0.110000
0.962500 0.637500 0.110000
1.000000 0.637500 0.110000
0.000000 0.765000 0.110000
0.137500 0.765000 0.110000
0.275000 0.765000 0.110000
0.412500 0.765000 0.110000
0.550000 0.765000 0.110000
0.687500 0.765000 0.110000
0.825000 0.765000 0.110000
0.962500 0.765000 0.110000
1.000000 0.765000 0.110000
0.000000 0.892500 0.110000
0.137500 0.892500 0.110000
0.275000 0.892500 0.110000
0.412500 0.892500 0.110000
0.550000 0.892500 0.110000
0.687500 0.892500 0.110000
0.825000 0.892500 0.110000
0.962500 0.892500 0.110000
1.000000 0.892500 0.110000
0.000000 1.000000 0.110000
0.137500 1.000000 0.110000
0.275000 1.000000 0.110000
0.412500 1.000000 0.110000
0.550000 1.000000 0.110000
0.687500 1.000000 0.110000
0.825000 1.000000 0.110000
0.962500 1.000000 0.110000
1.000000 1.000000 0.110000
0.000000 0.000000 0.220000
0.137500 0.000000 0.220000
0.275000 0.000000 0.220000
0.412500 0.000000 0.220000
0.550000 0.000000 0.220000
0.687500 0.000000 0.220000
0.825000 0.000000 0.220000
0.962500 0.000000 0.220000
1.000000 0.000000 0.220000
0.000000 0.127500 0.220000
0.137500 0.127500 0.220000
0.275000 0.127500 0.220000
0.412500 0.127500 0.220000
0.550000 0.127500 0.220000
0.687500 0.127500 0.220000
0.825000 0.127500 0.220000
0.962500 0.127500 0.220000
1.000000 0.127500 0.220000
0.000000 0.255000 0.220000
0.137500 0.255000 0.220000
0.275000 0.255000 0.220000
0.412500 0.255000 0.220000
0.550000 0.255000 0.220000
0.687500 0.255000 0.220000
0.825000 0.255000 0.220000
0.962500 0.255000 0.220000
1.000000 0.255000 0.220000
0.000000 0.382500 0.220000
0.137500 0.382500 0.220000
0.275000 0.382500 0.220000
0.412500 0.382500 0.220000
0.550000 0.382500 0.220000
0.687500 0.382500 0.220000
0.825000 0.382500 0.220000
0.962500 0.382500 0.220000
1.000000 0.382500 0.220000
0.000000 0.510000 0.220000
0.137500 0.510000 0.220000
0.275000 0.510000 0.220000
0.412500 0.510000 0.220000
0.550000 0.510000 0.220000
0.687500 0.510000 0.220000
0.825000 0.510000 0.220000
0.962500 0.510000 0.220000
1.000000 0.510000 0.220000
0.000000 0.637500 0.220000
0.137500 0.637500 0.220000
0.275000 0.637500 0.220000
0.412500 0.637500 0.220000
0.550000 0.637500 0.220000
0.687500 0.637500 0.220000
0.825000 0.637500 0.220000
0.962500 0.637500 0.220000
1.000000 0.637500 0.220000
0.000000 0.765000 0.220000
0.137500 0.765000 0.220000
0.275000 0.765000 0.220000
0.412500 0.765000 0.220000
0.550000 0.765000 0.220000
0.687500 0.765000 0.220000
0.825000 0.765000 0.220000
0.962500 0.765000 0.220000
1.000000 0.765000 0.220000
0.000000 0.892500 0.220000
0.137500 0.892500 0.220000
0.275000 0.892500 0.220000
0.412500 0.892500 0.220000
0.550000 0.892500 0.220000
0.687500 0.892500 0.220000
0.825000 0.892500 0.220000
0.962500 0.892500 0.220000
1.000000 0.892500 0.220000
0.000000 1.000000 0.220000
0.137500 1.000000 0.220000
0.275000 1.000000 0.220000
0.412500 1.000000 0.220000
0.550000 1.000000 0.220000
0.687500 1.000000 0.220000
0.825000 1.000000 0.220000
0.962500 1.000000 0.220000
1.000000 1.000000 0.220000
0.000000 0.000000 0.330000
0.137500 0.000000 0.330000
0.275000 0.000000 0.330000
0.412500 0.000000 0.330000
0.550000 0.000000 0.330000
0.687500 0.000000 0.330000
0.825000 0.000000 0.330000
0.962500 0.000000 0.330000
1.000000 0.000000 0.330000
0.000000 0.127500 0.330000
0.137500 0.127500 0.330000
0.275000 0.127500 0.330000
0.412500 0.127500 0.330000
0.550000 0.127500 0.330000
0.687500 0.127500 0.330000
0.825000 0.127500 0.330000
0.962500 0.127500 0.330000
1.000000 0.127500 0.330000
0.000000 0.255000 0.330000
0.137500 0.255000 0.330000
0.275000 0.255000 0.330000
0.412500 0.255000 0.330000
0.550000 0.255000 0.330000
0.687500 0.255000 0.330000
0.825000 0.255000 0.330000
0.962500 0.255000 0.330000
1.000000 0.255000 0.330000
0.000000 0.382500 0.330000
0.137500 0.382500 0.330000
0.275000 0.382500 0.330000
0.412500 0.382500 0.330000
0.550000 0.382500 0.330000
0.687500 0.382500 0.330000
0.825000 0.382500 0.330000
0.962500 0.382500 0.330000
1.000000 0.382500 0.330000
0.000000 0.510000 0.330000
0.137500 0.510000 0.330000
0.275000 0.510000 0.330000
0.412500 0.510000 0.330000
0.550000 0.510000 0.330000
0.687500 0.510000 0.330000
0.825000 0.510000 0.330000
0.962500 0.510000 0.330000
1.000000 0.510000 0.330000
0.000000 0.637500 0.330000
0.137500 0.637500 0.330000
0.275000 0.637500 0.330000
0.412500 0.637500 0.330000
0.550000 0.637500 0.330000
0.687500 0.637500 0.330000
0.825000 0.637500 0.330000
0.962500 0.637500 0.330000
1.000000 0.637500 0.330000
0.000000 0.765000 0.330000
0.137500 0.765000 0.330000
0.275000 0.765000 0.330000
0.412500 0.765000 0.330000
0.550000 0.765000 0.330000
0.687500 0.765000 0.330000
0.825000 0.765000 0.330000
0.962500 0.765000 0.330000
1.000000 0.765000 0.330000
0.000000 0.892500 0.330000
0.137500 0.892500 0.330000
0.275000 0.892500 0.330000
0.412500 0.892500 0.330000
0.550000 0.892500 0.330000
0.687500 0.892500 0.330000
0.825000 0.892500 0.330000
0.962500 0.892500 0.330000
1.000000 0.892500 0.330000
0.000000 1.000000 0.330000
0.137500 1.000000 0.330000
0.275000 1.000000 0.330000
0.412500 1.000000 0.330000
0.550000 1.000000 0.330000
0.687500 1.000000 0.330000
0.825000 1.000000 0.330000
0.962500 1.000000 0.330000
1.000000 1.000000 0.330000
0.000000 0.000000 0.440000
0.137500 0.000000 0.440000
0.275000 0.000000 0.440000
0.412500 0.000000 0.440000
0.550000 0.000000 0.440000
0.687500 0.000000 0.440000
0.825000 0.000000 0.440000
0.962500 0.000000 0.440000
1.000000 0.000000 0.440000
0.000000 0.127500 0.440000
0.137500 0.127500 0.440000
0.275000 0.127500 0.440000
0.412500 0.127500 0.440000
0.550000 0.127500 0.440000
0.687500 0.127500 0.440000
0.825000 0.127500 0.440000
0.962500 0.127500 0.440000
1.000000 0.127500 0.440000
0.000000 0.255000 0.440000
0.137500 0.255000 0.440000
0.275000 0.255000 0.440000
0.412500 0.255000 0.440000
0.550000 0.255000 0.440000
0.687500 0.255000 0.440000
0.825000 0.255000 0.440000
0.962500 0.255000 0.440000
1.000000 0.255000 0.440000
0.000000 0.382500 0.440000
0.137500 0.382500 0.440000
0.275000 0.382500 0.440000
0.412500 0.382500 0.440000
0.550000 0.382500 0.440000
0.687500 0.382500 0.440000
0.825000 0.382500 0.440000
0.962500 0.382500 0.440000
1.000000 0.382500 0.440000
0.000000 0.510000 0.440000
0.137500 0.510000 0.440000
0.275000 0.510000 0.440000
0.412500 0.510000 0.440000
0.550000 0.510000 0.440000
0.687500 0.510000 0.440000
0.825000 0.510000 0.440000
0.962500 0.510000 0.440000
1.000000 0.510000 0.440000
0.000000 0.637500 0.440000
0.137500 0.637500 0.440000
0.275000 0.637500 0.440000
0.412500 0.637500 0.440000
0.550000 0.637500 0.440000
0.687500 0.637500 0.440000
0.825000 0.637500 0.440000
0.962500 0.637500 0.440000
1.000000 0.637500 0.440000
0.000000 0.765000 0.440000
0.137500 0.765000 0.440000
0.275000 0.765000 0.440000
0.412500 0.765000 0.440000
0.550000 0.765000 0.440000
0.687500 0.765000 0.440000
0.825000 0.765000 0.440000
0.962500 0.765000 0.440000
1.000000 0.765000 0.440000
0.000000 0.892500 0.440000
0.137500 0.892500 0.440000
0.275000 0.892500 0.440000
0.412500 0.892500 0.440000
0.550000 0.892500 0.440000
0.687500 0.892500 0.440000
0.825000 0.892500 0.440000
0.962500 0.892500 0.440000
1.000000 0.892500 0.440000
0.000000 1.000000 0.440000
0.137500 1.000000 0.440000
0.275000 1.000000 0.440000
0.412500 1.000000 0.440000
0.550000 1.000000 0.440000
0.687500 1.000000 0.440000
0.825000 1.000000 0.440000
0.962500 1.000000 0.440000
1.000000 1.000000 0.440000
0.000000 0.000000 0.550000
0.137500 0.000000 0.550000
0.275000 0.000000 0.550000
0.412500 0.000000 0.550000
0.550000 0.000000 0.550000
0.687500 0.000000 0.550000
0.825000 0.000000 0.550000
0.962500 0.000000 0.550000
1.000000 0.000000 0.550000
0.000000 0.127500 0.550000
0.137500 0.127500 0.550000
0.275000 0.127500 0.550000
0.412500 0.127500 0.550000
0.550000 0.127500 0.550000
0.687500 0.127500 0.550000
0.825000 0.127500 0.550000
0.962500 0.127500 0.550000
1.000000 0.127500 0.550000
0.000000 0.255000 0.550000
0.137500 0.255000 0.550000
0.275000 0.255000 0.550000
0.412500 0.255000 0.550000
0.550000 0.255000 0.550000
0.687500 0.255000 0.550000
0.825000 0.255000 0.550000
0.962500 0.255000 0.550000
1.000000 0.255000 0.550000
0.000000 0.382500 0.550000
0.137500 0.382500 0.550000
0.275000 0.382500 0.550000
0.412500 0.382500 0.550000
0.550000 0.382500 0.550000
0.687500 0.382500 0.550000
0.825000 0.382500 0.550000
0.962500 0.382500 0.550000
1.000000 0.382500 0.550000
0.000000 0.510000 0.550000
0.137500 0.510000 0.550000
0.275000 0.510000 0.550000
0.412500 0.510000 0.550000
0.550000 0.510000 0.550000
0.687500 0.510000 0.550000
0.825000 0.510000 0.550000
0.962500 0.510000 0.550000
1.000000 0.510000 0.550000
0.000000 0.637500 0.550000
0.137500 0.637500 0.550000
0.275000 0.637500 0.550000
0.412500 0.637500 0.550000
0.550000 0.637500 0.550000
0.687500 0.637500 0.550000
0.825000 0.637500 0.550000
0.962500 0.637500 0.550000
1.000000 0.637500 0.550000
0.000000 0.765000 0.550000
0.137500 0.765000 0.550000
0.275000 0.765000 0.550000
0.412500 0.765000 0.550000
0.550000 0.765000 0.550000
0.687500 0.765000 0.550000
0.825000 0.765000 0.550000
0.962500 0.765000 0.550000
1.000000 0.765000 0.550000
0.000000 0.892500 0.550000
0.137500 0.892500 0.550000
0.275000 0.892500 0.550000
0.412500 0.892500 0.550000
0.550000 0.892500 0.550000
0.687500 0.892500 0.550000
0.825000 0.892500 0.550000
0.962500 0.892500 0.550000
1.000000 0.892500 0.550000
0.000000 1.000000 0.550000
0.137500 1.000000 0.550000
0.275000 1.000000 0.550000
0.412500 1.000000 0.550000
0.550000 1.000000 0.550000
0.687500 1.000000 0.550000
0.825000 1.000000 0.550000
0.962500 1.000000 0.550000
1.000000 1.000000 0.550000
0.000000 0.000000 0.660000
0.137500 0.000000 0.660000
0.275000 0.000000 0.660000
0.412500 0.000000 0.660000
0.550000 0.000000 0.660000
0.687500 0.000000 0.660000
0.825000 0.000000 0.660000
0.962500 0.000000 0.660000
1.000000 0.000000 0.660000
0.000000 0.127500 0.660000
0.137500 0.127500 0.660000
0.275000 0.127500 0.660000
0.412500 0.127500 0.660000
0.550000 0.127500 0.660000
0.687500 0.127500 0.660000
0.825000 0.127500 0.660000
0.962500 0.127500 0.660000
1.000000 0.127500 0.660000
0.000000 0.255000 0.660000
0.137500 0.255000 0.660000
0.275000 0.255000 0.660000
0.412500 0.255000 0.660000
0.550000 0.255000 0.660000
0.687500 0.255000 0.660000
0.825000 0.255000 0.660000
0.962500 0.255000 0.660000
1.000000 0.255000 0.660000
0.000000 0.382500 0.660000
0.137500 0.382500 0.660000
0.275000 0.382500 0.660000
0.412500 0.382500 0.660000
0.550000 0.382500 0.660000
0.687500 0.382500 0.660000
0.825000 0.382500 0.660000
0.962500 0.382500 0.660000
1.000000 0.382500 0.660000
0.000000 0.510000 0.660000
0.137500 0.510000 0.660000
0.275000 0.510000 0.660000
0.412500 0.510000 0.660000
0.550000 0.510000 0.660000
0.687500 0.510000 0.660000
0.825000 0.510000 0.660000
0.962500 0.510000 0.660000
1.000000 0.510000 0.660000
0.000000 0.637500 0.660000
0.137500 0.637500 0.660000
0.275000 0.637500 0.660000
0.412500 0.637500 0.660000
0.550000 0.637500 0.660000
0.687500 0.637500 0.660000
0.825000 0.637500 0.660000
0.962500 0.637500 0.660000
1.000000 0.637500 0.660000
0.000000 0.765000 0.660000
0.137500 0.765000 0.660000
0.275000 0.765000 0.660000
0.412500 0.765000 0.660000
0.550000 0.765000 0.660000
0.687500 0.765000 0.660000
0.825000 0.765000 0.660000
0.962500 0.765000 0.660000
1.000000 0.765000 0.660000
0.000000 0.892500 0.660000
0.137500 0.892500 0.660000
0.275000 0.892500 0.660000
0.412500 0.892500 0.660000
0.550000 0.892500 0.660000
0.687500 0.892500 0.660000
0.825000 0.892500 0.660000
0.962500 0.892500 0.660000
1.000000 0.892500 0.660000
0.000000 1.000000 0.660000
0.137500 1.000000 0.660000
0.275000 1.000000 0.660000
0.412500 1.000000 0.660000
0.550000 1.000000 0.660000
0.687500 1.000000 0.660000
0.825000 1.000000 0.660000
0.962500 1.000000 0.660000
1.000000 1.000000 0.660000
0.000000 0.000000 0.770000
0.137500 0.000000 0.770000
0.275000 0.000000 0.770000
0.412500 0.000000 0.770000
0.550000 0.000000 0.770000
0.687500 0.000000 0.770000
0.825000 0.000000 0.770000
0.962500 0.000000 0.770000
1.000000 0.000000 0.770000
0.000000 0.127500 0.770000
0.137500 0.127500 0.770000
0.275000 0.127500 0.770000
0.412500 0.127500 0.770000
0.550000 0.127500 0.770000
0.687500 0.127500 0.770000
0.825000 0.127500 0.770000
0.962500 0.127500 0.770000
1.000000 0.127500 0.770000
0.000000 0.255000 0.770000
0.137500 0.255000 0.770000
0.275000 0.255000 0.770000
0.412500 0.255000 0.770000
0.550000 0.255000 0.770000
0.687500 0.255000 0.770000
0.825000 0.255000 0.770000
0.962500 0.255000 0.770000
1.000000 0.255000 0.770000
0.000000 0.382500 0.770000
0.137500 0.382500 0.770000
0.275000 0.382500 0.770000
0.412500 0.382500 0.770000
0.550000 0.382500 0.770000
0.687500 0.382500 0.770000
0.825000 0.382500 0.770000
0.962500 0.382500 0.770000
1.000000 0.382500 0.770000
0.000000 0.510000 0.770000
0.137500 0.510000 0.770000
0.275000 0.510000 0.770000
0.412500 0.510000 0.770000
0.550000 0.510000 0.770000
0.687500 0.510000 0.770000
0.825000 0.510000 0.770000
0.962500 0.510000 0.770000
1.000000 0.510000 0.770000
0.000000 0.637500 0.770000
0.137500 0.637500 0.770000
0.275000 0.637500 0.770000
0.412500 0.637500 0.770000
0.550000 0.637500 0.770000
0.687500 0.637500 0.770000
0.825000 0.637500 0.770000
0.962500 0.637500 0.770000
1.000000 0.637500 0.770000
0.000000 0.765000 0.770000
0.137500 0.765000 0.770000
0.275000 0.765000 0.770000
0.412500 0.765000 0.770000
0.550000 0.765000 0.770000
0.687500 0.765000 0.770000
0.825000 0.765000 0.770000
0.962500 0.765000 0.770000
1.000000 0.765000 0.770000
0.000000 0.892500 0.770000
0.137500 0.892500 0.770000
0.275000 0.892500 0.770000
0.412500 0.892500 0.770000
0.550000 0.892500 0.770000
0.687500 0.892500 0.770000
0.825000 0.892500 0.770000
0.962500 0.892500 0.770000
1.000000 0.892500 0.770000
0.000000 1.000000 0.770000
0.137500 1.000000 0.770000
0.275000 1.000000 0.770000
0.412500 1.000000 0.770000
0.550000 1.000000 0.770000
0.687500 1.000000 0.770000
0.825000 1.000000 0.770000
0.962500 1.000000 0.770000
1.000000 1.000000 0.770000
0.000000 0.000000 0.880000
0.137500 0.000000 0.880000
0.275000 0.000000 0.880000
0.412500 0.000000 0.880000
0.550000 0.000000 0.880000
0.687500 0.000000 0.880000
0.825000 0.000000 0.880000
0.962500 0.000000 0.880000
1.000000 0.000000 0.880000
0.000000 0.127500 0.880000
0.137500 0.127500 0.880000
0.275000 0.127500 0.880000
0.412500 0.127500 0.880000
0.550000 0.127500 0.880000
0.687500 0.127500 0.880000
0.825000 0.127500 0.880000
0.962500 0.127500 0.880000
1.000000 0.127500 0.880000
0.000000 0.255000 0.880000
0.137500 0.255000 0.880000
0.275000 0.255000 0.880000
0.412500 0.255000 0.880000
0.550000 0.255000 0.880000
0.687500 0.255000 0.880000
0.825000 0.255000 0.880000
0.962500 0.255000 0.880000
1.000000 0.255000 0.880000
0.000000 0.382500 0.880000
0.137500 0.382500 0.880000
0.275000 0.382500 0.880000
0.412500 0.382500 0.880000
0.550000 0.382500 0.880000
0.687500 0.382500 0.880000
0.825000 0.382500 0.880000
0.962500 0.382500 0.880000
1.000000 0.382500 0.880000
0.000000 0.510000 0.880000
0.137500 0.510000 0.880000
0.275000 0.510000 0.880000
0.412500 0.510000 0.880000
0.550000 0.510000 0.880000
0.687500 0.510000 0.880000
0.825000 0.510000 0.880000
0.962500 0.510000 0.880000
1.000000 0.510000 0.880000
0.000000 0.637500 0.880000
0.137500 0.637500 0.880000
0.275000 0.637500 0.880000
0.412500 0.637500 0.880000
0.550000 0.637500 0.880000
0.687500 0.637500 0.880000
0.825000 0.637500 0.880000
0.962500 0.637500 0.880000
1.000000 0.637500 0.880000
0.000000 0.765000 0.880000
0.137500 0.765000 0.880000
0.275000 0.765000 0.880000
0.412500 0.765000 0.880000
0.550000 0.765000 0.880000
0.687500 0.765000 0.880000
0.825000 0.765000 0.880000
0.962500 0.765000 0.880000
1.000000 0.765000 0.880000
0.000000 0.892500 0.880000
0.137500 0.892500 0.880000
0.275000 0.892500 0.880000
0.412500 0.892500 0.880000
0.550000 0.892500 0.880000
0.687500 0.892500 0.880000
0.825000 0.892500 0.880000
0.962500 0.892500 0.880000
1.000000 0.892500 0.880000
0.000000 1.000000 0.880000
0.137500 1.000000 0.880000
0.275000 1.000000 0.880000
0.412500 1.000000 0.880000
0.550000 1.000000 0.880000
0.687500 1.000000 0.880000
0.825000 1.000000 0.880000
0.962500 1.000000 0.880000
1.000000 1.000000 0.880000
