dashboard/static/social/luts/warm.cube
TITLE "warm"
LUT_3D_SIZE 5
0.000000 0.000000 0.000000
0.275000 0.000000 0.000000
0.550000 0.000000 0.000000
0.825000 0.000000 0.000000
1.000000 0.000000 0.000000
0.000000 0.255000 0.000000
0.275000 0.255000 0.000000
0.550000 0.255000 0.000000
0.825000 0.255000 0.000000
1.000000 0.255000 0.000000
0.000000 0.510000 0.000000
0.275000 0.510000 0.000000
0.550000 0.510000 0.000000
0.825000 0.510000 0.000000
1.000000 0.510000 0.000000
0.000000 0.765000 0.000000
0.275000 0.765000 0.000000
0.550000 0.765000 0.000000
0.825000 0.765000 0.000000
1.000000 0.765000 0.000000
0.000000 1.000000 0.000000
0.275000 1.000000 0.000000
0.550000 1.000000 0.000000
0.825000 1.000000 0.000000
1.000000 1.000000 0.000000
0.000000 0.000000 0.220000
0.275000 0.000000 0.220000
0.550000 0.000000 0.220000
0.825000 0.000000 0.220000
1.000000 0.000000 0.220000
0.000000 0.255000 0.220000
0.275000 0.255000 0.220000
0.550000 0.255000 0.220000
0.825000 0.255000 0.220000
1.000000 0.255000 0.220000
0.000000 0.510000 0.220000
0.275000 0.510000 0.220000
0.550000 0.510000 0.220000
0.825000 0.510000 0.220000
1.000000 0.510000 0.220000
0.000000 0.765000 0.220000
0.275000 0.765000 0.220000
0.550000 0.765000 0.220000
0.825000 0.765000 0.220000
1.000000 0.765000 0.220000
0.000000 1.000000 0.220000
0.275000 1.000000 0.220000
0.550000 1.000000 0.220000
0.825000 1.000000 0.220000
1.000000 1.000000 0.220000
0.000000 0.000000 0.440000
0.275000 0.000000 0.440000
0.550000 0.000000 0.440000
0.825000 0.000000 0.440000
1.000000 0.000000 0.440000
0.000000 0.255000 0.440000
0.275000 0.255000 0.440000
0.550000 0.255000 0.440000
0.825000 0.255000 0.440000
1.000000 0.255000 0.440000
0.000000 0.510000 0.440000
0.275000 0.510000 0.440000
0.550000 0.510000 0.440000
0.825000 0.510000 0.440000
1.000000 0.510000 0.440000
0.000000 0.765000 0.440000
0.275000 0.765000 0.440000
0.550000 0.765000 0.440000
0.825000 0.765000 0.440000
1.000000 0.765000 0.440000
0.000000 1.000000 0.440000
0.275000 1.000000 0.440000
0.550000 1.000000 0.440000
0.825000 1.000000 0.440000
1.000000 1.000000 0.440000
0.000000 0.000000 0.660000
0.275000 0.000000 0.660000
0.550000 0.000000 0.660000
0.825000 0.000000 0.660000
1.000000 0.000000 0.660000
0.000000 0.255000 0.660000
0.275000 0.255000 0.660000
0.550000 0.255000 0.660000
0.825000 0.255000 0.660000
1.000000 0.255000 0.660000
0.000000 0.510000 0.660000
0.275000 0.510000 0.660000
0.550000 0.510000 0.660000
0.825000 0.510000 0.660000
1.000000 0.510000 0.660000
0.000000 0.765000 0.660000
0.275000 0.765000 0.660000
0.550000 0.765000 0.660000
0.825000 0.765000 0.660000
1.000000 0.765000 0.660000
0.000000 1.000000 0.660000
0.275000 1.000000 0.660000
0.550000 1.000000 0.660000
0.825000 1.000000 0.660000
1.000000 1.000000 0.660000
0.000000 0.000000 0.880000
0.275000 0.000000 0.880000
0.550000 0.000000 0.880000
0.825000 0.000000 0.880000
1.000000 0.000000 0.880000
0.000000 0.255000 0.880000
0.275000 0.255000 0.880000
0.550000 0.255000 0.880000
0.825000 0.255000 0.880000
1.000000 0.255000 0.880000
0.000000 0.510000 0.880000
0.275000 0.510000 0.880000
0.550000 0.510000 0.880000
0.825000 0.510000 0.880000
1.000000 0.510000 0.880000
0.000000 0.765000 0.880000
0.275000 0.765000 0.880000
0.550000 0.765000 0.880000
0.825000 0.765000 0.880000
1.000000 0.765000 0.880000
0.000000 1.000000 0.880000
0.275000 1.000000 0.880000
0.550000 1.000000 0.880000
0.825000 1.000000 0.880000
1.000000 1.000000 0.880000
